<?xml version="1.0" encoding="UTF-8"?>
<map version="1.10" tiledversion="1.10.2" orientation="orthogonal" renderorder="right-down" width="42" height="30" tilewidth="48" tileheight="48" infinite="0" nextlayerid="7" nextobjectid="31">
 <properties>
  <property name="groundStyle" value="peak"/>
 </properties>
 <objectgroup id="1" name="features">
  <object id="1" name="south_breach" x="900" y="1100" width="220" height="180">
   <properties>
    <property name="kind" value="gate"/>
    <property name="label" value="Rift Approach"/>
   </properties>
  </object>
  <object id="2" name="fracture_shore" x="240" y="520" width="260" height="420">
   <properties>
    <property name="kind" value="cliff"/>
    <property name="label" value="Fracture Shore"/>
   </properties>
  </object>
  <object id="3" name="void_gate" x="1490" y="360" width="300" height="520">
   <properties>
    <property name="kind" value="gate"/>
    <property name="label" value="Void Gate"/>
   </properties>
  </object>
 </objectgroup>
 <objectgroup id="2" name="collisions">
  <object id="4" x="0" y="0" width="2016" height="70"/>
  <object id="5" x="0" y="1370" width="2016" height="70"/>
  <object id="6" x="0" y="0" width="70" height="1440"/>
  <object id="7" x="1946" y="0" width="70" height="1440"/>
  <object id="8" x="900" y="1100" width="220" height="180"/>
  <object id="9" x="240" y="520" width="260" height="420"/>
  <object id="10" x="1490" y="360" width="300" height="520"/>
 </objectgroup>
 <objectgroup id="3" name="spawn_points">
  <object id="11" name="from_vale" type="player" x="1008" y="1328">
   <properties>
    <property name="spawnId" value="from_vale"/>
   </properties>
  </object>
  <object id="28" name="from_sanctum" type="player" x="1642" y="300">
   <properties>
    <property name="spawnId" value="from_sanctum"/>
   </properties>
  </object>
  <object id="30" name="from_rift" type="player" x="1540" y="300">
   <properties>
    <property name="spawnId" value="from_rift"/>
   </properties>
  </object>
  <object id="12" name="enemy_1" type="enemy" x="760" y="980"/>
  <object id="13" name="enemy_2" type="enemy" x="1160" y="780"/>
  <object id="14" name="enemy_3" type="enemy" x="1360" y="620"/>
  <object id="15" name="enemy_4" type="enemy" x="1700" y="420"/>
 </objectgroup>
 <objectgroup id="4" name="doors">
  <object id="16" name="frozen_vale_return" x="972" y="1180" width="80" height="80">
   <properties>
    <property name="label" value="Frozen Vale"/>
    <property name="targetZone" value="frozen_vale"/>
    <property name="targetSpawn" value="from_rift"/>
   </properties>
  </object>
  <object id="27" name="clockwork_sanctum_return" x="1560" y="360" width="80" height="80">
   <properties>
    <property name="label" value="Clockwork Sanctum"/>
    <property name="targetZone" value="clockwork_sanctum"/>
    <property name="targetSpawn" value="from_rift"/>
   </properties>
  </object>
  <object id="29" name="the_void_gate" x="1508" y="402" width="80" height="80">
   <properties>
    <property name="label" value="The Void"/>
    <property name="targetZone" value="the_void"/>
    <property name="targetSpawn" value="from_rift"/>
    <property name="lockMessage" value="Past the rift breach lies the final silence beyond the world."/>
   </properties>
  </object>
 </objectgroup>
 <objectgroup id="5" name="npcs">
  <object id="17" name="watcher" x="620" y="980">
   <properties>
    <property name="npcId" value="the_watcher"/>
    <property name="displayName" value="The Watcher"/>
   </properties>
  </object>
 </objectgroup>
 <objectgroup id="6" name="chests">
  <object id="18" name="frozen_reliquary" x="1540" y="360">
   <properties>
    <property name="gold" value="85"/>
    <property name="potions" value="2"/>
    <property name="keyItemReward" value="void_key"/>
    <property name="recruitEventId" value="guardian_mk3_join"/>
    <property name="message" value="The reliquary core unfolds into a guardian frame built to endure abyssal pressure."/>
   </properties>
  </object>
 </objectgroup>
</map>
