<?xml version="1.0" encoding="UTF-8"?>
<map version="1.10" tiledversion="1.12.1" orientation="orthogonal" renderorder="right-down" width="126" height="90" tilewidth="16" tileheight="16" infinite="0" nextlayerid="8" nextobjectid="29">
 <properties>
  <property name="groundStyle" value="cave"/>
 </properties>
 <tileset firstgid="1" source="tileset.tsx"/>
 <tileset firstgid="91" source="objects.tsx"/>
 <layer id="7" name="ground" width="126" height="90">
  <data encoding="csv">
65,65,76,65,65,65,65,65,65,75,65,76,65,65,65,65,65,65,65,76,65,65,76,65,65,65,65,65,65,65,65,65,75,66,65,65,65,65,65,65,65,65,65,76,65,75,66,65,65,65,65,65,65,66,65,65,66,66,65,65,65,65,65,65,65,65,65,65,75,65,65,65,65,76,65,65,65,65,65,65,76,65,66,76,65,75,66,65,65,76,76,66,65,65,65,65,65,75,65,65,65,66,65,65,65,65,76,76,65,65,65,65,65,65,65,65,75,65,65,65,75,65,65,65,65,76
76,65,75,65,65,66,66,65,65,66,65,65,65,65,76,66,76,65,65,65,76,75,65,65,66,65,65,65,66,75,76,65,76,65,75,65,65,65,76,65,65,65,75,76,65,65,65,65,65,65,75,65,65,65,66,65,75,65,65,65,65,75,66,76,65,65,65,66,65,65,65,65,76,65,65,65,66,65,65,75,65,75,65,76,65,65,75,75,65,75,75,65,65,65,65,65,65,65,65,76,65,65,66,65,65,65,65,65,65,65,65,66,76,76,76,65,65,65,65,65,75,65,76,65,65,76
65,65,75,65,75,65,65,65,65,65,65,75,65,76,76,75,75,65,65,65,66,75,65,65,65,65,66,65,65,75,75,65,65,65,75,76,65,65,65,65,76,65,65,65,65,65,65,65,76,65,65,76,65,65,75,65,65,65,65,65,66,66,65,76,65,65,65,65,66,65,65,65,65,65,65,65,76,65,65,65,65,65,65,75,75,65,75,65,75,65,65,65,65,65,65,76,65,76,65,65,66,65,65,66,65,76,75,65,65,65,65,65,76,65,65,65,65,75,65,65,65,66,65,65,65,65
65,65,65,65,65,76,66,65,65,65,75,75,65,65,65,65,76,65,65,76,65,65,65,66,75,65,76,65,65,65,65,65,75,65,65,66,65,76,65,65,75,65,65,65,66,65,65,65,65,66,66,76,65,65,65,65,75,65,65,65,66,66,65,66,65,65,76,75,66,65,65,65,65,75,65,76,65,65,65,65,75,65,65,65,65,65,65,66,65,65,65,76,65,76,76,65,65,76,65,65,65,65,65,65,65,65,65,65,66,65,65,65,65,76,66,65,76,66,75,65,75,65,65,66,65,65
76,65,66,66,65,65,76,65,65,76,65,65,65,65,75,76,65,65,65,65,66,66,65,75,65,65,65,65,65,65,65,65,66,65,65,66,65,65,65,66,65,65,65,66,65,65,65,65,75,75,65,76,65,65,65,65,65,65,65,65,65,66,65,65,75,65,65,75,65,65,65,65,65,76,65,65,76,65,76,65,66,65,66,65,65,76,65,65,76,65,76,65,65,65,66,65,65,76,66,65,65,65,65,65,65,66,65,65,65,65,75,75,66,75,65,66,65,65,65,75,65,65,65,65,65,65
65,65,66,65,66,76,65,65,66,65,65,65,65,75,75,65,65,65,75,65,65,76,65,65,75,65,65,65,75,65,76,65,66,75,65,65,66,65,65,65,65,65,66,65,66,65,65,65,65,65,65,65,65,65,65,76,65,65,65,65,66,65,65,65,76,65,65,65,65,65,65,65,65,65,76,65,65,65,65,65,65,65,65,65,65,76,65,65,65,65,65,65,65,65,65,75,65,65,65,65,65,66,65,65,65,65,65,65,65,66,65,65,66,65,65,76,65,65,65,66,75,65,66,65,65,76
75,75,65,65,65,66,65,76,65,65,66,65,65,65,65,66,65,66,65,65,65,66,75,65,65,65,65,65,65,75,65,65,65,65,65,65,65,65,75,65,65,65,75,66,65,65,65,65,65,65,65,76,65,75,76,65,65,66,65,65,65,66,65,76,65,65,65,65,66,76,75,65,65,65,65,65,65,65,65,65,76,65,65,65,76,66,65,65,65,76,65,65,65,65,65,65,65,65,76,65,65,65,65,76,65,65,65,65,65,76,65,65,65,65,65,65,65,65,66,65,65,65,65,65,65,65
65,75,65,76,65,65,65,65,66,65,75,75,65,66,65,76,65,65,65,76,75,65,65,65,65,75,65,65,65,65,65,75,65,76,65,65,65,75,65,65,65,76,65,66,66,65,66,65,66,65,65,65,65,66,65,65,65,76,65,65,65,65,76,65,65,65,65,65,65,76,65,65,65,65,65,76,65,65,76,76,65,65,75,65,65,76,65,76,75,65,65,66,65,65,65,65,65,65,66,76,66,75,65,65,75,65,65,65,65,76,76,65,65,65,65,65,65,65,65,65,65,65,65,75,65,65
65,76,65,65,65,65,65,65,65,65,65,65,65,65,76,66,65,65,65,65,65,65,65,66,65,76,65,65,76,66,65,65,65,65,65,66,65,65,76,66,65,65,65,75,65,65,75,65,65,65,65,66,76,65,65,65,75,65,65,65,65,75,65,65,75,65,65,75,65,65,65,76,65,66,65,65,65,65,65,65,66,65,65,65,66,65,76,75,65,75,65,65,65,75,65,75,66,65,65,65,65,65,65,66,65,76,65,65,76,65,65,65,75,65,65,65,65,76,65,65,76,65,65,76,65,76
65,66,76,65,65,65,65,65,65,65,76,66,65,65,65,65,65,65,65,65,75,75,65,65,65,65,65,66,65,75,65,65,65,65,65,66,65,76,65,65,65,65,75,65,65,65,65,65,65,75,76,75,66,65,65,66,65,65,65,75,65,65,65,65,65,76,65,65,65,75,65,65,76,65,65,65,66,66,65,65,76,66,65,65,65,65,76,65,66,65,66,65,65,65,75,66,65,65,65,65,65,65,76,65,65,65,65,65,66,66,75,65,65,65,65,65,65,66,66,75,65,65,65,65,66,65
65,66,75,65,76,65,65,76,65,65,65,65,65,65,65,65,65,65,65,65,65,65,65,76,65,65,65,75,76,65,65,65,76,66,66,65,65,65,65,66,65,65,65,65,76,65,65,65,65,65,76,66,66,65,66,65,65,65,65,75,65,66,65,65,65,65,65,65,65,65,65,75,66,65,76,65,65,65,76,65,65,65,76,65,65,65,65,65,66,65,65,75,65,65,75,65,65,76,65,65,76,76,65,65,75,65,65,65,75,65,65,75,65,65,65,65,65,76,65,65,65,65,65,65,76,65
66,65,65,66,65,75,65,65,65,65,66,65,65,65,76,65,75,75,75,65,65,66,66,76,66,65,76,75,65,65,65,66,65,65,65,65,65,65,65,65,65,65,65,65,65,65,65,65,66,65,75,65,65,65,65,65,65,65,65,66,76,65,65,76,75,66,65,65,76,65,65,65,65,75,65,65,75,65,65,65,66,65,65,65,65,65,65,66,75,65,65,65,66,65,65,65,65,65,65,76,65,65,65,75,65,65,65,66,65,66,76,65,65,65,65,76,75,65,65,65,75,65,65,65,65,65
65,75,65,65,65,75,66,65,66,65,65,76,76,65,65,75,76,65,76,76,65,76,65,65,75,65,65,65,66,65,65,65,76,65,66,65,75,76,65,65,65,65,65,65,65,65,65,65,65,65,66,76,65,76,65,75,65,65,65,65,75,75,65,65,65,65,65,65,65,75,75,65,76,65,65,65,66,65,65,65,66,75,65,65,65,65,75,65,65,75,65,65,65,65,65,65,65,65,75,65,65,65,65,65,65,66,65,75,76,65,75,65,65,65,65,76,76,76,65,65,66,65,65,66,65,65
65,66,66,65,65,65,65,66,65,65,75,65,65,65,65,65,65,65,65,65,65,66,65,65,76,65,65,65,65,76,65,65,66,65,65,65,65,65,65,76,75,75,65,75,65,76,65,65,65,65,65,76,65,65,65,65,65,65,66,65,65,65,65,65,65,65,66,66,65,66,65,65,65,65,66,65,65,66,65,65,65,65,65,75,76,66,65,75,65,65,76,65,65,65,75,65,65,65,65,65,65,75,65,66,65,65,65,75,65,65,75,65,65,76,76,76,65,65,65,66,65,65,66,65,65,65
65,65,76,66,76,66,66,65,65,76,65,65,65,65,65,65,65,65,65,65,65,65,65,75,65,65,65,65,65,65,65,65,65,65,65,65,65,65,66,75,75,65,65,65,65,65,76,75,75,76,65,75,65,65,65,65,65,65,66,66,65,75,65,65,65,66,76,65,65,65,76,76,65,65,65,65,65,65,65,65,65,65,65,65,65,65,65,65,65,65,76,65,66,65,65,65,65,65,65,66,65,76,65,65,65,65,65,75,76,65,65,65,65,65,65,65,65,66,65,65,65,65,65,66,65,65
65,65,76,65,65,76,65,65,65,65,65,65,76,75,65,65,65,65,65,65,76,75,65,65,66,65,76,76,66,65,65,66,65,65,65,76,65,65,76,65,66,65,65,65,65,65,66,65,65,65,65,65,65,65,65,65,65,65,65,76,65,66,65,66,65,65,65,65,65,75,65,65,65,65,75,76,65,76,65,65,65,65,75,65,76,65,65,65,65,65,65,75,65,65,65,65,76,65,75,76,65,65,65,65,65,66,65,65,65,65,65,65,65,65,65,66,76,65,65,66,65,65,65,65,76,65
65,76,65,75,65,65,65,66,65,65,65,65,65,65,65,65,65,65,65,65,65,65,65,65,65,65,65,75,66,75,65,65,65,65,75,65,65,75,65,65,65,75,65,76,65,65,65,66,65,65,65,76,65,65,66,65,65,65,76,75,65,65,65,66,65,65,65,75,65,75,76,65,65,65,65,65,75,65,65,65,66,65,65,66,65,65,75,65,65,65,65,76,75,76,65,65,66,65,66,65,65,65,66,65,65,65,65,66,65,65,65,66,65,66,65,65,65,76,65,65,65,75,65,65,65,65
75,76,65,66,65,65,65,65,66,65,75,65,65,76,65,76,76,65,76,65,76,65,65,65,65,65,65,75,65,65,75,65,65,65,65,75,65,65,65,65,76,66,65,65,65,65,65,76,65,66,65,65,65,65,65,65,65,65,65,65,75,65,65,65,65,65,65,75,65,75,65,65,66,65,65,65,65,75,65,76,75,65,65,65,65,75,65,65,76,65,75,76,76,65,65,65,66,65,65,65,65,66,76,65,76,66,65,65,75,76,65,65,65,65,65,65,75,66,65,65,65,65,65,76,65,65
76,76,65,65,65,65,65,76,65,65,76,65,75,65,75,65,65,65,65,75,65,65,66,65,65,65,66,75,65,65,65,65,76,65,75,65,65,65,65,65,65,65,65,75,65,75,65,65,65,65,75,65,65,65,76,65,76,65,65,65,65,75,65,65,65,65,65,65,76,65,66,65,65,65,65,75,65,65,65,65,65,65,65,65,65,65,65,65,65,65,65,66,65,65,65,76,65,76,65,65,65,76,65,65,65,76,76,65,65,75,75,65,65,65,65,75,65,65,76,65,66,65,65,66,76,65
65,65,65,65,65,65,76,65,65,65,65,65,65,66,75,75,65,65,66,65,66,65,75,65,65,65,65,65,65,65,65,65,65,76,65,65,65,65,65,75,65,75,65,65,65,65,75,65,65,76,66,65,76,65,65,65,65,65,65,65,65,65,75,66,65,76,76,65,76,65,65,66,65,65,76,76,65,65,65,76,75,65,65,65,65,65,65,76,65,65,65,65,65,65,65,65,65,65,76,65,76,76,66,65,65,66,65,65,65,65,65,65,65,75,65,65,65,66,65,65,65,76,65,65,65,65
65,65,65,66,75,65,65,65,65,65,65,65,65,65,65,65,65,65,65,66,65,65,65,65,65,65,75,65,65,66,65,75,65,65,65,65,76,65,65,66,65,65,65,65,65,65,65,76,65,65,65,65,76,65,65,65,66,65,65,66,65,66,65,75,65,65,65,76,76,76,65,75,66,65,65,66,65,65,65,75,65,65,65,75,65,75,65,65,76,75,66,65,76,65,66,76,65,65,65,65,65,65,65,65,65,65,65,65,65,65,75,65,65,65,66,75,76,65,75,65,65,65,65,65,65,65
65,65,65,65,65,75,65,65,65,76,65,76,65,65,76,65,65,65,65,76,65,65,65,75,65,65,65,65,65,66,75,65,66,66,65,65,65,76,66,65,65,65,66,65,75,65,65,65,65,65,65,66,65,65,65,65,65,65,65,65,65,65,76,75,65,65,65,65,65,65,65,65,65,65,66,75,75,65,65,65,65,65,65,65,76,65,65,65,65,65,65,76,65,65,65,65,65,65,66,65,65,75,65,65,66,65,65,76,75,65,65,65,75,75,65,76,76,65,75,65,76,65,65,65,65,65
65,65,65,65,65,65,65,65,75,66,65,76,65,65,75,65,65,65,65,65,75,65,65,75,65,65,76,65,65,65,65,65,65,65,65,65,65,65,65,65,75,76,65,76,76,76,65,76,65,65,66,65,76,65,66,76,76,75,65,75,65,65,65,76,66,65,65,65,65,65,65,65,76,65,76,65,66,65,75,65,75,75,65,65,76,76,65,65,75,65,65,65,65,65,65,65,76,65,65,65,65,65,65,75,65,76,65,76,75,65,65,65,76,65,65,76,65,65,65,65,65,65,65,65,76,65
65,65,65,65,65,65,65,66,65,65,65,65,65,65,65,65,65,65,65,65,65,66,65,66,65,65,65,75,65,65,65,76,66,65,76,75,75,65,76,76,65,65,65,65,65,66,65,65,75,75,65,66,65,65,65,65,65,65,66,75,75,65,75,65,65,65,75,65,65,76,65,66,65,65,75,75,76,65,65,65,66,65,66,65,75,75,65,65,65,65,65,65,65,76,65,65,65,75,66,65,65,66,65,65,65,65,65,75,65,65,75,76,65,76,75,65,65,65,65,65,65,65,65,65,65,75
65,65,75,76,65,65,75,75,65,76,65,75,76,75,75,66,65,76,65,65,65,65,65,65,75,65,66,65,65,65,76,65,65,65,65,65,65,65,75,65,75,65,65,65,65,65,65,65,65,65,65,65,65,65,76,75,75,65,65,65,65,76,65,75,65,76,65,76,65,65,66,65,65,65,75,76,65,65,65,65,65,75,65,65,65,65,76,65,65,65,65,65,65,65,75,65,65,65,65,76,65,75,76,66,75,65,76,65,65,65,65,76,65,66,65,75,65,75,65,65,65,65,65,75,65,76
65,65,76,66,65,65,65,65,65,65,65,76,75,65,66,65,65,65,65,65,65,65,65,65,65,66,75,65,65,65,65,65,65,65,65,65,65,75,65,65,75,65,65,65,65,65,66,66,76,65,75,66,65,65,65,65,65,65,65,65,76,65,65,75,65,65,65,65,65,66,65,65,76,65,65,65,65,65,65,65,65,65,66,75,65,65,65,65,65,65,66,76,65,65,75,65,65,65,65,65,65,66,65,75,65,66,65,66,65,65,65,65,76,76,65,65,66,66,65,65,65,65,65,65,65,66
65,65,65,65,65,65,65,65,65,65,65,66,65,65,65,65,76,65,65,75,65,65,76,75,65,65,65,75,75,66,65,65,65,75,65,76,75,65,65,65,65,76,65,65,66,66,65,65,65,65,75,65,65,66,66,65,65,76,75,65,65,75,65,65,65,65,65,65,65,65,65,65,66,65,65,65,65,65,65,65,65,65,65,65,76,65,65,65,65,65,65,65,66,65,65,75,76,65,65,76,66,65,65,66,65,66,65,65,75,65,65,65,65,65,65,65,65,65,65,65,65,66,66,65,66,65
65,65,65,65,65,65,65,65,76,66,65,65,65,65,66,65,65,76,65,65,65,65,65,65,65,66,65,75,65,65,65,65,65,66,75,75,75,65,65,76,65,75,75,65,65,65,65,65,65,65,65,65,76,65,65,65,75,66,65,65,66,66,75,66,65,65,65,65,65,75,65,65,65,65,75,65,65,66,76,65,65,65,75,65,65,65,65,65,65,65,65,66,65,66,65,65,65,65,65,65,65,65,65,65,65,65,65,65,65,65,76,65,75,65,65,65,65,65,65,65,65,76,66,65,75,65
65,75,65,65,65,65,65,65,65,65,76,65,65,65,65,65,75,65,66,65,65,65,75,65,75,75,65,65,65,75,65,65,65,66,65,75,76,65,65,75,65,65,65,65,76,65,65,66,65,65,76,66,65,65,65,75,66,65,65,65,65,66,65,65,65,76,65,65,65,66,66,65,76,65,65,65,65,76,65,65,65,65,75,65,66,65,65,65,65,65,66,65,75,75,65,65,65,75,75,65,65,65,75,65,65,65,65,66,65,65,65,65,65,65,65,76,65,65,65,75,65,65,65,66,65,65
65,65,65,66,65,65,65,65,65,76,65,65,66,65,65,65,65,66,75,65,66,65,65,76,76,76,65,76,66,65,65,66,66,75,65,66,65,65,65,65,75,65,76,76,65,75,75,65,75,65,65,65,75,65,65,65,65,76,65,65,65,65,76,65,76,65,75,76,75,65,65,65,75,65,65,65,65,65,65,66,65,65,66,65,65,65,65,65,65,65,65,65,65,65,65,65,65,65,65,65,65,65,75,65,65,65,75,65,76,66,76,65,65,76,65,65,65,65,65,66,65,65,65,66,65,65
76,75,65,65,65,75,65,65,65,65,65,65,65,76,66,76,65,65,65,76,65,66,65,65,65,65,65,75,65,66,65,65,65,65,65,65,76,66,76,66,65,66,65,66,75,75,66,76,65,65,65,76,65,65,65,65,65,66,65,65,65,76,65,65,65,76,65,65,65,76,65,75,65,65,65,66,65,65,65,66,66,65,66,66,65,65,65,65,75,65,65,65,65,65,65,65,76,75,66,76,76,65,65,65,65,65,65,65,65,65,65,65,76,65,65,65,65,65,65,65,75,65,66,65,65,65
66,65,65,65,65,65,75,65,65,65,75,65,65,65,66,65,65,65,65,65,65,65,65,65,65,75,65,65,65,65,65,65,65,65,65,65,75,65,75,65,66,66,65,66,65,65,65,65,65,65,65,66,76,65,65,65,65,76,66,65,65,65,65,75,76,76,65,65,65,65,66,65,65,65,65,65,65,65,65,66,66,65,65,65,65,65,65,76,76,76,76,65,65,65,65,65,65,65,65,65,65,65,65,65,75,76,65,75,75,65,76,66,65,75,75,65,76,65,66,65,75,65,65,65,66,66
76,76,66,65,65,75,66,65,65,65,65,65,65,65,76,66,65,76,65,65,76,75,65,65,65,66,65,75,65,65,65,65,76,65,66,65,65,65,65,65,66,76,65,65,65,65,65,65,65,66,66,65,65,65,65,65,65,65,65,65,65,65,65,66,65,65,66,66,66,66,65,65,65,65,65,65,65,65,66,65,65,65,65,65,76,66,65,65,76,66,75,66,65,65,65,65,65,65,65,75,75,65,65,65,65,75,65,65,76,65,76,65,65,65,65,66,65,65,75,65,65,65,65,65,65,65
65,65,65,65,65,65,65,76,65,65,65,65,65,65,66,65,65,65,65,65,66,65,65,65,75,65,65,65,65,75,65,65,65,65,66,65,65,65,65,65,65,65,65,65,65,65,66,65,65,65,65,75,65,65,65,65,65,65,65,65,66,65,65,65,65,65,65,65,65,65,65,65,65,65,65,65,65,75,65,66,66,65,76,76,75,76,65,65,66,65,65,65,65,65,65,76,66,75,65,65,65,65,65,65,65,66,65,65,65,65,75,65,65,65,65,65,65,65,76,66,65,66,76,65,66,65
65,65,66,65,65,65,65,65,76,65,65,65,76,65,65,75,76,65,65,65,66,76,65,76,65,75,65,65,75,65,65,65,65,65,75,65,65,65,65,75,65,65,65,65,65,65,75,65,76,65,65,65,65,65,65,76,65,65,76,65,65,65,65,65,65,65,65,65,65,65,65,66,65,66,65,65,66,65,65,65,65,65,66,65,65,75,65,65,65,65,65,65,65,65,76,75,65,65,65,76,65,66,65,65,65,65,65,65,65,65,65,65,65,76,65,65,65,76,65,65,65,65,75,65,76,65
65,65,65,65,65,65,65,65,65,76,65,65,65,65,65,76,65,65,65,66,65,65,65,65,65,65,65,65,66,65,65,65,65,65,65,65,65,65,75,76,65,65,75,65,65,65,65,65,65,76,65,65,65,66,65,65,65,65,76,75,65,65,65,65,75,65,65,65,65,76,65,65,65,65,65,65,65,65,65,75,65,75,66,76,65,65,65,65,65,65,66,75,65,75,65,65,65,75,65,65,66,65,65,65,65,65,65,65,65,65,65,76,66,66,76,65,65,65,65,65,75,65,76,65,75,65
65,65,75,76,66,65,75,66,65,66,65,65,65,76,65,65,66,66,65,65,65,65,66,65,65,75,66,65,75,65,65,65,66,65,76,65,65,66,65,66,65,66,75,65,65,65,65,65,65,76,65,76,75,65,76,65,66,76,65,65,65,65,65,76,75,65,65,65,65,75,66,65,65,65,65,75,65,75,65,66,66,65,75,65,65,75,76,65,65,65,65,65,65,65,65,65,65,65,76,65,65,65,65,65,65,65,75,65,65,65,65,65,76,66,65,65,65,75,66,65,65,65,75,65,65,65
75,76,65,76,65,65,65,65,65,75,65,65,66,75,65,65,76,75,65,65,65,65,75,65,65,76,65,65,76,65,65,75,65,65,75,66,65,65,66,66,76,66,66,65,65,65,65,65,65,65,65,65,65,65,65,65,65,65,65,65,65,65,65,65,76,75,65,65,65,65,65,76,65,65,65,65,76,65,65,65,65,65,65,65,65,66,65,65,66,65,65,65,75,65,65,75,65,65,65,65,76,65,76,66,65,65,65,65,66,65,65,66,65,65,65,65,65,65,65,65,65,65,65,65,65,75
65,65,65,65,65,76,65,65,76,65,76,65,65,65,65,65,65,66,65,65,65,65,65,65,65,65,65,75,65,76,65,65,65,65,65,66,65,65,65,65,75,65,66,65,65,65,65,65,65,75,66,65,65,65,76,65,65,65,75,65,65,65,65,65,65,65,65,65,65,65,65,65,66,65,76,76,65,75,65,76,65,65,65,65,65,65,65,65,65,65,65,65,65,65,65,65,65,65,65,76,65,65,65,65,65,65,65,65,65,65,65,65,76,65,65,65,66,65,65,66,65,76,66,65,65,65
76,76,65,65,65,65,65,75,65,65,75,75,65,65,75,65,65,76,66,65,65,65,66,65,65,65,65,65,65,65,75,65,65,65,66,65,65,65,65,65,65,65,66,75,75,75,65,65,65,76,65,65,65,75,65,65,75,76,65,65,65,66,75,65,65,65,65,65,65,75,65,65,66,65,76,65,76,65,66,65,76,65,65,76,65,65,66,65,65,65,75,76,65,65,75,65,65,75,65,65,65,65,66,65,65,65,65,75,66,65,76,76,65,76,76,76,65,65,65,66,65,65,66,65,65,66
76,65,75,75,65,65,65,75,65,65,65,76,65,75,75,76,65,65,65,65,65,76,65,65,65,65,65,65,65,66,65,65,65,65,65,65,65,65,65,65,65,65,75,65,76,65,65,65,65,75,75,65,65,65,65,66,66,76,65,66,65,65,66,66,76,65,65,65,65,65,66,65,65,65,65,65,66,65,65,66,66,65,65,65,65,75,65,76,65,65,65,65,65,66,65,65,65,75,65,75,65,66,65,65,66,65,65,65,75,75,65,65,65,65,76,65,66,65,65,75,65,65,65,65,66,75
65,65,65,75,65,75,65,65,66,65,65,76,65,76,75,65,65,65,65,65,66,65,65,65,65,65,65,65,65,66,65,65,66,65,65,75,76,75,65,65,65,65,65,65,65,65,65,65,75,65,75,65,65,65,65,65,65,65,66,65,65,76,75,76,65,66,65,65,65,65,65,75,65,65,65,65,65,66,65,65,66,66,65,66,66,75,66,75,65,65,65,65,65,65,76,65,65,65,65,65,65,66,66,75,65,65,65,66,65,65,76,65,65,75,65,65,65,75,65,65,65,75,65,76,65,65
65,65,65,75,65,65,65,65,66,66,65,66,65,76,65,65,66,65,65,65,65,65,65,65,66,65,65,65,75,65,65,66,65,65,65,65,65,65,65,66,76,65,65,65,76,65,65,65,65,66,65,76,76,66,65,65,75,65,65,76,76,65,65,75,65,76,65,65,75,65,66,66,65,65,65,65,65,65,65,66,65,65,65,65,66,65,65,65,65,75,75,65,66,65,65,65,65,76,65,65,65,65,65,65,65,65,65,65,65,65,65,76,75,65,65,76,76,76,65,65,66,65,65,65,65,65
65,65,66,65,65,65,65,65,65,65,65,65,65,65,65,66,66,65,65,65,75,65,65,65,76,76,65,76,65,65,65,65,65,76,76,76,76,65,76,65,65,66,65,66,65,65,65,76,65,76,65,65,65,65,65,65,65,66,76,65,65,65,65,65,65,76,65,65,65,75,75,65,65,65,65,65,66,65,76,76,65,66,65,65,65,75,65,65,76,65,65,65,65,65,65,65,65,65,65,65,66,65,75,65,65,65,66,65,65,65,65,76,76,65,65,65,66,75,65,65,65,65,65,75,65,65
65,75,65,65,65,65,76,65,65,65,65,65,66,65,65,65,65,65,65,65,65,65,65,65,65,65,65,65,76,65,65,65,65,65,65,65,65,65,76,75,66,65,65,65,65,66,76,65,65,65,65,65,65,65,65,65,65,65,65,65,65,65,76,76,65,65,65,75,65,65,66,65,65,65,65,75,65,65,75,66,65,65,75,65,76,65,65,65,65,65,65,65,65,65,65,65,76,65,65,65,66,66,65,65,75,65,76,75,65,75,65,65,76,66,65,65,65,65,76,66,65,65,65,75,75,65
65,65,65,65,76,65,76,65,65,65,75,66,65,65,65,65,76,75,66,65,65,65,65,65,65,65,65,65,65,65,66,65,65,65,76,65,65,65,76,65,75,76,65,65,76,65,65,65,65,65,65,65,65,76,76,75,65,65,66,66,75,65,65,76,65,65,76,65,65,65,65,65,65,65,65,65,65,65,65,76,65,66,65,65,65,65,75,76,65,65,65,65,76,65,65,65,65,65,65,65,76,65,76,65,65,66,76,65,66,65,65,65,65,65,65,75,65,65,65,65,65,65,65,65,65,65
65,65,75,65,65,65,65,65,65,75,76,75,65,75,65,65,65,65,65,66,76,65,65,76,65,65,65,65,65,65,65,65,76,65,65,65,65,65,76,65,65,65,65,75,65,75,76,65,65,65,66,65,65,75,65,76,65,76,75,65,75,65,65,65,65,65,65,65,65,65,65,65,65,75,65,76,65,65,65,65,66,65,65,65,65,66,66,76,65,65,65,65,76,65,75,65,65,75,65,76,65,65,65,65,65,75,65,65,65,75,65,65,65,75,65,65,65,65,65,65,65,65,76,65,76,65
65,65,76,65,65,65,65,66,65,65,65,76,65,65,75,76,65,76,65,65,65,65,65,65,65,65,65,65,75,65,65,66,75,65,75,65,66,75,65,66,65,65,65,65,76,65,65,65,75,65,65,65,65,75,65,65,65,76,65,65,65,76,75,65,65,65,65,65,65,66,65,65,65,65,75,65,65,66,65,65,65,66,65,76,65,66,75,66,65,65,65,66,65,66,65,65,65,66,66,76,65,65,65,76,65,65,65,66,65,75,65,65,65,65,65,65,65,65,65,65,65,65,65,65,65,65
65,65,65,65,76,75,75,65,75,75,65,75,65,65,65,65,65,65,65,65,65,76,65,65,66,65,65,65,65,65,65,65,76,65,65,65,76,65,76,65,65,65,75,65,65,75,75,65,65,65,66,75,65,75,65,65,65,65,66,65,65,65,76,65,65,65,76,65,65,66,65,65,65,65,65,65,65,65,65,76,66,76,76,65,65,65,76,75,65,65,65,65,65,65,65,65,65,65,65,65,65,66,65,65,66,75,66,65,65,65,65,65,66,65,75,65,65,65,76,66,76,76,65,65,65,75
65,65,65,65,65,66,65,65,65,65,75,65,65,65,65,65,66,66,66,75,65,65,65,65,65,65,65,65,76,65,65,66,66,65,65,66,65,76,65,75,65,75,66,65,66,65,75,65,65,65,65,75,65,65,65,75,65,65,75,75,65,66,75,65,65,66,65,65,65,65,65,65,75,65,75,65,65,65,65,65,65,75,65,65,65,66,65,65,65,65,65,65,65,65,75,65,65,65,66,65,65,76,65,65,66,65,65,65,65,65,65,65,65,76,65,75,76,75,75,65,65,65,65,66,65,65
65,66,65,75,76,66,65,76,66,65,65,65,65,75,75,65,65,65,65,65,65,65,65,65,65,65,65,65,65,65,65,65,65,65,65,65,65,76,65,66,66,76,65,66,65,75,66,65,65,65,76,66,65,76,65,65,65,65,65,65,66,76,65,65,65,65,75,75,65,65,65,66,65,65,65,65,65,75,65,75,65,65,75,65,66,65,76,65,76,66,66,65,65,65,65,76,66,66,65,65,65,65,76,65,65,65,65,65,76,75,65,65,65,65,65,65,65,65,65,65,65,75,65,65,65,76
76,65,65,65,75,65,65,65,65,65,65,66,65,65,75,65,65,66,75,65,65,65,65,65,76,75,65,65,65,65,75,76,65,65,65,76,65,65,65,65,65,75,65,65,65,65,65,66,66,65,65,65,65,75,65,65,65,76,65,65,65,65,65,65,65,65,65,65,75,65,65,65,65,65,65,75,75,76,75,65,65,65,65,65,65,65,65,65,76,65,65,66,75,65,65,76,65,65,65,66,66,65,65,75,65,65,65,65,65,75,65,65,65,65,65,65,65,65,65,65,65,66,76,65,65,65
65,65,75,65,65,65,76,65,65,65,66,65,66,65,76,76,65,65,65,65,65,75,66,65,76,65,65,65,65,66,65,65,65,65,65,65,65,65,75,65,76,65,65,65,65,65,66,66,65,75,65,65,65,66,65,65,65,65,65,65,76,66,66,65,65,65,65,65,66,65,65,75,65,65,66,65,76,65,76,65,65,65,65,65,65,65,65,65,65,66,65,65,65,66,65,65,65,66,76,65,65,75,65,65,65,65,65,65,76,65,65,65,75,65,65,65,65,65,65,65,65,75,66,66,65,76
66,75,65,65,65,65,76,65,65,75,75,76,65,65,65,76,65,65,65,75,65,65,65,65,65,65,65,75,65,65,65,66,66,65,75,65,65,65,65,66,76,65,65,65,65,76,65,65,76,66,65,65,66,65,66,65,76,76,65,65,65,76,65,65,76,65,65,65,65,75,65,66,66,65,65,65,65,65,65,65,65,65,65,65,65,65,65,65,65,66,66,65,65,66,65,66,66,65,65,65,65,65,65,65,65,65,65,65,65,65,65,65,65,65,65,66,65,75,65,65,65,76,65,66,65,65
65,65,65,65,65,65,66,65,65,65,65,65,76,66,65,65,76,65,65,65,65,65,65,65,65,65,65,65,66,65,65,65,65,65,65,66,76,65,76,65,66,65,65,65,65,65,65,65,76,65,65,65,75,65,65,65,65,65,65,75,65,65,65,65,76,65,65,65,76,65,65,75,65,65,76,65,65,65,65,65,76,65,65,65,65,65,65,65,65,65,66,65,65,65,65,65,65,66,66,65,65,65,66,65,65,76,66,65,65,65,65,66,76,65,65,65,75,65,65,75,66,76,65,65,65,65
65,65,65,66,65,65,65,65,76,65,65,65,65,65,75,65,65,65,65,65,65,76,65,65,65,65,75,65,65,65,65,65,75,65,65,65,65,65,65,65,65,65,65,65,65,76,65,65,65,76,65,65,65,65,65,65,65,65,76,76,66,75,65,65,65,65,65,65,65,65,65,76,65,65,65,66,65,66,65,65,65,76,65,65,66,65,65,76,65,65,65,65,66,66,65,65,65,65,65,65,65,75,65,65,66,65,65,75,76,65,65,65,66,65,65,65,66,65,65,65,65,65,66,65,65,66
65,65,65,65,75,75,65,65,65,76,65,65,76,66,65,65,65,65,65,65,66,65,76,75,65,65,65,65,66,65,65,65,65,65,66,65,75,65,65,65,65,65,65,75,65,65,65,65,75,75,65,65,65,65,65,65,65,65,65,65,65,65,65,75,65,65,65,65,65,65,65,75,76,65,65,65,65,76,65,65,65,65,65,65,65,65,65,76,65,65,65,66,65,65,65,65,75,65,65,75,65,65,66,65,65,66,66,65,65,65,65,65,65,75,75,65,75,65,65,65,65,65,65,65,65,65
66,65,65,76,65,76,65,65,65,65,66,65,65,65,65,65,65,65,65,75,65,65,65,66,76,65,66,65,65,75,65,65,66,65,76,65,76,65,65,65,65,65,65,65,65,75,65,65,65,65,65,65,65,65,65,65,65,65,75,75,65,75,65,65,65,65,75,75,65,65,66,65,75,75,66,75,66,65,65,66,65,65,76,65,66,65,65,65,65,65,76,65,65,65,76,65,65,76,75,76,66,76,65,65,65,75,65,65,76,65,65,65,76,66,65,65,65,65,65,75,66,65,75,65,65,65
65,65,66,65,65,65,65,65,65,65,65,75,65,65,75,65,65,75,65,66,75,65,66,65,65,65,65,75,65,65,65,65,65,65,65,65,65,65,76,76,65,65,65,65,65,65,76,65,65,65,65,65,76,65,65,65,66,65,65,75,65,65,65,65,65,76,65,76,65,75,65,75,65,65,65,75,65,65,65,76,65,66,65,65,65,65,66,65,76,65,65,66,65,66,65,65,65,65,75,65,65,65,65,65,75,65,65,75,66,65,75,65,66,65,65,65,65,65,65,76,65,66,75,65,65,75
75,76,75,65,76,65,65,65,65,65,65,75,65,75,65,65,65,65,65,65,75,66,65,65,65,65,65,76,65,66,65,65,75,65,65,65,65,65,75,76,65,75,65,65,75,65,65,65,76,65,65,75,65,76,65,76,66,66,65,66,65,65,75,65,65,65,65,65,65,76,65,65,65,65,65,65,75,65,75,65,65,66,65,65,65,65,65,65,65,65,65,65,65,65,65,65,65,65,65,65,65,65,65,65,76,65,76,65,65,65,65,65,65,75,65,76,76,76,65,65,65,65,65,76,65,65
75,65,75,76,76,65,65,65,66,65,65,65,75,65,65,65,65,75,76,65,76,75,65,75,65,65,65,65,65,65,65,75,66,65,65,65,65,65,75,75,65,65,65,75,65,65,75,76,65,66,65,65,65,65,65,65,65,66,76,65,65,65,65,66,65,66,76,66,75,65,75,65,65,66,65,66,65,65,65,66,65,65,65,65,66,65,65,75,65,65,65,65,76,66,76,65,66,76,76,65,75,65,65,65,66,65,75,65,75,65,76,65,65,65,65,65,65,65,65,65,75,65,65,65,65,65
76,65,65,75,65,65,76,66,65,75,76,66,65,66,76,65,66,75,65,75,66,65,65,65,65,75,65,65,65,65,65,65,65,66,65,65,75,66,65,75,65,65,66,65,65,66,65,65,65,65,65,65,65,65,76,65,65,65,65,65,65,65,65,76,65,65,76,65,65,65,66,65,65,76,65,65,65,66,65,65,65,65,76,65,65,65,66,65,65,76,75,65,65,76,65,65,65,65,65,65,65,66,65,65,75,65,75,65,66,65,65,65,76,65,65,66,65,65,65,76,76,65,65,76,65,65
65,65,76,76,65,65,76,65,65,65,65,65,65,65,66,76,65,65,65,65,76,65,65,65,65,65,65,66,65,76,65,65,76,65,75,66,65,76,65,65,65,65,66,65,65,65,76,65,66,65,65,65,76,76,65,75,76,65,66,65,65,66,65,65,65,66,65,65,65,65,75,65,65,65,76,66,65,76,66,65,65,65,65,66,65,65,76,65,65,66,65,65,65,65,66,65,65,65,66,65,75,65,75,66,75,75,65,65,65,75,65,65,65,76,65,65,76,65,76,65,65,65,66,66,65,76
66,65,65,66,65,76,65,65,65,65,75,75,65,65,65,65,76,65,65,65,65,65,65,76,65,65,65,75,65,65,66,65,76,76,65,76,75,65,65,65,66,75,65,65,65,66,65,76,65,65,65,65,65,65,65,66,75,65,75,76,75,76,65,65,65,65,65,65,75,65,65,75,65,65,65,65,65,76,66,65,66,66,65,75,65,75,65,76,65,65,65,65,65,76,65,76,65,66,65,65,65,65,65,76,65,65,65,65,65,66,75,65,65,65,65,65,65,65,66,76,65,66,65,65,65,65
65,65,65,65,65,65,65,65,65,65,66,65,75,76,65,65,65,75,65,65,65,66,65,65,65,65,66,65,65,65,65,66,66,76,65,65,66,65,65,66,65,75,65,65,65,75,65,76,75,76,65,65,65,75,65,65,66,65,65,65,65,65,65,65,65,65,65,65,65,65,75,65,65,65,65,65,65,65,65,65,65,65,65,66,65,65,65,66,65,65,65,65,65,65,65,66,65,65,65,65,76,65,65,65,65,65,65,65,65,65,65,65,65,65,76,65,65,65,66,65,65,65,76,65,65,65
76,75,65,65,65,76,65,65,65,65,65,65,75,76,65,65,65,75,65,65,65,65,65,65,66,65,75,65,65,65,75,65,65,65,65,66,65,65,65,65,65,65,65,65,76,65,65,65,65,65,65,65,65,65,65,76,65,65,65,65,65,75,75,65,65,65,65,65,75,65,65,65,65,65,65,65,76,65,65,65,65,65,75,75,76,65,65,65,75,75,65,65,65,65,65,65,65,65,65,66,65,65,76,65,66,65,65,66,65,65,65,65,65,65,65,65,65,65,65,65,75,75,65,66,65,65
65,65,65,75,65,65,65,65,65,65,66,66,65,65,65,76,66,65,65,76,65,65,65,65,65,65,65,65,65,66,65,65,65,65,65,65,65,75,65,65,65,65,75,65,66,65,65,65,65,65,65,75,65,65,66,65,65,65,66,65,65,76,75,65,65,65,65,65,66,65,65,65,65,65,65,65,65,76,65,65,65,66,65,65,65,65,65,75,76,66,65,65,65,65,65,65,65,65,65,65,65,66,65,66,65,65,65,65,65,65,65,65,65,65,66,65,65,65,75,65,65,65,65,75,65,65
65,65,75,65,65,65,75,65,65,65,66,65,65,65,66,65,76,66,75,65,65,66,65,76,65,65,65,65,66,65,65,65,65,65,65,65,65,65,65,75,65,65,65,65,65,65,66,75,65,75,65,65,76,65,66,66,65,65,76,65,65,65,76,65,65,66,65,65,65,66,66,65,75,65,75,65,76,65,65,76,75,65,65,65,65,75,76,65,66,65,65,65,65,75,65,65,65,75,65,65,65,65,65,65,65,65,65,65,75,65,65,65,65,66,65,66,66,65,65,65,76,65,66,65,65,65
65,66,65,65,75,75,65,65,65,66,76,65,65,65,65,65,65,76,65,65,65,75,65,65,65,75,65,65,65,65,65,65,65,65,65,65,65,75,65,75,65,65,65,65,65,65,65,75,65,76,65,65,66,65,65,66,65,65,65,65,75,66,65,65,65,65,65,65,65,65,65,76,65,65,75,65,65,76,65,65,65,65,65,65,75,66,65,76,76,75,65,66,65,76,65,65,75,65,65,76,65,76,75,65,75,65,65,65,65,65,65,65,66,65,65,66,65,76,66,65,65,65,65,76,65,65
65,65,65,65,76,65,65,65,65,65,65,65,65,65,65,75,75,65,66,65,65,65,65,66,65,65,65,65,75,65,66,65,65,66,65,76,65,65,66,65,65,65,65,65,65,65,65,65,75,76,65,65,76,65,65,65,65,65,76,65,65,65,65,65,75,76,76,66,65,65,65,65,66,75,65,65,65,65,75,65,75,65,76,75,65,65,65,76,65,65,65,65,66,65,65,65,65,65,76,65,76,76,65,65,65,76,65,65,65,65,65,76,76,66,65,65,75,65,76,65,65,65,65,65,65,65
66,65,65,65,65,65,65,65,66,65,65,65,66,65,76,65,65,65,66,66,66,65,65,65,65,65,65,65,75,65,65,75,65,65,66,76,65,66,65,65,65,65,65,65,65,75,65,75,65,65,65,65,75,65,65,65,65,65,65,65,75,65,66,65,65,65,65,65,65,65,76,76,75,65,66,65,65,65,65,65,65,65,65,76,65,65,65,65,65,65,65,76,65,65,65,65,65,65,65,65,65,65,66,65,65,65,65,65,66,65,65,65,75,65,65,75,65,65,65,75,75,65,65,65,76,66
76,65,65,66,65,65,65,65,65,75,65,65,65,65,65,65,75,65,66,65,65,65,65,66,65,65,65,65,75,65,65,65,65,65,76,65,65,76,75,65,65,76,65,65,65,75,66,65,65,65,65,65,75,65,65,65,65,65,65,66,75,75,65,65,65,65,65,65,76,76,66,66,65,76,65,75,65,65,76,65,65,65,76,65,76,76,65,65,65,65,65,65,76,76,66,75,65,65,75,65,75,65,76,65,76,65,65,65,65,65,76,76,65,75,76,65,65,65,65,65,65,76,76,75,76,65
65,65,65,65,76,65,66,65,65,65,65,65,65,65,75,65,65,76,65,65,75,65,65,65,65,76,65,75,65,65,65,65,75,75,75,65,65,75,65,66,76,65,65,65,76,76,65,65,65,76,65,65,65,65,65,66,65,65,65,66,65,65,65,65,65,65,66,65,66,66,65,66,65,75,65,65,65,65,65,76,65,66,65,76,65,75,65,65,65,65,65,66,75,65,65,76,65,65,65,65,65,65,65,65,65,75,65,76,65,65,65,65,65,66,65,65,65,65,75,75,65,65,76,65,65,75
65,65,76,65,65,65,76,75,76,65,65,65,65,65,66,65,66,66,65,65,76,65,76,65,65,65,65,65,65,65,65,65,76,66,76,65,65,65,65,76,65,65,75,65,65,66,75,75,65,65,65,65,65,65,66,65,65,65,65,76,66,65,65,65,65,65,75,76,65,66,76,66,65,65,65,65,75,76,65,66,65,65,76,65,65,75,65,65,75,65,65,66,75,66,65,65,65,75,66,76,65,75,65,65,66,65,65,65,75,65,65,65,65,65,65,75,65,75,65,65,75,65,65,65,65,65
66,75,65,65,65,76,66,75,65,65,65,76,66,76,65,75,75,66,65,65,65,65,65,65,65,66,65,76,75,66,65,65,65,66,65,65,76,75,66,65,65,66,65,65,65,65,66,65,65,65,65,76,65,65,65,65,65,65,66,65,65,65,65,65,65,65,65,65,65,65,65,65,65,66,65,65,65,76,65,65,66,76,76,65,75,65,65,65,65,75,65,65,65,76,65,66,65,65,65,65,65,65,65,76,65,65,65,65,76,76,65,66,65,65,65,65,66,65,66,65,65,75,65,65,66,65
65,66,65,65,65,66,66,65,65,66,65,65,66,65,65,66,65,65,65,65,75,65,65,66,65,75,65,65,66,65,65,65,65,75,75,65,65,65,65,76,66,66,66,65,65,75,65,75,66,65,65,65,76,65,76,65,65,75,65,76,65,65,65,76,65,65,65,66,65,75,66,65,76,65,65,65,65,65,65,65,65,65,65,65,76,75,75,65,66,65,65,65,65,76,65,65,65,65,75,65,65,65,65,65,66,65,65,65,76,65,65,76,65,76,65,65,65,66,75,66,65,65,65,75,76,76
65,76,65,65,65,65,66,65,65,65,65,65,65,65,65,75,76,65,66,65,66,65,65,76,66,65,65,65,65,65,65,75,65,65,65,76,76,65,66,65,75,65,66,65,66,75,65,76,66,76,75,76,65,65,65,76,66,65,65,65,76,65,65,65,66,75,65,66,65,65,76,76,75,65,66,65,65,66,65,65,66,66,65,65,65,66,65,76,75,65,65,65,65,65,75,65,75,76,65,65,66,65,65,65,65,76,66,65,65,65,65,65,65,65,65,76,65,76,76,65,65,65,65,66,65,66
65,76,65,65,65,65,65,75,75,75,65,76,65,65,65,65,75,76,65,65,66,65,65,65,65,76,65,65,65,76,65,65,65,76,75,66,65,65,65,65,75,65,65,65,65,66,66,76,65,65,65,65,65,65,66,65,65,65,76,65,65,76,76,65,65,65,65,65,65,76,66,65,66,65,65,65,65,65,65,65,65,65,65,65,65,65,65,76,65,65,65,65,76,65,65,75,66,66,76,65,65,65,65,65,65,75,65,65,76,65,65,65,65,76,66,65,65,65,65,66,65,65,76,76,65,65
65,65,76,65,65,65,66,75,65,75,76,65,65,65,65,65,65,65,65,65,66,65,65,65,66,65,65,75,65,65,65,75,65,65,65,65,65,65,65,65,65,65,65,75,65,65,65,65,65,66,66,65,65,65,65,65,66,65,65,65,65,65,65,66,75,65,65,65,76,66,65,75,65,65,65,65,65,65,65,66,76,65,65,76,76,65,65,65,66,66,75,65,65,65,65,65,65,65,66,65,65,65,65,65,65,65,65,65,76,65,65,65,65,75,66,65,65,65,65,65,65,65,75,75,65,65
66,65,65,75,65,65,66,65,66,65,65,65,65,65,65,65,65,65,65,65,65,65,76,65,65,66,75,65,65,65,65,65,65,65,65,75,65,65,65,75,65,65,65,65,65,65,65,75,65,65,65,65,65,65,65,65,65,65,65,65,65,66,65,65,65,65,65,65,65,65,75,65,65,65,65,65,76,66,65,75,75,65,76,76,65,66,65,65,65,75,75,65,65,75,65,76,65,65,65,65,65,65,65,75,65,76,65,65,65,65,65,65,76,65,65,76,76,65,65,65,65,75,65,65,65,76
76,66,65,65,65,76,65,66,65,65,65,65,76,75,65,65,75,65,65,66,65,65,65,65,66,65,66,75,76,65,65,65,65,75,65,75,65,65,65,65,76,76,65,65,65,65,65,75,65,65,76,76,65,65,65,66,65,65,65,65,65,65,75,66,65,65,65,65,65,65,65,65,65,65,75,65,75,65,65,66,65,65,65,65,65,65,65,66,65,76,66,65,65,76,65,65,66,65,65,75,65,65,76,65,65,65,65,65,65,65,65,76,65,66,65,76,65,65,65,65,75,65,75,65,65,75
76,75,76,65,65,65,65,65,75,76,65,65,65,65,65,65,65,65,65,65,65,65,65,65,75,65,65,66,65,65,65,65,65,65,65,65,65,66,76,65,65,65,75,65,65,65,65,65,75,65,76,65,65,65,65,65,75,65,65,65,75,65,65,65,65,75,65,65,65,65,65,65,66,65,66,75,65,65,65,65,65,65,66,65,65,65,65,66,65,65,65,76,65,75,65,65,65,65,65,65,76,65,66,65,65,65,65,65,65,65,65,65,65,65,65,65,65,75,66,65,65,65,76,65,66,65
65,65,65,65,65,75,65,65,65,65,65,65,65,65,76,66,65,65,75,65,65,65,65,65,66,65,65,75,66,65,65,65,75,65,65,65,66,65,65,76,66,65,65,65,65,65,65,76,65,65,65,75,65,65,65,65,65,65,65,65,65,65,66,65,65,75,65,66,65,65,76,76,76,65,66,65,65,75,65,65,65,65,65,65,65,65,66,66,65,75,65,65,75,65,65,75,65,65,65,65,76,75,65,65,65,65,65,65,65,76,65,65,65,65,65,66,65,65,65,65,65,65,65,65,75,65
76,76,76,65,65,65,65,65,76,75,65,65,65,66,65,65,66,65,65,65,66,65,65,65,65,75,65,65,65,65,76,65,66,65,65,65,65,65,65,65,65,75,66,65,76,65,65,65,65,65,65,66,75,65,65,65,65,65,65,65,65,65,65,75,65,66,75,65,75,65,66,76,65,65,65,76,65,75,75,66,65,65,65,65,65,65,65,65,65,65,75,65,65,75,65,66,65,65,65,76,65,65,65,75,65,65,76,65,76,66,65,65,65,76,65,65,65,65,65,65,76,65,65,65,65,75
65,65,65,66,65,65,65,65,65,65,75,65,75,76,65,65,66,65,65,65,65,65,65,66,65,65,65,65,65,65,65,75,65,65,65,65,65,65,65,65,65,65,65,66,75,65,65,76,75,65,66,65,75,65,65,65,65,65,65,65,76,65,65,65,76,76,76,66,65,65,65,65,65,65,65,65,65,66,76,75,66,65,65,75,65,65,66,65,65,65,65,65,65,65,65,65,65,65,65,65,76,65,65,66,65,65,65,65,65,66,65,65,65,65,65,65,75,65,65,65,65,66,65,66,66,65
65,76,65,65,65,65,65,65,65,65,65,65,65,76,65,76,66,75,65,65,65,76,65,65,76,65,65,65,65,65,75,65,65,65,65,65,76,65,65,66,75,65,65,65,65,65,65,65,65,65,65,65,65,65,76,76,66,65,65,65,65,65,65,65,65,65,65,65,65,65,75,65,65,65,66,65,66,76,65,65,65,65,65,65,65,75,65,65,65,65,65,65,75,76,66,65,65,65,65,65,76,66,76,75,65,65,75,76,76,65,65,76,65,65,76,66,75,65,66,75,65,75,65,65,65,65
65,65,65,65,65,76,65,76,65,75,66,65,65,65,66,65,65,65,65,65,65,65,65,65,65,65,75,65,65,65,65,65,65,65,65,76,65,75,65,65,65,65,66,66,65,65,65,65,65,65,65,65,75,75,76,65,65,65,66,76,65,65,66,66,65,65,65,65,75,66,65,65,66,76,65,65,65,65,65,65,76,65,65,65,65,65,66,76,65,65,76,66,66,65,65,76,65,65,65,65,65,76,65,65,65,65,65,65,65,65,65,65,65,76,65,65,65,65,65,75,65,65,65,65,75,75
65,75,65,65,65,65,76,65,65,76,65,65,65,65,65,65,65,65,76,65,76,65,65,65,65,76,65,65,65,65,65,75,66,65,75,65,66,65,66,66,66,65,65,65,65,65,65,66,76,65,66,75,65,65,75,65,65,65,76,65,75,65,65,65,65,75,65,65,66,75,65,75,65,65,65,76,66,65,75,65,65,66,65,65,65,65,76,65,65,65,65,65,66,75,65,66,65,66,65,76,65,66,65,65,65,76,65,66,76,65,65,65,65,65,76,65,65,76,65,76,65,65,75,66,65,65
76,65,66,65,65,65,65,65,66,65,76,75,65,65,65,65,76,66,65,65,65,65,65,65,65,65,65,65,65,65,65,76,65,65,65,65,76,65,65,65,66,65,66,65,65,65,65,65,65,65,65,65,65,65,66,76,66,65,65,65,65,65,65,75,65,65,65,75,65,65,65,65,65,76,65,65,65,75,75,76,65,66,66,65,65,65,65,75,66,76,65,65,65,65,65,65,65,75,65,65,65,65,65,65,65,65,75,65,65,75,65,76,65,65,75,65,65,65,65,76,76,65,66,65,65,65
65,65,66,65,65,75,65,65,65,65,65,65,66,75,65,65,65,65,65,76,65,75,65,65,75,65,76,66,76,76,76,65,65,65,65,65,65,65,65,76,65,65,65,65,65,76,65,65,75,66,65,65,76,65,76,65,65,65,65,65,76,65,65,65,65,65,65,65,65,65,65,65,66,65,65,65,66,65,65,66,65,65,75,75,76,65,65,65,65,65,65,65,65,65,65,65,65,65,65,65,65,76,65,75,65,65,76,65,65,65,65,65,65,65,65,66,65,66,65,65,75,65,65,76,65,65
  </data>
 </layer>
 <objectgroup id="1" name="features">
  <object id="1" name="south_tunnel" x="900" y="1100" width="220" height="180">
   <properties>
    <property name="kind" value="gate"/>
    <property name="label" value="Shadow Tunnel"/>
   </properties>
  </object>
  <object id="2" name="crystal_spine" x="240" y="520" width="260" height="420">
   <properties>
    <property name="kind" value="cliff"/>
    <property name="label" value="Crystal Spine"/>
   </properties>
  </object>
  <object id="3" name="resonance_gate" x="1490" y="360" width="300" height="520">
   <properties>
    <property name="kind" value="gate"/>
    <property name="label" value="Resonance Vault"/>
   </properties>
  </object>
 </objectgroup>
 <objectgroup id="2" name="collisions">
  <object id="4" x="0" y="0" width="2016" height="70"/>
  <object id="5" x="0" y="1370" width="2016" height="70"/>
  <object id="6" x="0" y="0" width="70" height="1440"/>
  <object id="7" x="1946" y="0" width="70" height="1440"/>
  <object id="8" x="900" y="1100" width="220" height="180"/>
  <object id="9" x="240" y="520" width="260" height="420"/>
  <object id="10" x="1490" y="360" width="300" height="520"/>
 </objectgroup>
 <objectgroup id="3" name="spawn_points">
  <object id="11" name="from_shadow" type="player" x="1008" y="1328">
   <properties>
    <property name="spawnId" value="from_shadow"/>
   </properties>
  </object>
  <object id="12" name="enemy_1" type="enemy" x="760" y="980"/>
  <object id="13" name="enemy_2" type="enemy" x="1160" y="780"/>
  <object id="14" name="enemy_3" type="enemy" x="1360" y="620"/>
  <object id="15" name="enemy_4" type="enemy" x="1700" y="420"/>
 </objectgroup>
 <objectgroup id="4" name="doors">
  <object id="16" name="shadow_caves_return" x="972" y="1180" width="80" height="80">
   <properties>
    <property name="label" value="Shadow Caves"/>
    <property name="targetZone" value="shadow_caves"/>
    <property name="targetSpawn" value="from_crystal"/>
   </properties>
  </object>
  <object id="26" name="dragon_peak_ascent" x="1560" y="360" width="80" height="80">
   <properties>
    <property name="label" value="Dragon Peak Ascent"/>
    <property name="targetZone" value="dragon_peak"/>
    <property name="targetSpawn" value="foothill"/>
    <property name="lockMessage" value="The ascent beyond the crystal shelf rises toward drake territory."/>
   </properties>
  </object>
 </objectgroup>
 <objectgroup id="5" name="npcs">
  <object id="17" name="researcher" x="620" y="980">
   <properties>
    <property name="npcId" value="crystal_researcher"/>
    <property name="displayName" value="Professor Lio"/>
   </properties>
  </object>
 </objectgroup>
 <objectgroup id="6" name="chests">
  <object id="18" name="resonance_cache" x="1540" y="360">
   <properties>
    <property name="gold" value="90"/>
    <property name="potions" value="2"/>
    <property name="recruitEventId" value="medic_mk2_join"/>
    <property name="message" value="A resonance vault opens around a medic chassis suspended in a crystal cradle."/>
   </properties>
  </object>
 </objectgroup>
</map>
