<?xml version="1.0" encoding="UTF-8"?>
<map version="1.10" tiledversion="1.10.2" orientation="orthogonal" renderorder="right-down" width="42" height="30" tilewidth="48" tileheight="48" infinite="0" nextlayerid="7" nextobjectid="29">
 <properties>
  <property name="groundStyle" value="peak"/>
 </properties>
 <objectgroup id="1" name="features">
  <object id="1" name="south_pass" x="900" y="1100" width="220" height="180">
   <properties>
    <property name="kind" value="gate"/>
    <property name="label" value="Forest Pass"/>
   </properties>
  </object>
  <object id="2" name="monastery_ruin" x="240" y="520" width="260" height="420">
   <properties>
    <property name="kind" value="cliff"/>
    <property name="label" value="Monastery Ruin"/>
   </properties>
  </object>
  <object id="3" name="ice_gate" x="1490" y="360" width="300" height="520">
   <properties>
    <property name="kind" value="gate"/>
    <property name="label" value="Frozen Cloister"/>
   </properties>
  </object>
 </objectgroup>
 <objectgroup id="2" name="collisions">
  <object id="4" x="0" y="0" width="2016" height="70"/>
  <object id="5" x="0" y="1370" width="2016" height="70"/>
  <object id="6" x="0" y="0" width="70" height="1440"/>
  <object id="7" x="1946" y="0" width="70" height="1440"/>
  <object id="8" x="900" y="1100" width="220" height="180"/>
  <object id="9" x="240" y="520" width="260" height="420"/>
  <object id="10" x="1490" y="360" width="300" height="520"/>
 </objectgroup>
 <objectgroup id="3" name="spawn_points">
  <object id="11" name="from_forest" type="player" x="1008" y="1328">
   <properties>
    <property name="spawnId" value="from_forest"/>
   </properties>
  </object>
  <object id="26" name="from_rift" type="player" x="1642" y="300">
   <properties>
    <property name="spawnId" value="from_rift"/>
   </properties>
  </object>
  <object id="12" name="enemy_1" type="enemy" x="760" y="980"/>
  <object id="13" name="enemy_2" type="enemy" x="1160" y="780"/>
  <object id="14" name="enemy_3" type="enemy" x="1360" y="620"/>
  <object id="15" name="enemy_4" type="enemy" x="1700" y="420"/>
 </objectgroup>
 <objectgroup id="4" name="doors">
  <object id="16" name="whispering_forest_return" x="972" y="1180" width="80" height="80">
   <properties>
    <property name="label" value="Whispering Forest"/>
    <property name="targetZone" value="whispering_forest"/>
    <property name="targetSpawn" value="from_frozen"/>
   </properties>
  </object>
  <object id="27" name="abyssal_rift_gate" x="1602" y="320" width="80" height="80">
   <properties>
    <property name="label" value="Abyssal Rift"/>
    <property name="targetZone" value="abyssal_rift"/>
    <property name="targetSpawn" value="from_vale"/>
    <property name="lockMessage" value="The frozen horizon tears open into an unstable rift beyond known routes."/>
   </properties>
  </object>
 </objectgroup>
 <objectgroup id="5" name="npcs">
  <object id="17" name="pilgrim" x="620" y="980">
   <properties>
    <property name="npcId" value="frozen_pilgrim"/>
    <property name="displayName" value="Sister Vale"/>
   </properties>
  </object>
 </objectgroup>
 <objectgroup id="6" name="chests">
  <object id="18" name="frozen_reliquary" x="1540" y="360">
   <properties>
    <property name="gold" value="85"/>
    <property name="potions" value="2"/>
    <property name="message" value="A reliquary preserved in ice holds ritual circuits and a frost-still power cell."/>
   </properties>
  </object>
 </objectgroup>
</map>
