<?xml version="1.0" encoding="UTF-8"?>
<map version="1.10" tiledversion="1.12.1" orientation="orthogonal" renderorder="right-down" width="60" height="48" tilewidth="16" tileheight="16" infinite="0" nextlayerid="6" nextobjectid="1">
 <properties>
  <property name="groundStyle" value="village"/>
  <property name="mapName" value="Ironhaven"/>
  <property name="safeZone" value="true"/>
 </properties>
 <tileset firstgid="1" source="serene_village.tsx"/>
 <tileset firstgid="856" source="serene_village_animated.tsx"/>
 <layer id="1" name="01_Ground" width="60" height="48">
  <data encoding="csv">
134,134,134,134,134,134,136,134,134,134,134,134,134,134,134,134,134,134,135,134,135,134,134,134,4,134,134,134,135,134,135,134,134,4,134,134,135,134,135,134,134,134,134,134,134,134,134,134,134,134,134,134,134,136,134,134,134,134,134,134,
4,134,134,134,135,135,134,134,134,134,134,136,136,134,134,134,136,134,134,134,134,134,134,136,134,134,4,134,134,134,134,134,135,134,134,134,4,134,4,135,134,134,134,134,134,134,134,134,134,4,136,134,134,134,136,136,134,134,134,134,
135,134,135,134,134,134,134,136,136,135,134,134,136,136,134,134,134,135,135,134,134,134,134,136,134,134,134,134,134,134,4,134,134,134,134,134,134,134,134,134,134,134,134,136,135,134,134,134,134,134,136,134,134,135,135,134,134,134,134,134,
134,134,4,134,134,134,135,134,134,134,134,134,134,136,134,135,134,134,4,135,4,136,135,134,134,134,134,134,134,4,134,135,134,134,4,4,134,134,134,134,4,134,134,134,134,134,134,135,134,4,134,134,134,134,134,134,136,134,134,134,
134,134,134,136,134,134,134,134,134,134,134,135,134,134,4,4,134,134,134,136,136,136,134,134,135,134,134,4,134,134,135,134,134,136,134,134,134,134,134,134,134,134,134,134,134,136,135,134,134,134,134,135,134,134,134,134,134,134,134,136,
136,134,135,134,134,134,134,136,135,135,136,134,134,134,135,136,134,134,134,136,135,4,135,136,134,134,134,136,135,135,135,134,135,134,136,135,134,135,134,134,135,134,134,134,134,135,4,134,134,134,4,134,136,134,4,134,4,134,134,134,
134,134,134,134,134,134,134,134,134,136,134,134,134,134,134,134,134,134,134,135,134,134,134,134,134,134,134,134,136,134,136,134,134,134,134,134,134,134,134,134,134,134,134,136,135,134,134,134,134,134,135,135,134,134,134,134,134,134,135,134,
134,134,134,134,134,134,134,134,135,135,134,134,134,4,134,134,134,135,134,135,134,4,134,4,136,134,134,134,135,134,136,134,134,134,134,134,135,134,134,134,134,134,134,134,134,134,134,134,134,134,134,134,134,134,134,136,134,134,135,135,
134,134,134,135,135,4,134,134,134,134,134,134,134,134,134,134,134,134,134,134,134,134,134,134,134,134,134,134,134,134,134,134,135,134,135,135,134,134,134,134,4,134,134,135,134,135,136,134,134,134,134,134,134,134,134,135,134,134,134,134,
135,4,134,134,134,134,4,134,134,134,134,134,134,135,135,134,134,4,135,134,134,134,134,134,135,135,134,4,134,135,134,134,134,4,134,135,134,134,134,134,134,135,135,134,136,134,134,134,134,134,135,134,134,135,134,136,134,134,134,136,
134,134,134,135,134,134,134,135,134,134,134,134,134,134,134,134,134,134,134,134,134,134,134,134,134,135,134,134,134,134,4,134,134,134,134,134,134,134,134,134,4,134,134,134,135,134,136,134,134,134,134,134,136,134,135,134,134,134,134,134,
134,134,4,134,135,134,135,134,134,134,134,135,4,134,134,134,134,136,134,134,134,134,134,134,134,134,134,134,134,134,134,134,134,136,135,134,134,136,134,134,134,136,135,134,134,134,134,134,134,134,134,134,136,134,134,134,134,134,134,134,
134,4,135,134,4,4,134,134,134,135,134,134,136,134,134,134,134,134,134,134,134,135,134,134,134,136,135,134,134,134,134,4,134,134,4,134,134,134,134,134,135,134,135,134,134,136,134,134,134,4,134,134,134,134,134,134,4,136,134,134,
135,134,134,134,134,135,4,134,134,134,136,134,136,135,134,135,134,136,134,135,134,134,134,4,134,134,134,134,134,134,134,134,134,134,134,134,135,134,134,134,135,134,134,135,4,134,134,134,134,135,136,134,134,134,134,134,134,134,134,4,
134,134,134,135,135,135,134,134,134,135,136,134,134,134,136,4,134,134,134,134,136,134,134,136,134,135,134,134,134,134,134,135,134,134,136,134,134,136,134,134,134,134,134,135,136,134,134,134,134,134,134,134,134,135,134,134,134,134,134,134,
4,134,4,134,134,134,134,134,134,134,134,136,134,135,134,134,134,134,134,134,134,135,134,136,134,134,134,134,134,134,134,134,134,134,134,4,134,136,135,134,135,134,135,134,134,134,4,134,4,135,134,4,4,135,134,135,134,134,134,134,
134,134,135,136,134,134,134,136,134,136,134,134,135,136,134,134,134,136,134,134,134,136,134,134,134,134,136,134,134,134,134,134,134,134,4,134,134,134,4,135,134,134,134,4,134,134,134,134,135,134,134,134,134,134,135,134,134,134,134,135,
134,134,135,134,134,136,134,135,134,134,134,134,134,134,134,135,134,134,134,134,134,134,134,134,135,134,134,134,136,134,135,135,134,134,4,134,134,134,134,134,136,134,134,134,134,134,134,134,134,4,134,134,134,134,134,135,134,135,134,134,
134,134,134,134,134,134,134,134,134,134,136,134,135,134,134,134,135,134,134,134,134,134,134,134,135,135,134,4,134,134,134,134,134,134,134,135,134,135,134,135,135,4,135,134,134,134,136,135,134,134,134,134,134,134,135,134,134,134,134,134,
134,134,134,134,134,134,135,134,134,134,134,134,134,134,134,134,134,134,135,134,134,134,134,134,134,134,134,134,134,134,134,134,134,134,134,134,134,134,134,134,135,135,134,135,134,134,136,135,134,134,134,134,134,134,134,135,134,135,136,134,
135,134,134,134,134,134,134,134,134,134,134,134,136,134,134,135,135,134,134,134,134,135,134,134,135,134,135,135,134,136,134,134,134,135,134,134,134,134,134,134,134,134,134,134,134,135,134,135,135,134,134,134,134,135,136,134,135,134,134,134,
134,134,134,136,134,134,134,134,134,134,134,134,134,134,134,134,134,134,135,134,134,134,134,134,134,134,136,136,134,134,134,134,4,134,134,134,136,134,134,135,135,134,135,134,134,134,134,134,134,134,134,134,136,134,134,134,134,135,134,135,
135,136,134,134,135,134,134,134,135,135,135,134,134,134,134,134,134,134,134,134,134,134,135,134,135,134,136,4,134,134,134,134,4,135,135,134,134,134,136,134,134,135,135,134,135,134,136,134,134,136,134,134,134,134,134,134,134,4,134,134,
136,135,134,135,134,134,135,134,134,134,134,134,134,134,135,134,134,134,134,134,134,134,134,135,134,134,136,134,134,134,134,134,134,134,134,134,134,134,4,134,134,134,4,134,134,134,134,4,134,134,135,134,134,134,135,134,134,134,134,135,
134,135,134,134,134,135,134,135,134,134,134,134,134,136,134,4,134,134,135,134,134,135,135,134,134,134,136,134,136,134,4,134,134,136,134,135,134,134,134,135,134,134,134,134,134,134,134,134,134,134,136,134,4,134,4,136,134,134,134,135,
134,4,134,134,135,134,134,135,134,134,134,134,134,136,134,135,134,134,134,134,134,134,134,134,134,134,134,134,134,4,134,136,134,134,135,134,136,134,134,134,135,134,134,134,134,136,135,134,136,134,135,134,134,134,134,135,134,134,134,135,
134,134,134,134,4,134,134,135,135,134,4,134,134,134,134,136,135,134,134,4,134,136,134,134,134,134,134,134,134,136,136,135,134,134,134,134,134,134,134,134,136,134,134,134,134,135,134,135,134,134,134,134,134,135,134,134,134,134,134,4,
134,135,134,134,134,134,134,134,134,134,134,134,134,135,4,134,134,134,134,134,134,134,134,134,134,134,134,135,134,134,134,134,135,134,134,134,134,134,136,134,4,134,134,134,134,136,134,134,134,135,134,136,134,135,134,134,134,134,134,134,
134,135,134,4,134,134,4,134,135,134,136,135,134,134,134,134,134,134,134,134,134,134,134,134,134,4,134,134,134,135,134,134,134,135,134,134,4,134,135,134,134,134,134,4,135,135,134,134,134,134,134,134,135,134,134,134,136,134,134,134,
134,134,134,135,136,136,134,134,134,134,134,134,134,134,134,136,134,134,135,134,134,134,134,134,134,134,134,4,134,134,134,134,134,134,136,135,134,134,134,134,4,135,4,135,134,134,134,134,134,134,134,134,134,136,134,134,134,134,134,134,
134,134,134,134,134,134,135,134,134,136,134,136,136,134,134,4,134,134,136,134,134,134,134,136,136,134,136,134,136,4,134,134,136,4,136,136,134,134,134,4,134,4,134,134,136,135,134,134,134,134,134,134,134,134,135,134,135,134,135,136,
135,134,134,134,134,134,134,134,134,134,135,4,134,134,134,134,134,134,134,134,134,134,136,134,134,134,136,134,134,134,134,134,134,134,134,134,134,134,134,134,134,135,136,134,134,134,134,134,134,134,134,134,134,134,134,134,134,134,134,134,
135,134,134,134,134,134,135,134,134,135,134,134,134,134,134,4,136,134,136,134,134,135,135,4,134,134,4,134,135,136,134,134,134,134,134,134,134,134,134,134,134,134,134,134,134,134,134,135,134,134,134,136,134,134,135,134,135,136,134,134,
134,134,134,134,134,134,134,134,134,135,134,134,134,135,134,134,134,134,134,134,134,134,134,134,134,136,136,136,134,134,134,4,136,134,135,134,134,134,134,135,134,135,134,134,135,136,134,4,134,134,134,134,134,136,135,134,134,134,134,134,
134,136,134,135,134,134,134,135,134,4,134,136,4,134,4,134,134,134,134,136,134,135,134,134,134,134,134,134,134,4,134,135,136,134,134,134,134,134,134,136,134,134,134,134,134,135,134,134,134,134,135,4,134,134,134,135,134,134,134,136,
134,134,134,134,135,136,134,135,134,135,134,134,134,134,134,134,134,134,134,134,134,134,134,134,134,4,134,135,134,135,136,134,134,134,134,134,135,134,134,134,134,134,4,134,134,135,134,135,135,134,134,134,134,134,134,134,134,135,134,135,
134,134,134,134,135,136,134,134,134,136,136,134,134,136,134,4,134,135,134,134,134,134,134,135,134,136,134,135,134,4,134,134,4,134,134,135,134,135,4,134,135,134,134,4,134,134,136,134,134,134,134,134,135,134,134,134,134,134,134,134,
134,134,134,134,134,134,134,134,134,134,134,134,134,134,134,134,134,134,134,136,136,4,134,134,134,134,134,134,134,134,134,134,134,134,134,134,134,134,134,134,136,134,134,135,134,134,135,135,4,134,134,136,134,134,4,4,134,134,134,134,
134,134,135,134,134,134,134,134,134,134,4,134,134,134,134,134,135,135,134,134,134,134,134,134,135,134,4,134,134,134,136,134,134,135,134,136,134,134,134,135,134,134,134,134,4,134,134,135,4,134,134,134,134,134,134,134,134,134,135,134,
134,134,134,134,134,4,134,136,134,134,134,134,134,134,134,134,134,134,135,134,135,134,134,134,4,134,134,134,134,4,134,134,134,134,134,134,134,134,134,134,134,134,135,135,134,134,136,134,134,134,134,135,134,134,134,134,134,134,135,134,
135,134,134,134,134,134,134,134,134,134,134,134,134,134,134,134,134,134,4,134,134,134,134,134,134,134,134,134,135,4,134,134,134,134,135,134,134,134,135,134,134,134,134,134,134,135,134,134,134,135,135,134,135,134,134,134,4,134,135,135,
134,4,134,134,135,134,4,135,134,135,134,134,134,134,134,134,134,134,134,134,134,134,134,134,134,134,135,4,134,134,4,135,136,4,135,134,135,134,134,135,135,134,134,134,134,134,134,134,136,134,134,134,136,134,4,134,134,135,134,134,
134,134,134,134,134,134,134,134,134,135,134,134,134,134,134,134,134,134,135,134,134,135,134,134,4,134,134,134,134,134,136,134,134,134,134,136,134,134,134,134,134,134,134,134,134,134,134,134,134,134,135,4,134,134,134,134,134,134,134,136,
134,135,135,134,4,134,134,134,134,134,134,134,134,134,134,135,134,134,135,134,134,4,134,134,134,134,134,134,134,135,134,135,134,134,134,134,134,134,134,136,4,134,134,134,134,134,4,4,136,134,135,134,134,134,135,4,135,134,134,134,
134,134,135,134,134,134,134,134,134,134,134,134,134,134,134,135,134,134,134,135,134,134,134,134,135,134,134,134,134,134,134,134,134,134,134,134,134,4,134,135,134,134,134,135,134,136,135,134,135,134,134,134,134,134,134,134,134,134,134,134,
134,134,134,134,134,134,135,134,134,134,134,136,135,134,136,134,134,134,134,134,134,134,134,134,136,134,135,4,4,134,134,134,135,134,134,134,134,134,134,134,134,134,134,135,134,136,135,134,134,134,134,134,135,136,4,134,134,135,134,134,
134,134,134,134,4,134,134,136,136,134,134,134,4,134,134,134,135,134,134,134,4,134,134,134,135,134,134,134,134,134,134,135,134,134,134,134,134,134,4,134,134,134,134,134,134,135,134,134,135,134,134,134,134,134,134,134,4,134,134,134,
134,134,134,135,134,134,135,4,134,135,134,134,134,134,134,135,134,134,136,134,134,136,135,134,134,134,134,134,135,134,134,134,134,134,134,134,136,134,134,134,134,134,134,134,134,134,134,136,134,134,135,135,4,135,134,134,134,136,134,134
  </data>
 </layer>
 <layer id="2" name="02_Paths" width="60" height="48">
  <data encoding="csv">
0,0,0,0,0,0,0,0,0,0,0,0,0,0,447,447,0,0,0,0,0,0,0,0,0,0,0,0,447,447,447,0,0,0,0,0,0,0,0,0,0,0,0,447,447,0,0,0,0,0,0,0,0,0,0,0,0,0,0,0,
0,0,0,0,0,0,0,0,0,0,0,0,0,0,447,447,0,0,0,0,0,0,0,0,0,0,0,0,447,447,447,0,0,0,0,0,0,0,0,0,0,0,0,447,447,0,0,0,0,0,0,0,0,0,0,0,0,0,0,0,
0,0,0,0,0,0,0,0,0,0,0,0,0,0,444,447,0,0,0,0,0,0,0,0,0,0,0,0,447,447,450,0,0,0,0,0,0,0,0,0,0,0,0,444,447,0,0,0,0,0,0,0,0,0,0,0,0,0,0,0,
0,0,0,0,0,0,0,0,0,0,0,0,0,0,447,447,0,0,0,0,0,0,0,0,0,0,0,0,447,447,444,0,0,0,0,0,0,0,0,0,0,0,0,447,447,0,0,0,0,0,0,0,0,0,0,0,0,0,0,0,
0,0,0,0,0,0,0,0,0,0,0,0,0,0,447,444,0,0,0,0,0,0,0,0,0,0,0,0,0,447,447,0,0,0,0,0,0,0,0,0,0,0,0,447,447,0,0,0,0,0,0,0,0,0,0,0,0,0,0,0,
0,0,0,0,0,0,0,0,0,0,0,0,0,0,447,450,447,0,0,0,0,0,0,0,0,0,0,0,0,447,444,0,0,0,0,0,0,0,0,0,0,0,0,447,447,0,0,0,0,0,0,0,0,0,0,0,0,0,0,0,
0,0,0,0,0,0,0,0,0,0,0,0,0,0,447,447,447,0,0,0,0,0,0,0,0,0,0,0,0,447,444,0,0,0,0,0,0,0,0,0,0,0,0,447,447,0,0,0,0,0,0,0,0,0,0,0,0,0,0,0,
0,0,0,0,0,0,0,0,0,0,0,0,0,0,447,447,447,0,0,0,0,0,0,0,0,0,0,0,0,447,444,0,0,0,0,0,0,0,0,0,0,0,0,447,447,0,0,0,0,0,0,0,0,0,0,0,0,0,0,0,
0,0,0,0,0,0,0,0,0,0,0,0,0,0,447,447,447,0,0,0,0,0,0,0,0,0,0,0,0,447,447,0,0,0,0,0,0,0,0,0,0,0,0,447,447,0,0,0,0,0,0,0,0,0,0,0,0,0,0,0,
0,0,0,0,0,0,0,0,0,0,0,0,0,0,447,444,450,0,0,0,0,0,0,0,0,0,0,0,0,447,447,0,0,0,0,0,0,0,0,0,0,0,0,447,447,0,0,0,0,0,0,0,0,0,0,0,0,0,0,0,
0,0,0,0,0,0,0,0,0,0,0,0,0,0,447,447,447,0,0,0,0,0,0,0,0,0,0,0,0,450,444,0,0,0,0,0,0,0,0,0,0,0,0,447,447,0,0,0,0,0,0,0,0,0,0,0,0,0,0,0,
0,0,0,0,0,0,0,0,0,0,0,0,0,0,447,447,447,447,444,447,447,450,444,0,0,0,0,0,447,447,450,0,0,0,0,0,0,0,0,0,0,0,0,447,447,0,0,0,0,0,0,0,0,0,0,0,0,0,0,0,
0,0,0,0,0,0,0,0,0,0,0,0,0,0,444,447,447,447,450,450,447,447,447,0,447,447,447,447,447,447,447,447,450,447,447,447,0,0,0,0,0,0,0,450,447,0,0,0,0,0,0,0,0,0,0,0,0,0,0,0,
0,0,0,0,0,0,0,0,0,0,0,0,0,0,447,447,444,444,444,447,447,447,450,447,444,444,447,447,447,447,447,447,447,447,450,447,447,447,447,447,444,447,444,447,447,0,0,0,0,0,0,0,0,0,0,0,0,0,0,0,
0,0,0,0,0,0,0,0,0,0,0,0,0,0,447,447,0,0,0,0,0,0,0,0,447,447,447,447,447,444,447,447,447,447,447,444,0,0,0,0,0,0,0,447,447,0,0,0,0,0,0,0,0,0,0,0,0,0,0,0,
447,447,447,444,447,447,450,447,447,450,450,447,447,447,447,450,447,450,447,444,447,447,444,444,447,447,447,447,0,0,0,444,447,447,450,447,444,447,447,447,447,447,447,447,444,444,447,447,447,444,444,447,447,447,444,447,444,444,450,447,
450,447,447,447,447,447,450,447,450,447,447,450,447,450,447,444,447,447,447,447,447,447,450,450,447,444,447,447,0,0,0,447,450,447,447,447,447,450,447,444,447,447,447,447,447,447,447,447,447,447,447,447,447,450,444,447,447,447,447,447,
444,447,447,447,447,444,447,447,450,447,447,447,447,447,447,447,447,447,447,447,450,447,444,447,444,447,447,447,0,0,0,444,450,447,450,447,447,447,447,447,447,447,447,447,447,447,447,444,447,447,447,447,447,447,447,444,447,447,447,447,
0,0,0,0,0,0,0,0,0,0,0,0,0,0,444,447,0,0,0,0,0,0,0,0,447,447,447,447,447,447,447,447,447,450,447,447,0,0,0,0,0,0,0,447,447,0,0,0,0,0,0,0,0,0,0,0,0,0,0,0,
0,0,0,0,0,0,0,0,0,0,0,0,0,0,447,447,0,0,0,0,0,0,0,0,447,447,447,447,447,447,447,447,444,447,450,447,0,0,0,0,0,0,0,447,447,0,0,0,0,0,0,0,0,0,0,0,0,0,0,0,
0,0,0,0,0,0,0,0,0,0,0,0,0,0,444,444,0,0,0,0,0,0,0,0,0,0,0,0,447,447,447,0,0,0,0,0,0,0,0,0,0,0,0,447,447,0,0,0,0,0,0,0,0,0,0,0,0,0,0,0,
0,0,0,0,0,0,0,0,0,0,0,0,0,0,444,447,0,0,0,0,0,0,0,0,0,0,0,0,0,0,0,0,0,0,0,0,0,0,0,0,0,0,0,444,447,0,0,0,0,0,0,0,0,0,0,0,0,0,0,0,
0,0,0,0,0,0,0,0,0,0,0,0,0,0,447,447,0,0,0,0,0,0,0,0,0,0,0,0,0,0,0,0,0,0,0,0,0,0,0,0,0,0,0,447,447,0,0,0,0,0,0,0,0,0,0,0,0,0,0,0,
0,0,0,0,0,0,0,0,0,0,0,0,0,0,447,447,0,0,0,0,0,0,0,0,0,0,0,0,0,0,0,0,0,0,0,0,0,0,0,0,0,0,0,447,447,0,0,0,0,0,0,0,0,0,0,0,0,0,0,0,
0,0,0,0,0,0,0,0,0,0,0,0,0,0,450,447,0,0,0,0,0,0,0,0,0,0,0,0,0,0,0,0,0,0,0,0,0,0,0,0,0,0,0,444,450,0,0,0,0,0,0,0,0,0,0,0,0,0,0,0,
0,0,0,0,0,0,0,0,0,0,0,0,0,0,447,447,450,447,0,0,0,0,0,0,0,0,0,0,0,0,0,0,0,0,0,0,0,0,0,0,0,0,0,447,447,0,0,0,0,0,0,0,0,0,0,0,0,0,0,0,
0,0,0,0,0,0,0,0,0,0,0,0,0,0,447,447,0,0,0,0,0,0,0,0,0,0,0,0,0,0,0,0,0,0,0,0,0,0,0,0,0,0,0,447,447,0,0,0,0,0,0,0,0,0,0,0,0,0,0,0,
0,0,0,0,0,0,0,0,0,0,0,0,0,0,447,447,0,0,0,0,0,0,0,0,0,0,0,0,0,0,0,0,0,0,0,0,0,0,0,0,0,0,0,450,444,0,0,0,0,0,0,0,0,0,0,0,0,0,0,0,
0,0,0,0,0,0,0,0,0,0,0,0,0,0,447,447,0,0,0,0,0,0,0,0,0,0,0,0,0,0,0,0,0,0,0,0,0,0,0,0,0,0,0,447,447,0,0,0,0,0,0,0,0,0,0,0,0,0,0,0,
0,0,0,0,0,0,0,0,0,0,0,0,0,0,447,447,0,0,0,0,0,0,0,0,0,0,0,0,0,0,0,0,0,0,0,0,0,0,0,0,0,0,0,447,447,0,0,0,0,0,0,0,0,0,0,0,0,0,0,0,
0,0,0,0,0,0,0,0,0,0,0,0,0,0,444,447,0,0,0,0,0,0,0,0,0,0,0,0,0,0,0,0,0,0,0,0,0,0,0,0,0,0,0,447,447,0,0,0,0,0,0,0,0,0,0,0,0,0,0,0,
0,0,0,0,0,0,0,0,0,0,0,0,0,0,447,444,0,0,0,0,0,0,0,0,0,0,0,0,0,0,0,0,0,0,0,0,0,0,0,0,0,0,0,447,447,0,0,0,0,0,0,0,0,0,0,0,0,0,0,0,
0,0,0,0,0,0,0,0,0,0,0,0,0,0,444,444,0,0,0,0,0,0,0,0,0,0,0,0,0,0,0,0,0,0,0,0,0,0,0,0,0,0,0,447,447,0,0,0,0,0,0,0,0,0,0,0,0,0,0,0,
0,0,0,0,0,0,0,0,0,0,0,0,0,0,447,447,0,0,0,0,0,0,0,0,0,0,0,0,0,0,0,0,0,0,0,0,0,0,0,0,0,0,0,444,447,0,0,0,0,0,0,0,0,0,0,0,0,0,0,0,
0,0,0,0,0,0,0,0,0,0,0,0,0,0,447,447,0,0,0,0,0,0,0,0,0,0,0,0,0,0,0,0,0,0,0,0,0,0,0,0,0,0,0,447,447,0,0,0,0,0,0,0,0,0,0,0,0,0,0,0,
0,0,0,0,0,0,0,0,0,0,0,0,0,0,444,447,0,0,0,0,0,0,0,0,0,0,0,0,0,0,0,0,0,0,0,0,0,0,0,0,0,0,0,450,447,0,0,0,0,0,0,0,0,0,0,0,0,0,0,0,
0,0,0,0,0,0,0,0,0,0,0,0,0,0,447,447,0,0,0,0,0,0,0,0,0,0,0,0,0,0,0,0,0,0,0,0,0,0,0,0,0,0,0,447,447,0,0,0,0,0,0,0,0,0,0,0,0,0,0,0,
0,0,0,0,0,0,0,0,0,0,0,0,0,0,447,447,0,0,0,0,0,0,0,0,0,0,0,0,0,0,0,0,0,0,0,0,0,0,0,0,0,0,0,447,447,0,0,0,0,0,0,0,0,0,0,0,0,0,0,0,
0,0,0,0,0,0,0,0,0,0,0,0,0,0,447,447,0,0,0,0,0,0,0,0,0,0,0,0,0,0,0,0,0,0,0,0,0,0,0,0,0,0,0,447,447,0,0,0,0,0,0,0,0,0,0,0,0,0,0,0,
0,0,0,0,0,0,0,0,0,0,0,0,0,0,447,447,0,0,0,0,0,0,0,0,0,0,0,0,447,447,444,0,0,0,0,0,0,0,0,0,0,0,0,447,447,0,0,0,0,0,0,0,0,0,0,0,0,0,0,0,
0,0,0,0,0,0,0,0,0,0,0,0,0,0,447,447,0,0,0,0,0,0,0,0,0,0,0,0,447,447,447,0,0,0,0,0,0,0,0,0,0,0,0,447,447,0,0,0,0,0,0,0,0,0,0,0,0,0,0,0,
0,0,0,0,0,0,0,0,0,0,0,0,0,0,447,444,0,0,0,0,0,0,0,0,0,0,0,0,447,447,447,0,0,0,0,0,0,0,0,0,0,0,0,447,447,0,0,0,0,0,0,0,0,0,0,0,0,0,0,0,
0,0,0,0,0,0,0,0,0,0,0,0,0,0,0,0,0,0,0,0,0,0,0,0,0,0,0,0,0,0,0,0,0,0,0,0,0,0,0,0,0,0,0,0,0,0,0,0,0,0,0,0,0,0,0,0,0,0,0,0,
0,0,0,0,0,0,0,0,0,0,0,0,0,0,0,0,0,0,0,0,0,0,0,0,0,0,0,0,0,0,0,0,0,0,0,0,0,0,0,0,0,0,0,0,0,0,0,0,0,0,0,0,0,0,0,0,0,0,0,0,
0,0,0,0,0,0,0,0,0,0,0,0,0,0,0,0,0,0,0,0,0,0,0,0,0,0,0,0,0,0,0,0,0,0,0,0,0,0,0,0,0,0,0,0,0,0,0,0,0,0,0,0,0,0,0,0,0,0,0,0,
0,0,0,0,0,0,0,0,0,0,0,0,0,0,0,0,0,0,0,0,0,0,0,0,0,0,0,0,0,0,0,0,0,0,0,0,0,0,0,0,0,0,0,0,0,0,0,0,0,0,0,0,0,0,0,0,0,0,0,0,
0,0,0,0,0,0,0,0,0,0,0,0,0,0,0,0,0,0,0,0,0,0,0,0,0,0,0,0,0,0,0,0,0,0,0,0,0,0,0,0,0,0,0,0,0,0,0,0,0,0,0,0,0,0,0,0,0,0,0,0,
0,0,0,0,0,0,0,0,0,0,0,0,0,0,447,444,0,0,0,0,0,0,0,0,0,0,0,0,447,447,447,0,0,0,0,0,0,0,0,0,0,0,0,447,447,0,0,0,0,0,0,0,0,0,0,0,0,0,0,0
  </data>
 </layer>
 <layer id="3" name="03_Water" width="60" height="48">
  <data encoding="csv">
0,0,0,0,0,0,0,0,0,0,0,0,0,0,0,0,0,0,0,0,0,0,0,0,0,0,0,0,0,0,0,0,0,0,0,0,0,0,0,0,0,0,0,0,0,0,0,0,0,0,0,0,0,0,0,0,0,0,0,0,
0,0,0,0,0,0,0,0,0,0,0,0,0,0,0,0,0,0,0,0,0,0,0,0,0,0,0,0,0,0,0,0,0,0,0,0,0,0,0,0,0,0,0,0,0,0,0,0,0,0,0,0,0,0,0,0,0,0,0,0,
0,0,0,0,0,0,0,0,0,0,0,0,0,0,0,0,0,0,0,0,0,0,0,0,0,0,0,0,0,0,0,0,0,0,0,0,0,0,0,0,0,0,0,0,0,0,0,0,0,0,0,0,0,0,0,0,0,0,0,0,
0,0,0,0,0,0,0,0,0,0,0,0,0,0,0,0,0,0,0,0,0,0,0,0,0,0,0,0,0,0,0,0,0,0,0,0,0,0,0,0,0,0,0,0,0,0,0,0,0,0,0,0,0,0,0,0,0,0,0,0,
0,0,0,0,0,0,0,0,0,0,0,0,0,0,0,0,0,0,0,0,0,0,0,0,0,0,0,0,0,0,0,0,0,0,0,0,0,0,0,0,0,0,0,0,0,0,0,0,0,0,0,0,0,0,0,0,0,0,0,0,
0,0,0,0,0,0,0,0,0,0,0,0,0,0,0,0,0,0,0,0,0,0,0,0,0,0,0,0,0,0,0,0,0,0,0,0,0,0,0,0,0,0,0,0,0,0,0,0,0,0,0,0,0,0,0,0,0,0,0,0,
0,0,0,0,0,0,0,0,0,0,0,0,0,0,0,0,0,0,0,0,0,0,0,0,0,0,0,0,0,0,0,0,0,0,0,0,0,0,0,0,0,0,0,0,0,0,0,0,0,0,0,0,0,0,0,0,0,0,0,0,
0,0,0,0,0,0,0,0,0,0,0,0,0,0,0,0,0,0,0,0,0,0,0,0,0,0,0,0,0,0,0,0,0,0,0,0,0,0,0,0,0,0,0,0,0,0,0,0,0,0,0,0,0,0,0,0,0,0,0,0,
0,0,0,0,0,0,0,0,0,0,0,0,0,0,0,0,0,0,0,0,0,0,0,0,0,0,0,0,0,0,0,0,0,0,0,0,0,0,0,0,0,0,0,0,0,0,0,0,0,0,0,0,0,0,0,0,0,0,0,0,
0,0,0,0,0,0,0,0,0,0,0,0,0,0,0,0,0,0,0,0,0,0,0,0,0,0,0,0,0,0,0,0,0,0,0,0,0,0,0,0,0,0,0,0,0,0,0,0,0,0,0,0,0,0,0,0,0,0,0,0,
0,0,0,0,0,0,0,0,0,0,0,0,0,0,0,0,0,0,0,0,0,0,0,0,0,0,0,0,0,0,0,0,0,0,0,0,0,0,0,0,0,0,0,0,0,0,0,0,0,0,0,0,0,0,0,0,0,0,0,0,
0,0,0,0,0,0,0,0,0,0,0,0,0,0,0,0,0,0,0,0,0,0,0,0,0,0,0,0,0,0,0,0,0,0,0,0,0,0,0,0,0,0,0,0,0,0,0,0,0,0,0,0,0,0,0,0,0,0,0,0,
0,0,0,0,0,0,0,0,0,0,0,0,0,0,0,0,0,0,0,0,0,0,0,0,0,0,0,0,0,0,0,0,0,0,0,0,0,0,0,0,0,0,0,0,0,0,0,0,0,0,0,0,0,0,0,0,0,0,0,0,
0,0,0,0,0,0,0,0,0,0,0,0,0,0,0,0,0,0,0,0,0,0,0,0,0,0,0,0,0,0,0,0,0,0,0,0,0,0,0,0,0,0,0,0,0,0,0,0,0,0,0,0,0,0,0,0,0,0,0,0,
0,0,0,0,0,0,0,0,0,0,0,0,0,0,0,0,0,0,0,0,0,0,0,0,0,0,0,0,0,0,0,0,0,0,0,0,0,0,0,0,0,0,0,0,0,0,0,0,0,0,0,0,0,0,0,0,0,0,0,0,
0,0,0,0,0,0,0,0,0,0,0,0,0,0,0,0,0,0,0,0,0,0,0,0,0,0,0,0,732,732,732,0,0,0,0,0,0,0,0,0,0,0,0,0,0,0,0,0,0,0,0,0,0,0,0,0,0,0,0,0,
0,0,0,0,0,0,0,0,0,0,0,0,0,0,0,0,0,0,0,0,0,0,0,0,0,0,0,0,732,732,732,0,0,0,0,0,0,0,0,0,0,0,0,0,0,0,0,0,0,0,0,0,0,0,0,0,0,0,0,0,
0,0,0,0,0,0,0,0,0,0,0,0,0,0,0,0,0,0,0,0,0,0,0,0,0,0,0,0,732,732,732,0,0,0,0,0,0,0,0,0,0,0,0,0,0,0,0,0,0,0,0,0,0,0,0,0,0,0,0,0,
0,0,0,0,0,0,0,0,0,0,0,0,0,0,0,0,0,0,0,0,0,0,0,0,0,0,0,0,0,0,0,0,0,0,0,0,0,0,0,0,0,0,0,0,0,0,0,0,0,0,0,0,0,0,0,0,0,0,0,0,
0,0,0,0,0,0,0,0,0,0,0,0,0,0,0,0,0,0,0,0,0,0,0,0,0,0,0,0,0,0,0,0,0,0,0,0,0,0,0,0,0,0,0,0,0,0,0,0,0,0,0,0,0,0,0,0,0,0,0,0,
0,0,0,0,0,0,0,0,0,0,0,0,0,0,0,0,0,0,0,0,0,0,0,0,0,0,0,0,0,0,0,0,0,0,0,0,0,0,0,0,0,0,0,0,0,0,0,0,0,0,0,0,0,0,0,0,0,0,0,0,
0,0,0,0,0,0,0,0,0,0,0,0,0,0,0,0,0,0,0,0,0,0,0,0,0,0,0,0,0,0,0,0,0,0,0,0,0,0,0,0,0,0,0,0,0,0,0,0,0,0,0,0,0,0,0,0,0,0,0,0,
0,0,0,0,0,0,0,0,0,0,0,0,0,0,0,0,0,0,0,0,0,0,0,0,0,0,0,0,0,0,0,0,0,0,0,0,0,0,0,0,0,0,0,0,0,0,0,0,0,0,0,0,0,0,0,0,0,0,0,0,
0,0,0,0,0,0,0,0,0,0,0,0,0,0,0,0,0,0,0,0,0,0,0,0,0,0,0,0,0,0,0,0,0,0,0,0,0,0,0,0,0,0,0,0,0,0,0,0,0,0,0,0,0,0,0,0,0,0,0,0,
0,0,0,0,0,0,0,0,0,0,0,0,0,0,0,0,0,0,0,0,0,0,0,0,0,0,0,0,0,0,0,0,0,0,0,0,0,0,0,0,0,0,0,0,0,0,0,0,0,0,0,0,0,0,0,0,0,0,0,0,
0,0,0,0,0,0,0,0,0,0,0,0,0,0,0,0,0,0,0,0,0,0,0,0,0,0,0,0,0,0,0,0,0,0,0,0,0,0,0,0,0,0,0,0,0,0,0,0,0,0,0,0,0,0,0,0,0,0,0,0,
0,0,0,0,0,0,0,0,0,0,0,0,0,0,0,0,0,0,0,0,0,0,0,0,0,0,0,0,0,0,0,0,0,0,0,0,0,0,0,0,0,0,0,0,0,0,0,0,0,0,0,0,0,0,0,0,0,0,0,0,
0,0,0,0,0,0,0,0,0,0,0,0,0,0,0,0,0,0,0,0,0,0,0,0,0,0,0,0,0,0,0,0,0,0,0,0,0,0,0,0,0,0,0,0,0,0,0,0,0,0,0,0,0,0,0,0,0,0,0,0,
0,0,0,0,0,0,0,0,0,0,0,0,0,0,0,0,0,0,0,0,0,0,0,0,0,0,0,0,0,0,0,0,0,0,0,0,0,0,0,0,0,0,0,0,0,0,0,0,0,0,0,0,0,0,0,0,0,0,0,0,
0,0,0,0,0,0,0,0,0,0,0,0,0,0,0,0,0,0,0,0,0,0,0,0,0,0,0,0,0,0,0,0,0,0,0,0,0,0,0,0,0,0,0,0,0,0,0,0,0,0,0,0,0,0,0,0,0,0,0,0,
0,0,0,0,0,0,0,0,0,0,0,0,0,0,0,0,0,0,0,0,0,0,0,0,0,0,0,0,0,0,0,0,0,0,0,0,0,0,0,0,0,0,0,0,0,0,0,0,0,0,0,0,0,0,0,0,0,0,0,0,
0,0,0,0,0,0,0,0,0,0,0,0,0,0,0,0,0,0,0,0,0,0,0,0,0,0,0,0,0,0,0,0,0,0,0,0,0,0,0,0,0,0,0,0,0,0,0,0,0,0,0,0,0,0,0,0,0,0,0,0,
0,0,0,0,0,0,0,0,0,0,0,0,0,0,0,0,0,0,0,0,0,0,0,0,0,0,0,0,0,0,0,0,0,0,0,0,0,0,0,0,0,0,0,0,0,0,0,0,0,0,0,0,0,0,0,0,0,0,0,0,
0,0,0,0,0,0,0,0,0,0,0,0,0,0,0,0,0,0,0,0,0,0,0,0,0,0,0,0,0,0,0,0,0,0,0,0,0,0,0,0,0,0,0,0,0,0,0,0,0,0,0,0,0,0,0,0,0,0,0,0,
0,0,0,0,0,0,0,0,0,0,0,0,0,0,0,0,0,0,0,0,0,0,0,0,0,0,0,0,0,0,0,0,0,0,0,0,0,0,0,0,0,0,0,0,0,0,0,0,0,0,0,0,0,0,0,0,0,0,0,0,
0,0,0,0,0,0,0,0,0,0,0,0,0,0,0,0,0,0,0,0,0,0,0,0,0,0,0,0,0,0,0,0,0,0,0,0,0,0,0,0,0,0,0,0,0,0,0,0,0,0,0,0,0,0,0,0,0,0,0,0,
0,0,0,0,0,0,0,0,0,0,0,0,0,0,0,0,0,0,0,0,0,0,0,0,0,0,0,0,0,0,0,0,0,0,0,0,0,0,0,0,0,0,0,0,0,0,0,0,0,0,0,0,0,0,0,0,0,0,0,0,
0,0,0,0,0,0,0,0,0,0,0,0,0,0,0,0,0,0,0,0,0,0,0,0,0,0,0,0,0,0,0,0,0,0,0,0,0,0,0,0,0,0,0,0,0,0,0,0,0,0,0,0,0,0,0,0,0,0,0,0,
0,0,0,0,0,0,0,0,0,0,0,0,0,0,0,0,0,0,0,0,0,0,0,0,0,0,0,0,0,0,0,0,0,0,0,0,0,0,0,0,0,0,0,0,0,0,0,0,0,0,0,0,0,0,0,0,0,0,0,0,
0,0,0,0,0,0,0,0,0,0,0,0,0,0,0,0,0,0,0,0,0,0,0,0,0,0,0,0,0,0,0,0,0,0,0,0,0,0,0,0,0,0,0,0,0,0,0,0,0,0,0,0,0,0,0,0,0,0,0,0,
0,0,0,0,0,0,0,0,0,0,0,0,0,0,0,0,0,0,0,0,0,0,0,0,0,0,0,0,0,0,0,0,0,0,0,0,0,0,0,0,0,0,0,0,0,0,0,0,0,0,0,0,0,0,0,0,0,0,0,0,
0,0,0,0,0,0,0,0,0,0,0,0,0,0,0,0,0,0,0,0,0,0,0,0,0,0,0,0,0,0,0,0,0,0,0,0,0,0,0,0,0,0,0,0,0,0,0,0,0,0,0,0,0,0,0,0,0,0,0,0,
732,732,732,732,729,732,729,732,732,732,732,732,732,729,732,729,732,732,732,732,732,732,732,732,732,732,732,732,732,732,732,732,732,732,732,732,732,732,732,732,732,732,732,732,732,732,729,732,729,732,732,732,732,732,732,732,729,732,729,729,
732,732,732,732,732,732,729,732,729,732,732,732,732,732,732,729,732,732,732,732,732,732,732,732,732,732,732,732,732,732,732,732,732,732,729,732,732,732,732,732,732,732,732,732,732,732,732,732,732,732,732,732,732,732,732,732,729,732,729,732,
732,732,729,732,732,729,732,732,729,729,732,732,732,729,732,732,732,732,732,729,732,732,729,732,729,732,732,732,732,732,729,732,732,732,732,729,732,732,729,732,732,732,732,732,732,732,732,732,732,732,732,732,732,732,732,732,732,732,732,732,
732,732,729,732,732,732,732,732,732,732,732,732,732,732,732,732,732,729,732,732,729,732,732,732,729,732,732,732,732,732,732,729,732,732,729,732,732,732,732,732,732,732,732,732,732,729,729,729,729,732,732,732,732,732,732,732,732,732,732,732,
732,729,732,732,732,732,732,732,732,732,732,732,732,732,732,732,732,732,732,729,732,732,732,732,732,732,732,729,732,732,732,729,732,732,732,732,732,732,732,732,729,732,732,729,732,732,732,732,732,732,732,732,732,732,732,732,732,732,732,732,
0,0,0,0,0,0,0,0,0,0,0,0,0,0,0,0,0,0,0,0,0,0,0,0,0,0,0,0,0,0,0,0,0,0,0,0,0,0,0,0,0,0,0,0,0,0,0,0,0,0,0,0,0,0,0,0,0,0,0,0
  </data>
 </layer>
 <layer id="4" name="04_Buildings" width="60" height="48">
  <data encoding="csv">
0,0,0,0,0,0,0,0,0,0,0,0,0,0,0,0,0,0,0,0,0,0,0,0,0,0,0,0,0,0,0,0,0,0,0,0,0,0,0,0,0,0,0,0,0,0,0,0,0,0,0,0,0,0,0,0,0,0,0,0,
0,0,0,0,0,0,0,0,0,0,0,0,0,0,0,0,0,0,0,0,0,0,0,0,0,0,0,0,0,0,0,0,0,0,0,0,0,0,0,0,0,0,0,0,0,0,0,0,0,0,0,0,0,0,0,0,0,0,0,0,
0,0,0,0,0,0,0,0,0,0,0,0,0,0,0,0,0,0,0,0,0,0,0,0,0,0,0,0,0,0,0,0,0,0,0,0,0,0,0,0,0,0,0,0,0,0,0,0,0,0,0,0,0,0,0,0,0,0,0,0,
0,0,400,404,400,400,404,400,400,404,400,400,404,0,0,0,0,0,0,0,0,0,0,0,0,0,0,0,0,0,0,0,0,0,0,0,0,0,0,0,0,0,0,0,0,0,400,400,404,400,400,404,400,400,404,400,400,404,0,0,
0,0,476,520,520,520,520,520,520,520,520,520,479,0,0,0,0,400,404,400,400,404,400,400,404,400,400,404,400,0,0,0,0,0,0,0,0,0,0,0,0,0,0,0,0,0,476,520,520,520,520,520,520,520,520,520,520,476,0,0,
0,0,476,520,520,520,520,520,520,520,520,520,476,0,0,0,0,476,520,520,520,520,476,479,520,520,520,520,476,0,0,0,0,0,0,0,0,0,0,0,0,0,0,0,0,0,476,520,520,520,520,520,520,520,520,520,520,476,0,0,
0,0,479,520,520,520,520,520,520,520,520,520,476,0,0,0,0,476,520,520,520,520,479,476,520,520,520,520,476,0,0,0,0,0,0,0,0,0,0,0,0,0,0,0,0,0,479,520,520,520,520,520,520,520,520,520,520,476,0,0,
0,0,476,520,520,520,520,520,520,520,520,520,476,0,0,0,0,479,520,520,520,520,476,476,520,520,520,520,476,0,0,0,0,0,0,0,0,0,0,0,0,0,0,0,0,0,476,520,520,520,520,520,520,520,520,520,520,479,0,0,
0,0,476,520,520,520,520,520,520,520,520,520,479,0,0,0,0,476,520,520,520,520,476,476,520,520,520,520,479,0,0,0,0,0,0,0,0,0,0,0,0,0,0,0,0,0,476,520,520,520,520,520,520,520,520,520,520,476,0,0,
0,0,476,520,520,520,520,520,520,520,520,520,476,0,0,0,0,476,520,520,520,520,476,479,520,520,520,520,476,0,0,0,0,0,0,0,0,0,0,0,0,0,0,0,0,0,476,520,520,520,520,520,520,520,520,520,520,476,0,0,
0,0,479,520,520,520,520,520,520,520,520,520,476,0,0,0,0,476,479,476,476,476,479,476,476,476,479,476,476,0,0,0,0,0,0,0,0,0,0,0,0,0,0,0,0,0,479,520,520,520,520,520,520,520,520,520,520,476,0,0,
0,0,476,520,520,520,520,520,520,520,520,520,476,0,0,0,0,0,0,0,0,0,0,0,0,0,0,0,0,0,0,0,0,0,0,0,0,0,0,0,0,0,0,0,0,0,476,520,520,520,520,520,520,520,520,520,520,479,0,0,
0,0,476,476,479,476,476,476,479,476,476,476,479,0,0,0,0,0,0,0,0,0,0,0,0,0,0,0,0,0,0,0,0,0,0,0,0,0,0,0,0,0,0,0,0,0,476,476,479,476,476,476,479,476,476,476,479,476,0,0,
0,0,0,0,0,0,0,0,0,0,0,0,0,0,0,0,0,0,0,0,0,0,0,0,0,0,0,0,0,0,0,0,0,0,0,0,0,0,0,0,0,0,0,0,0,0,0,0,0,0,0,0,0,0,0,0,0,0,0,0,
0,0,0,0,0,0,0,0,0,0,0,0,0,0,0,0,0,0,0,0,0,0,0,0,0,0,0,0,0,0,0,0,0,0,0,0,0,0,0,0,0,0,0,0,0,0,0,0,0,0,0,0,0,0,0,0,0,0,0,0,
0,0,0,0,0,0,0,0,0,0,0,0,0,0,0,0,0,0,0,0,0,0,0,0,0,0,0,0,0,0,0,0,0,0,0,0,0,0,0,0,0,0,0,0,0,0,0,0,0,0,0,0,0,0,0,0,0,0,0,0,
0,0,0,0,0,0,0,0,0,0,0,0,0,0,0,0,0,0,0,0,0,0,0,0,0,0,0,0,0,0,0,0,0,0,0,0,0,0,0,0,0,0,0,0,0,0,0,0,0,0,0,0,0,0,0,0,0,0,0,0,
0,0,0,0,0,0,0,0,0,0,0,0,0,0,0,0,0,0,0,0,0,0,0,0,0,0,0,0,0,0,0,0,0,0,0,0,0,0,0,0,0,0,0,0,0,0,0,0,0,0,0,0,0,0,0,0,0,0,0,0,
0,0,0,0,0,0,0,0,0,0,0,0,0,0,0,0,0,0,0,0,0,0,0,0,0,0,0,0,0,0,0,0,0,0,0,0,0,0,0,0,0,0,0,0,0,0,0,0,0,0,0,0,0,0,0,0,0,0,0,0,
0,0,0,0,0,0,0,0,0,0,0,0,0,0,0,0,0,0,0,0,0,0,0,0,0,0,0,0,0,0,0,0,0,0,0,0,0,0,0,0,0,0,0,0,0,0,0,0,0,0,0,0,0,0,0,0,0,0,0,0,
0,0,0,0,0,0,0,0,0,0,0,0,0,0,0,0,0,0,0,0,0,0,0,0,0,0,0,0,0,0,0,0,0,0,0,0,0,0,0,0,0,0,0,0,0,0,0,0,0,0,0,0,0,0,0,0,0,0,0,0,
0,0,0,0,0,0,0,0,0,0,0,0,0,0,0,0,0,0,404,400,400,404,400,400,404,400,400,404,400,400,404,400,400,404,400,400,404,400,400,404,400,400,0,0,0,0,0,0,0,0,0,0,0,0,0,0,0,0,0,0,
0,0,0,0,0,0,0,0,0,0,0,0,0,0,0,0,0,0,479,520,520,520,520,520,520,520,520,520,520,520,520,520,520,520,520,520,520,520,520,520,520,476,0,0,0,0,0,0,0,0,0,0,0,0,0,0,0,0,0,0,
0,0,0,0,0,0,0,0,0,0,0,0,0,0,0,0,0,0,476,520,520,520,520,520,520,520,520,520,520,520,520,520,520,520,520,520,520,520,520,520,520,479,0,0,0,0,0,0,0,0,0,0,0,0,0,0,0,0,0,0,
0,0,0,404,400,400,404,400,400,404,400,400,404,400,0,0,0,0,476,520,520,520,520,520,520,520,520,520,520,520,520,520,520,520,520,520,520,520,520,520,520,476,0,0,0,404,400,400,404,400,400,404,400,400,404,400,400,404,0,0,
0,0,0,479,520,520,520,520,520,520,520,520,520,476,0,0,0,0,476,520,520,520,520,520,520,520,520,520,520,520,520,520,520,520,520,520,520,520,520,520,520,476,0,0,0,476,520,520,520,520,520,520,520,520,520,520,520,476,0,0,
0,0,0,476,520,520,520,520,520,520,520,520,520,476,0,0,0,0,479,520,520,520,520,520,520,520,520,520,520,520,520,520,520,520,520,520,520,520,520,520,520,476,0,0,0,476,520,520,520,520,520,520,520,520,520,520,520,476,0,0,
0,0,0,476,520,520,520,520,520,520,520,520,520,479,0,0,0,0,476,520,520,520,520,520,520,520,520,520,520,520,520,520,520,520,520,520,520,520,520,520,520,479,0,0,0,479,520,520,520,520,520,520,520,520,520,520,520,479,0,0,
0,0,0,476,520,520,520,520,520,520,520,520,520,476,0,0,0,0,476,520,520,520,520,520,520,520,520,520,520,520,520,520,520,520,520,520,520,520,520,520,520,476,0,0,0,476,520,520,520,520,520,520,520,520,520,520,520,476,0,0,
0,0,0,479,520,520,520,520,520,520,520,520,520,476,0,0,0,0,476,520,520,520,520,520,520,520,520,520,520,520,520,520,520,520,520,520,520,520,520,520,520,476,0,0,0,476,520,520,520,520,520,520,520,520,520,520,520,476,0,0,
0,0,0,476,520,520,520,520,520,520,520,520,520,476,0,0,0,0,479,520,520,520,520,520,520,520,520,520,520,520,520,520,520,520,520,520,520,520,520,520,520,476,0,0,0,476,520,520,520,520,520,520,520,520,520,520,520,476,0,0,
0,0,0,476,520,520,520,520,520,520,520,520,520,479,0,0,0,0,476,520,520,520,520,520,520,520,520,520,520,520,520,520,520,520,520,520,520,520,520,520,520,479,0,0,0,479,520,520,520,520,520,520,520,520,520,520,520,479,0,0,
0,0,0,476,520,520,520,520,520,520,520,520,520,476,0,0,0,0,476,520,520,520,520,520,520,520,520,520,520,520,520,520,520,520,520,520,520,520,520,520,520,476,0,0,0,476,520,520,520,520,520,520,520,520,520,520,520,476,0,0,
0,0,0,479,520,520,520,520,520,520,520,520,520,476,0,0,0,0,476,520,520,520,520,520,520,520,520,520,520,520,520,520,520,520,520,520,520,520,520,520,520,476,0,0,0,476,520,520,520,520,520,520,520,520,520,520,520,476,0,0,
0,0,0,476,476,476,479,476,476,476,479,476,476,476,0,0,0,0,479,520,520,520,520,520,520,520,520,520,520,520,520,520,520,520,520,520,520,520,520,520,520,476,0,0,0,476,479,476,476,476,479,476,476,476,479,476,476,476,0,0,
0,0,0,0,0,0,0,0,0,0,0,0,0,0,0,0,0,0,476,520,520,520,520,520,520,520,520,520,520,520,520,520,520,520,520,520,520,520,520,520,520,479,0,0,0,0,0,0,0,0,0,0,0,0,0,0,0,0,0,0,
0,0,0,0,0,0,0,0,0,0,0,0,0,0,0,0,0,0,476,520,520,520,520,520,520,520,520,520,520,520,520,520,520,520,520,520,520,520,520,520,520,476,0,0,0,0,0,0,0,0,0,0,0,0,0,0,0,0,0,0,
0,0,0,0,0,0,0,0,0,0,0,0,0,0,0,0,0,0,476,520,520,520,520,520,520,520,520,520,520,520,520,520,520,520,520,520,520,520,520,520,520,476,0,0,0,0,0,0,0,0,0,0,0,0,0,0,0,0,0,0,
0,0,0,0,0,0,0,0,0,0,0,0,0,0,0,0,0,0,479,476,476,476,479,476,476,476,479,476,476,476,479,476,476,476,479,476,476,476,479,476,476,476,0,0,0,0,0,0,0,0,0,0,0,0,0,0,0,0,0,0,
0,0,0,0,0,0,0,0,0,0,0,0,0,0,0,0,0,0,0,0,0,0,0,0,0,0,0,0,0,0,0,0,0,0,0,0,0,0,0,0,0,0,0,0,0,0,0,0,0,0,0,0,0,0,0,0,0,0,0,0,
0,0,0,0,0,0,0,0,0,0,0,0,0,0,0,0,0,0,0,0,0,0,0,0,0,0,0,0,0,0,0,0,0,0,0,0,0,0,0,0,0,0,0,0,0,0,0,0,0,0,0,0,0,0,0,0,0,0,0,0,
0,0,0,0,0,0,0,0,0,0,0,0,0,0,0,0,0,0,0,0,0,0,0,0,0,0,0,0,0,0,0,0,0,0,0,0,0,0,0,0,0,0,0,0,0,0,0,0,0,0,0,0,0,0,0,0,0,0,0,0,
0,0,0,0,0,0,0,0,0,0,0,0,0,0,0,0,0,0,0,0,0,0,0,0,0,0,0,0,0,0,0,0,0,0,0,0,0,0,0,0,0,0,0,0,0,0,0,0,0,0,0,0,0,0,0,0,0,0,0,0,
0,0,0,0,0,0,0,0,0,0,0,0,0,0,0,0,0,0,0,0,0,0,0,0,0,0,0,0,0,0,0,0,0,0,0,0,0,0,0,0,0,0,0,0,0,0,0,0,0,0,0,0,0,0,0,0,0,0,0,0,
0,0,0,0,0,0,0,0,0,0,0,0,0,0,0,0,0,0,0,0,0,0,0,0,0,0,0,0,0,0,0,0,0,0,0,0,0,0,0,0,0,0,0,0,0,0,0,0,0,0,0,0,0,0,0,0,0,0,0,0,
0,0,0,0,0,0,0,0,0,0,0,0,0,0,0,0,0,0,0,0,0,0,0,0,0,0,0,0,0,0,0,0,0,0,0,0,0,0,0,0,0,0,0,0,0,0,0,0,0,0,0,0,0,0,0,0,0,0,0,0,
0,0,0,0,0,0,0,0,0,0,0,0,0,0,0,0,0,0,0,0,0,0,0,0,0,0,0,0,0,0,0,0,0,0,0,0,0,0,0,0,0,0,0,0,0,0,0,0,0,0,0,0,0,0,0,0,0,0,0,0,
0,0,0,0,0,0,0,0,0,0,0,0,0,0,0,0,0,0,0,0,0,0,0,0,0,0,0,0,0,0,0,0,0,0,0,0,0,0,0,0,0,0,0,0,0,0,0,0,0,0,0,0,0,0,0,0,0,0,0,0
  </data>
 </layer>
 <layer id="5" name="05_Props" width="60" height="48">
  <data encoding="csv">
0,0,0,0,0,0,0,0,0,0,0,0,0,0,0,0,0,0,0,0,0,0,0,0,0,0,0,0,0,0,0,0,0,0,0,0,0,0,0,0,0,0,0,0,0,0,0,0,0,0,0,0,0,0,0,0,0,0,0,0,
0,0,0,0,0,0,0,0,0,0,0,0,0,0,0,0,0,0,0,0,0,0,0,0,0,0,0,0,0,0,0,0,0,0,0,0,0,0,0,0,0,0,0,0,0,0,0,0,0,0,0,0,0,0,0,0,0,0,0,0,
0,0,0,0,0,0,0,0,0,0,0,0,0,0,0,0,0,0,0,0,0,0,0,0,0,0,0,0,0,0,0,0,0,0,0,0,0,0,0,0,0,0,0,0,0,0,0,0,0,0,0,0,0,0,0,0,0,0,0,0,
0,0,0,0,0,0,0,0,0,0,0,0,0,0,0,0,0,0,0,0,0,0,0,0,0,0,0,0,0,0,0,0,0,0,0,0,0,0,0,0,0,0,0,0,0,0,0,0,0,0,0,0,0,0,0,0,0,0,0,0,
0,0,0,0,0,0,0,0,0,0,0,0,0,0,0,0,0,0,0,0,0,0,0,0,0,0,0,0,0,0,0,0,0,0,0,0,0,0,0,0,0,0,0,0,0,0,0,0,0,0,0,0,0,0,0,0,0,0,0,0,
0,0,0,0,0,0,0,0,0,0,0,0,0,0,0,0,0,0,0,0,0,0,0,0,0,0,0,0,0,0,0,0,0,0,0,0,0,0,0,0,0,0,0,0,0,0,0,0,0,0,0,0,0,0,0,0,0,0,0,0,
0,0,0,0,0,0,0,0,0,0,0,0,0,0,0,0,0,0,0,0,0,0,0,0,0,0,0,0,0,0,0,0,0,0,0,0,0,0,0,0,0,0,0,0,0,0,0,0,0,0,0,0,0,0,0,0,0,0,0,0,
0,0,0,0,0,0,0,0,0,0,0,0,0,0,0,0,0,0,0,0,0,0,0,0,0,0,0,0,0,0,0,0,0,0,0,0,0,0,0,0,0,0,0,0,0,0,0,0,0,0,0,0,0,0,0,0,0,0,0,0,
0,0,0,0,0,0,0,0,0,0,0,0,0,0,0,0,0,0,0,0,0,0,0,0,0,0,0,0,0,0,0,0,0,0,0,0,0,0,0,0,0,0,0,0,0,0,0,0,0,0,0,0,0,0,0,0,0,0,0,0,
0,0,0,0,0,0,0,0,0,0,0,0,0,0,0,0,0,0,0,0,0,0,0,0,0,0,0,0,0,0,0,0,0,0,0,0,0,0,0,0,0,0,0,0,0,0,0,0,0,0,0,0,0,0,0,0,0,0,0,0,
0,0,0,0,0,0,0,0,0,0,0,0,0,0,0,0,0,0,0,0,0,0,0,0,0,0,0,0,0,0,0,0,0,0,0,0,0,0,0,0,0,0,0,0,0,0,0,0,0,0,0,0,0,0,0,0,0,0,0,0,
0,0,0,0,0,0,0,0,0,0,0,0,0,0,0,0,0,0,0,0,0,0,0,0,0,0,0,0,0,0,0,0,0,0,0,0,0,0,0,0,0,0,0,0,0,0,0,0,0,0,0,0,0,0,0,0,0,0,0,0,
0,0,0,0,0,0,0,0,0,0,0,0,0,0,0,0,0,0,0,0,0,0,0,0,0,0,0,0,0,0,0,0,0,0,0,0,0,0,0,0,0,0,0,0,0,0,0,0,0,0,0,0,0,0,0,0,0,0,0,0,
0,0,0,0,0,0,0,0,0,0,0,0,0,0,0,0,0,0,0,0,0,0,0,0,0,0,0,0,0,0,0,0,0,0,0,0,0,0,0,0,0,0,0,0,0,0,0,0,0,0,0,0,0,0,0,0,0,0,0,0,
0,0,0,0,0,0,0,0,0,0,0,0,0,0,0,0,0,0,0,0,0,0,0,0,0,0,0,0,0,0,0,0,0,0,0,0,0,0,0,0,0,0,0,0,0,0,0,0,0,0,0,0,0,0,0,0,0,0,0,0,
0,0,0,0,0,0,0,0,0,0,0,0,0,0,0,0,0,0,0,0,0,0,0,0,0,0,0,0,0,0,0,0,0,0,0,0,0,0,0,0,0,0,0,0,0,0,0,0,0,0,0,0,0,0,0,0,0,0,0,0,
0,0,0,0,0,0,0,0,0,0,0,0,0,0,0,0,0,0,0,0,0,0,0,0,0,0,0,0,0,0,0,0,0,0,0,0,0,0,0,0,0,0,0,0,0,0,0,0,0,0,0,0,0,0,0,0,0,0,0,0,
0,0,0,0,0,0,0,0,0,0,0,0,0,0,0,0,0,0,0,0,0,0,0,0,0,0,0,0,0,0,0,0,0,0,0,0,0,0,0,0,0,0,0,0,0,0,0,0,0,0,0,0,0,0,0,0,0,0,0,0,
0,0,0,0,0,0,0,0,0,0,0,0,0,0,0,0,0,0,0,0,0,0,0,0,0,0,0,0,0,0,0,0,0,0,0,0,0,0,0,0,0,0,0,0,0,0,0,0,0,0,0,0,0,0,0,0,0,0,0,0,
0,0,0,0,0,0,0,0,0,0,0,0,0,0,0,0,0,0,0,0,0,0,0,0,0,0,0,0,0,0,0,0,0,0,0,0,0,0,0,0,0,0,0,0,0,0,0,0,0,0,0,0,0,0,0,0,0,0,0,0,
0,0,0,0,0,0,0,0,0,0,0,0,0,0,0,0,0,0,0,0,0,0,0,0,0,0,0,0,0,0,0,0,0,0,0,0,0,0,0,0,0,0,0,0,0,0,0,0,0,0,0,0,0,0,0,0,0,0,0,0,
0,0,0,0,0,0,0,0,0,0,0,0,0,0,0,0,0,0,0,0,0,0,0,0,0,0,0,0,0,0,0,0,0,0,0,0,0,0,0,0,0,0,0,0,0,0,0,0,0,0,0,0,0,0,0,0,0,0,0,0,
0,0,0,0,0,0,0,0,0,0,0,0,0,0,0,0,0,0,0,0,0,0,0,0,0,0,0,0,0,0,0,0,0,0,0,0,0,0,0,0,0,0,0,0,0,0,0,0,0,0,0,0,0,0,0,0,0,0,0,0,
0,0,0,0,0,0,0,0,0,0,0,0,0,0,0,0,0,0,0,0,0,0,0,0,0,0,0,0,0,0,0,0,0,0,0,0,0,0,0,0,0,0,0,0,0,0,0,0,0,0,0,0,0,0,0,0,0,0,0,0,
0,0,0,0,0,0,0,0,0,0,0,0,0,0,0,0,0,0,0,0,0,0,0,0,0,0,0,0,0,0,0,0,0,0,0,0,0,0,0,0,0,0,0,0,0,0,0,0,0,0,0,0,0,0,0,0,0,0,0,0,
0,0,0,0,0,0,0,0,0,0,0,0,0,0,0,0,0,0,0,0,0,0,0,0,0,0,0,0,0,0,0,0,0,0,0,0,0,0,0,0,0,0,0,0,0,0,0,0,0,0,0,0,0,0,0,0,0,0,0,0,
0,0,0,0,0,0,0,0,0,0,0,0,0,0,0,0,0,0,0,0,0,0,0,0,0,0,0,0,0,0,0,0,0,0,0,0,0,0,0,0,0,0,0,0,0,0,0,0,0,0,0,0,0,0,0,0,0,0,0,0,
0,0,0,0,0,0,0,0,0,0,0,0,0,0,0,0,0,0,0,0,0,0,0,0,0,0,0,0,0,0,0,0,0,0,0,0,0,0,0,0,0,0,0,0,0,0,0,0,0,0,0,0,0,0,0,0,0,0,0,0,
0,0,0,0,0,0,0,0,0,0,0,0,0,0,0,0,0,0,0,0,0,0,0,0,0,0,0,0,0,0,0,0,0,0,0,0,0,0,0,0,0,0,0,0,0,0,0,0,0,0,0,0,0,0,0,0,0,0,0,0,
0,0,0,0,0,0,0,0,0,0,0,0,0,0,0,0,0,0,0,0,0,0,0,0,0,0,0,0,0,0,0,0,0,0,0,0,0,0,0,0,0,0,0,0,0,0,0,0,0,0,0,0,0,0,0,0,0,0,0,0,
0,0,0,0,0,0,0,0,0,0,0,0,0,0,0,0,0,0,0,0,0,0,0,0,0,0,0,0,0,0,0,0,0,0,0,0,0,0,0,0,0,0,0,0,0,0,0,0,0,0,0,0,0,0,0,0,0,0,0,0,
0,0,0,0,0,0,0,0,0,0,0,0,0,0,0,0,0,0,0,0,0,0,0,0,0,0,0,0,0,0,0,0,0,0,0,0,0,0,0,0,0,0,0,0,0,0,0,0,0,0,0,0,0,0,0,0,0,0,0,0,
0,0,0,0,0,0,0,0,0,0,0,0,0,0,0,0,0,0,0,0,0,0,0,0,0,0,0,0,0,0,0,0,0,0,0,0,0,0,0,0,0,0,0,0,0,0,0,0,0,0,0,0,0,0,0,0,0,0,0,0,
0,0,0,0,0,0,0,0,0,0,0,0,0,0,0,0,0,0,0,0,0,0,0,0,0,0,0,0,0,0,0,0,0,0,0,0,0,0,0,0,0,0,0,0,0,0,0,0,0,0,0,0,0,0,0,0,0,0,0,0,
0,0,0,0,0,0,0,0,0,0,0,0,0,0,0,0,0,0,0,0,0,0,0,0,0,0,0,0,0,0,0,0,0,0,0,0,0,0,0,0,0,0,0,0,0,0,0,0,0,0,0,0,0,0,0,0,0,0,0,0,
0,0,0,0,0,0,0,0,0,0,0,0,0,0,0,0,0,0,0,0,0,0,0,0,0,0,0,0,0,0,0,0,0,0,0,0,0,0,0,0,0,0,0,0,0,0,0,0,0,0,0,0,0,0,0,0,0,0,0,0,
0,0,0,0,0,0,0,0,0,0,0,0,0,0,0,0,0,0,0,0,0,0,0,0,0,0,0,0,0,0,0,0,0,0,0,0,0,0,0,0,0,0,0,0,0,0,0,0,0,0,0,0,0,0,0,0,0,0,0,0,
0,0,0,0,0,0,0,0,0,0,0,0,0,0,0,0,0,0,0,0,0,0,0,0,0,0,0,0,0,0,0,0,0,0,0,0,0,0,0,0,0,0,0,0,0,0,0,0,0,0,0,0,0,0,0,0,0,0,0,0,
0,0,0,0,0,0,0,0,0,0,0,0,0,0,0,0,0,0,0,0,0,0,0,0,0,0,0,0,0,0,0,0,0,0,0,0,0,0,0,0,0,0,0,0,0,0,0,0,0,0,0,0,0,0,0,0,0,0,0,0,
0,0,0,0,0,0,0,0,0,0,0,0,0,0,0,0,0,0,0,0,0,0,0,0,0,0,0,0,0,0,0,0,0,0,0,0,0,0,0,0,0,0,0,0,0,0,0,0,0,0,0,0,0,0,0,0,0,0,0,0,
0,0,0,0,0,0,0,0,0,0,0,0,0,0,0,0,0,0,0,0,0,0,0,0,0,0,0,0,0,0,0,0,0,0,0,0,0,0,0,0,0,0,0,0,0,0,0,0,0,0,0,0,0,0,0,0,0,0,0,0,
0,0,0,0,0,0,0,0,0,0,0,0,0,0,0,0,0,0,0,0,0,0,0,0,0,0,0,0,0,0,0,0,0,0,0,0,0,0,0,0,0,0,0,0,0,0,0,0,0,0,0,0,0,0,0,0,0,0,0,0,
0,0,0,0,0,0,0,0,0,0,0,0,0,0,0,0,0,0,0,0,0,0,0,0,0,0,0,0,0,0,0,0,0,0,0,0,0,0,0,0,0,0,0,0,0,0,0,0,0,0,0,0,0,0,0,0,0,0,0,0,
0,0,0,0,0,0,0,0,0,0,0,0,0,0,0,0,0,0,0,0,0,0,0,0,0,0,0,0,0,0,0,0,0,0,0,0,0,0,0,0,0,0,0,0,0,0,0,0,0,0,0,0,0,0,0,0,0,0,0,0,
0,0,0,0,0,0,0,0,0,0,0,0,0,0,0,0,0,0,0,0,0,0,0,0,0,0,0,0,0,0,0,0,0,0,0,0,0,0,0,0,0,0,0,0,0,0,0,0,0,0,0,0,0,0,0,0,0,0,0,0,
0,0,0,0,0,0,0,0,0,0,0,0,0,0,0,0,0,0,0,0,0,0,0,0,0,0,0,0,0,0,0,0,0,0,0,0,0,0,0,0,0,0,0,0,0,0,0,0,0,0,0,0,0,0,0,0,0,0,0,0,
0,0,0,0,0,0,0,0,0,0,0,0,0,0,0,0,0,0,0,0,0,0,0,0,0,0,0,0,0,0,0,0,0,0,0,0,0,0,0,0,0,0,0,0,0,0,0,0,0,0,0,0,0,0,0,0,0,0,0,0,
0,0,0,0,0,0,0,0,0,0,0,0,0,0,0,0,0,0,0,0,0,0,0,0,0,0,0,0,0,0,0,0,0,0,0,0,0,0,0,0,0,0,0,0,0,0,0,0,0,0,0,0,0,0,0,0,0,0,0,0
  </data>
 </layer>
</map>