<?xml version="1.0" encoding="UTF-8"?>
<map version="1.10" tiledversion="1.12.1" orientation="orthogonal" renderorder="right-down" width="126" height="90" tilewidth="16" tileheight="16" infinite="0" nextlayerid="8" nextobjectid="34">
 <properties>
  <property name="groundStyle" value="peak"/>
 </properties>
 <tileset firstgid="1" source="tileset.tsx"/>
 <tileset firstgid="91" source="objects.tsx"/>
 <layer id="7" name="ground" width="126" height="90">
  <data encoding="csv">
61,61,61,61,61,1,1,61,61,61,61,61,1,61,1,61,61,61,61,1,61,61,61,1,61,61,1,61,1,1,61,61,61,1,61,61,61,61,1,61,61,61,61,61,61,61,61,61,61,1,61,61,1,61,61,61,61,61,61,61,1,1,61,61,61,61,61,61,61,61,61,61,61,1,1,61,61,1,61,61,1,61,61,61,1,1,61,61,61,1,61,61,61,61,61,1,1,61,61,61,61,61,61,61,61,61,61,61,61,1,61,61,61,1,1,1,61,61,1,61,1,61,61,61,1,61
61,61,1,1,1,1,61,61,61,1,1,61,61,61,61,61,61,61,61,61,1,1,61,61,61,1,61,61,61,61,1,61,61,61,1,61,61,1,1,61,61,1,61,61,1,61,61,61,61,61,1,61,61,61,61,61,61,61,61,61,61,1,61,61,1,61,1,61,61,61,61,1,61,61,61,1,61,61,61,1,61,61,1,61,1,61,61,61,61,61,1,61,1,61,1,1,61,61,1,61,61,61,61,61,61,61,61,61,61,61,61,1,61,61,61,61,61,61,1,61,1,61,61,61,61,61
61,61,1,61,61,61,1,1,61,61,1,61,61,1,61,61,61,61,61,61,61,61,61,61,1,61,61,1,1,61,61,61,61,1,61,61,1,1,1,1,1,61,61,61,61,1,1,61,61,61,61,61,61,1,61,61,61,1,61,61,61,1,1,61,1,61,1,61,61,61,1,61,61,61,1,61,61,61,1,61,61,61,61,61,61,61,61,1,61,1,61,61,61,61,61,61,1,61,1,61,1,61,61,61,61,61,61,1,61,1,1,61,61,1,61,61,61,61,61,61,61,61,61,61,61,61
61,61,61,1,1,61,1,61,61,61,61,61,1,61,61,61,61,61,1,61,61,61,61,61,1,61,61,61,61,61,61,61,61,61,1,1,61,61,1,61,61,1,61,1,61,61,61,61,61,1,61,61,61,61,61,61,1,61,61,61,61,61,61,61,61,61,61,61,61,1,61,1,61,61,61,61,61,61,61,61,61,61,61,1,61,61,61,61,1,1,61,61,1,61,61,1,61,61,61,1,61,61,61,61,1,61,1,61,61,61,61,61,1,61,1,61,61,61,1,61,61,1,1,61,61,61
61,61,61,1,61,61,61,61,1,61,1,61,61,1,1,61,1,61,61,1,61,1,1,61,61,61,61,1,61,61,61,1,61,61,61,61,61,61,61,61,1,1,61,61,1,61,61,61,1,61,1,61,1,61,61,61,61,61,1,61,61,61,61,1,61,61,61,61,61,1,61,61,61,61,61,61,61,61,61,61,1,1,1,61,61,61,1,61,61,61,61,61,1,1,61,1,1,1,61,1,61,61,61,1,61,61,1,61,61,1,61,61,61,1,61,61,61,1,61,61,61,61,61,1,61,61
61,61,61,61,61,1,61,61,61,61,1,61,61,1,61,1,1,61,61,61,61,1,61,61,1,1,61,61,1,1,1,61,61,61,61,1,1,1,61,1,61,1,1,61,61,61,61,1,1,61,1,61,61,61,61,1,61,61,61,61,1,61,1,1,61,1,61,61,61,61,61,1,61,61,1,61,1,61,61,61,61,1,61,61,61,61,61,61,61,61,61,61,61,61,1,1,61,1,1,1,1,61,1,61,61,61,61,61,61,61,61,1,61,61,61,61,61,61,1,61,1,61,61,61,61,61
61,61,1,61,61,61,61,61,61,1,1,61,61,61,61,61,1,61,61,61,61,61,1,61,1,61,61,61,61,61,61,1,61,1,61,1,1,61,61,61,61,61,1,61,61,1,61,1,1,61,1,61,61,61,61,61,61,61,1,61,61,61,61,61,61,1,1,61,61,1,61,61,61,61,1,61,1,61,61,1,61,61,1,1,61,61,1,61,61,61,1,1,1,61,61,61,61,61,61,61,61,1,61,61,61,1,1,61,61,61,1,61,61,61,1,1,61,61,1,1,61,61,61,61,61,61
1,61,61,61,61,1,61,61,61,61,1,61,61,1,61,61,1,61,61,61,1,61,61,1,61,61,61,1,61,1,61,61,1,61,61,61,1,61,1,61,61,61,1,61,61,61,1,61,61,61,61,61,61,1,1,61,61,61,61,61,1,1,61,61,61,61,1,1,61,61,61,1,1,61,61,61,61,61,1,61,1,61,61,1,61,61,61,1,1,1,61,61,61,1,1,1,61,61,1,61,61,61,61,61,61,61,61,61,61,61,61,61,1,61,61,61,61,61,61,1,1,61,61,61,1,61
61,1,61,61,61,61,1,61,61,61,61,61,61,61,61,1,61,61,61,61,1,61,1,61,1,1,61,61,1,61,61,61,61,61,61,1,61,61,1,1,61,61,1,61,1,1,61,61,61,1,1,61,1,1,1,61,61,1,1,61,1,61,61,1,61,61,61,1,61,1,1,61,1,61,61,61,61,61,1,61,61,61,61,61,61,61,61,61,61,61,1,61,61,61,61,61,61,61,61,61,1,1,61,61,1,61,61,1,61,61,61,61,61,61,61,1,1,61,1,61,61,61,1,1,61,61
61,61,1,1,61,1,61,61,61,61,61,1,1,61,1,1,61,61,61,61,1,61,61,61,61,61,1,1,61,61,61,61,61,61,1,61,61,61,1,1,61,1,1,61,61,61,61,61,61,61,61,1,61,61,1,61,1,61,1,61,1,61,61,1,61,1,61,1,61,1,61,1,61,61,1,61,61,1,61,1,61,1,61,61,61,61,61,61,61,61,61,1,1,61,1,61,1,1,61,61,61,61,61,61,61,1,61,61,61,61,61,61,1,61,1,1,61,1,61,1,61,61,61,1,61,61
61,61,1,61,61,61,61,61,61,61,1,61,61,61,1,61,1,61,1,1,61,61,61,61,61,1,61,61,1,1,1,61,61,1,61,61,61,61,61,61,61,61,61,1,61,1,61,61,1,61,61,61,61,61,61,61,61,61,1,61,61,61,61,1,61,61,61,1,61,61,61,61,61,1,1,1,61,61,1,61,61,1,61,61,61,61,61,61,61,61,61,61,1,1,1,61,61,61,61,61,61,61,1,61,61,61,1,61,61,61,61,61,61,61,61,61,1,61,61,61,61,61,61,61,61,61
61,61,1,61,61,1,61,1,61,61,61,61,1,61,61,61,61,1,1,61,61,61,61,61,1,61,1,61,61,61,1,1,61,61,1,61,61,61,61,1,1,61,61,1,1,61,61,61,61,61,61,61,61,61,1,61,1,1,1,61,61,61,1,61,61,61,1,61,1,61,61,1,1,61,61,61,61,61,1,61,1,1,1,61,61,1,61,61,1,61,61,61,61,61,61,61,1,61,1,61,61,61,1,1,61,1,61,1,61,61,61,61,1,61,61,61,61,61,61,61,61,61,1,61,61,61
1,61,61,1,1,1,61,1,61,61,1,1,1,61,61,61,61,61,61,61,61,61,1,61,61,61,1,1,61,61,61,61,61,61,61,61,61,61,61,1,61,61,1,61,61,1,61,61,61,61,61,61,61,61,1,1,61,61,61,61,61,1,61,61,61,61,61,61,1,61,61,61,1,61,61,61,61,61,1,61,1,61,61,61,1,1,61,1,61,61,61,1,61,1,61,61,1,61,61,61,61,1,1,1,1,61,61,1,61,61,61,61,61,1,1,61,61,1,1,1,61,1,1,1,61,61
61,61,61,61,61,61,61,61,61,61,61,61,1,61,61,61,61,61,61,1,1,61,61,1,61,61,61,61,61,61,61,61,61,61,61,61,1,61,1,61,61,61,61,61,61,61,61,61,1,61,61,61,61,61,61,1,61,1,1,61,1,61,61,61,61,61,1,61,1,61,61,61,61,1,61,61,61,61,1,61,61,61,61,61,61,61,61,61,61,61,1,61,1,61,61,61,61,61,61,1,61,61,1,61,61,61,61,61,1,1,61,1,61,61,1,61,61,61,61,61,61,61,61,61,61,61
61,1,61,61,61,1,1,61,61,61,61,1,1,61,1,61,1,61,1,1,61,61,61,61,61,61,61,61,61,61,61,1,1,61,61,61,1,61,61,61,1,61,61,1,61,61,61,61,61,1,61,61,61,61,1,61,1,61,1,61,61,61,61,61,1,61,61,61,61,61,61,61,61,61,61,1,1,61,61,61,61,61,1,61,61,61,61,61,61,61,1,61,61,61,1,61,61,61,1,1,61,1,1,1,1,61,61,61,1,61,61,61,1,1,61,61,61,61,61,61,61,61,61,61,61,61
1,61,61,1,61,1,1,61,1,61,61,61,61,61,1,61,61,61,61,61,1,1,61,61,61,61,61,61,61,61,1,1,61,61,61,61,1,1,61,61,61,1,61,1,1,61,61,61,61,61,1,61,61,61,61,61,1,61,61,61,61,61,1,1,61,61,1,1,61,61,61,1,61,61,1,1,1,61,61,61,1,61,1,1,61,61,61,61,1,61,61,61,61,61,61,1,61,61,61,61,61,61,61,1,1,1,1,1,61,61,1,61,1,61,61,1,61,1,61,1,1,61,61,61,61,1
1,61,61,1,61,61,1,61,1,61,1,61,61,61,61,61,61,1,61,1,61,1,61,1,61,61,61,1,1,61,61,61,1,61,61,61,1,61,1,61,1,61,61,61,61,61,61,61,1,61,61,1,61,61,61,61,61,61,61,61,61,1,61,1,1,61,61,1,61,61,61,61,61,61,61,61,61,61,61,61,61,61,61,61,61,61,61,1,61,61,1,1,61,1,61,61,61,1,61,61,61,1,1,61,61,61,61,61,61,61,1,61,1,61,61,1,61,61,61,61,1,61,1,61,1,1
61,1,61,61,61,61,61,61,61,61,1,61,61,61,61,61,61,61,1,61,61,61,1,61,61,1,61,1,61,61,61,1,61,61,61,61,1,1,1,61,61,61,61,61,61,1,61,1,1,61,61,1,61,1,1,61,1,61,61,1,1,61,1,61,61,61,1,61,61,61,61,1,1,61,1,61,61,61,61,61,61,61,61,61,61,1,61,61,61,61,61,61,61,61,61,61,1,1,1,61,61,1,61,61,1,1,1,1,1,1,61,61,61,1,61,1,61,61,61,1,61,61,61,61,1,1
61,61,61,61,61,1,61,61,61,1,61,61,1,61,61,1,1,61,61,61,61,1,61,61,61,61,61,61,61,1,61,61,1,61,1,61,61,1,61,61,61,1,61,1,1,61,61,61,61,61,61,1,1,1,61,61,61,61,1,1,61,61,61,1,61,61,61,61,61,61,61,61,1,1,61,61,61,61,61,1,61,61,61,61,1,61,61,61,1,1,1,61,61,1,61,61,1,1,1,1,1,1,61,61,1,1,61,61,61,61,61,61,61,1,61,1,61,61,61,61,61,61,61,61,61,61
61,61,61,61,61,61,61,61,1,1,1,61,61,1,61,61,61,1,61,61,61,61,1,61,61,1,61,61,61,1,61,61,61,1,61,61,1,61,61,1,61,1,1,61,1,61,61,61,61,1,1,1,61,61,61,61,61,1,1,61,61,61,61,1,61,61,61,61,61,61,61,61,61,1,61,61,61,61,61,61,61,61,1,61,61,61,61,61,61,1,61,61,1,61,61,1,1,61,1,61,61,61,61,61,1,61,61,61,61,1,61,61,1,61,1,61,1,61,61,61,61,61,61,61,61,1
61,61,1,61,61,61,61,1,61,61,61,61,61,1,61,1,61,61,61,1,61,61,61,61,61,61,61,61,61,61,1,61,61,1,1,1,1,1,61,61,61,1,61,1,61,61,61,61,61,61,1,61,1,1,61,61,61,61,61,61,61,61,61,61,61,1,1,61,61,1,61,61,1,61,1,61,61,61,1,1,61,61,61,1,61,61,61,61,61,1,61,61,1,61,61,61,61,61,61,61,1,61,1,61,61,61,1,1,61,1,61,61,61,1,1,61,61,61,61,1,61,61,1,61,61,61
61,61,61,61,61,61,61,61,61,61,61,61,1,61,61,1,61,61,61,1,61,61,61,61,1,61,61,61,1,1,61,61,61,61,61,61,1,61,1,1,61,61,1,61,1,61,61,1,1,61,61,61,1,61,61,61,61,61,61,1,61,61,1,1,61,61,61,1,61,61,1,61,1,1,61,61,61,61,61,61,61,61,1,61,1,61,61,61,61,61,1,1,1,61,61,61,61,61,61,1,61,61,61,61,1,61,61,61,61,61,61,61,61,1,61,1,61,61,61,61,61,61,61,61,1,61
61,61,1,1,61,61,61,61,61,61,61,61,1,1,61,61,61,61,61,1,61,61,61,61,61,1,61,61,1,61,1,1,61,61,61,1,61,61,61,61,1,61,1,1,61,61,61,61,61,1,61,1,61,61,61,61,1,1,61,61,1,1,61,61,61,61,61,61,61,61,61,1,61,1,61,61,61,61,61,1,61,1,1,1,1,61,61,61,61,61,61,1,61,1,61,61,61,61,61,1,1,61,61,61,1,1,61,1,61,61,1,61,61,1,61,61,61,61,61,1,61,1,61,61,61,61
61,1,61,61,61,61,1,61,61,61,61,61,61,1,61,61,61,61,61,1,61,61,61,1,61,61,61,61,1,61,61,61,61,61,61,61,1,61,61,61,1,61,61,61,61,61,1,61,61,61,61,61,61,61,1,61,61,61,1,61,61,61,61,61,61,61,61,1,1,61,61,61,61,61,61,1,61,61,61,61,61,61,61,61,1,61,1,61,1,61,61,61,61,61,61,1,61,1,61,61,61,61,61,61,61,1,61,61,61,61,61,61,1,61,61,1,61,61,1,1,1,61,61,61,1,61
1,61,61,61,61,61,1,1,61,61,1,1,61,1,61,1,61,61,61,61,61,61,61,1,61,61,61,1,61,61,61,61,1,1,61,61,61,1,61,61,61,61,61,61,1,61,61,61,61,61,61,61,61,61,61,61,1,61,1,61,61,1,61,1,61,61,61,1,61,61,61,1,1,61,1,1,61,61,1,1,61,61,61,61,1,61,61,61,61,61,1,61,61,61,61,1,61,61,61,61,61,61,61,61,61,61,1,1,61,1,61,1,61,61,61,61,61,61,61,1,61,1,1,61,61,61
1,61,61,61,1,61,61,61,61,61,61,61,61,1,61,61,61,1,61,61,1,61,61,61,61,61,61,1,1,61,61,1,61,61,61,61,61,61,61,61,61,61,61,1,1,1,1,61,1,61,61,61,61,1,61,61,61,1,1,61,61,61,61,61,1,1,61,61,1,61,1,61,61,61,1,61,61,1,61,1,61,1,61,61,61,1,61,61,61,1,61,1,1,61,1,61,1,1,61,1,1,1,61,61,61,61,1,1,61,61,61,61,1,1,1,61,1,61,61,1,61,61,1,61,1,61
1,61,61,61,1,61,1,1,1,1,61,61,61,1,1,61,1,61,61,61,1,61,61,61,1,61,61,61,1,1,1,1,61,1,61,61,1,1,61,1,1,1,1,61,1,61,1,61,1,61,1,61,61,61,61,61,1,61,1,61,61,61,1,61,61,61,61,1,61,61,61,61,1,1,61,61,61,1,61,61,61,61,1,61,61,61,61,61,61,61,1,1,61,61,1,1,61,61,61,61,1,1,61,1,61,61,61,61,61,61,61,61,61,61,1,61,61,61,1,1,1,1,61,61,61,61
61,61,1,61,61,61,61,61,61,1,61,61,1,61,61,61,1,61,61,61,61,61,1,1,61,61,61,1,61,61,61,1,61,61,61,61,1,1,61,61,1,61,61,61,61,61,61,61,61,1,61,1,1,61,1,61,61,61,61,1,1,61,61,61,61,61,61,61,61,61,61,61,61,61,61,61,1,61,61,61,61,61,61,1,61,61,1,61,1,61,61,1,61,61,61,61,1,61,61,61,61,1,1,61,61,61,1,61,61,61,61,61,61,61,61,1,61,61,1,1,61,1,61,61,61,61
61,61,1,1,1,1,61,61,61,61,61,61,1,1,61,61,61,61,61,61,61,61,61,61,61,61,1,61,1,61,61,61,61,61,61,1,1,61,61,1,61,1,61,1,61,61,61,1,1,61,61,61,1,61,61,1,61,61,61,61,61,61,61,1,1,61,1,61,1,61,61,61,61,61,61,61,1,61,1,1,61,61,1,61,61,61,61,61,1,61,61,61,61,61,1,61,61,1,61,61,61,61,61,61,61,61,1,61,61,1,1,61,61,61,61,61,1,61,1,1,61,61,1,61,1,1
61,61,61,1,61,61,61,1,61,61,61,61,1,1,61,1,1,61,1,1,61,61,1,61,61,61,61,61,1,61,61,1,61,1,1,1,1,61,1,1,61,61,1,1,61,1,1,61,61,61,61,61,61,61,61,1,61,61,61,61,61,61,61,1,1,1,1,61,1,61,61,1,61,61,61,61,61,1,61,61,1,1,61,61,61,1,1,61,61,61,61,61,1,61,61,61,1,61,61,61,1,1,1,61,1,61,61,61,61,61,61,1,61,61,61,61,61,1,1,61,61,1,1,61,61,61
61,1,1,61,61,61,61,1,61,61,1,61,61,61,61,61,61,1,61,1,61,61,61,61,61,1,61,61,61,61,1,1,61,61,1,1,61,1,61,61,61,61,61,61,1,1,61,61,61,1,61,61,61,61,61,61,1,61,61,1,61,61,61,61,61,61,1,61,1,1,1,61,61,61,1,61,1,1,61,61,61,1,61,61,1,61,61,61,1,1,61,1,1,61,61,61,61,61,61,1,61,61,61,61,61,61,61,1,61,61,1,61,61,61,1,1,1,61,61,1,61,61,1,61,61,1
1,61,1,61,61,61,61,1,61,61,61,61,61,61,61,61,61,1,61,1,61,1,61,61,61,61,61,61,61,61,61,61,61,61,61,61,61,1,61,61,61,1,61,1,61,61,61,1,61,61,61,1,61,61,61,61,1,61,61,61,61,61,61,1,61,61,1,61,61,61,61,61,1,1,61,1,61,61,1,61,61,1,61,1,61,1,61,1,61,1,61,61,1,61,1,61,61,61,1,61,1,61,61,1,61,61,1,1,1,61,1,61,1,61,61,1,1,1,61,61,1,61,61,61,61,61
61,61,1,1,61,61,61,61,61,61,61,1,1,61,1,61,1,61,61,61,61,1,61,61,61,61,1,61,61,61,61,1,61,61,1,1,1,61,1,1,61,61,1,1,1,1,61,61,61,1,61,1,1,61,1,1,61,61,1,61,61,1,61,61,61,61,61,61,61,1,61,1,61,61,61,61,61,1,61,61,61,1,61,61,1,61,61,61,1,61,61,61,1,61,61,1,61,61,1,61,61,1,61,61,61,61,61,61,61,61,61,61,1,1,61,61,1,1,61,61,61,1,1,61,1,1
1,61,61,1,1,61,1,61,1,1,1,61,61,1,61,61,61,61,1,61,61,61,1,1,61,61,61,61,61,61,61,1,61,61,61,1,1,1,61,61,1,61,61,61,61,1,61,61,61,61,61,61,61,61,61,61,61,61,61,61,1,1,61,61,61,61,61,61,61,61,61,1,61,1,1,61,1,61,61,61,61,1,61,61,61,61,61,61,61,1,61,61,1,61,61,1,61,1,1,1,1,61,61,1,1,1,1,61,61,61,61,61,61,1,61,61,61,1,61,1,1,61,61,61,61,61
61,1,61,61,1,61,61,61,61,61,61,61,61,61,61,61,61,61,61,61,61,1,61,61,61,61,61,61,61,61,1,1,1,61,61,1,61,61,61,61,61,61,1,61,61,61,61,61,61,61,1,61,1,61,61,61,61,61,61,61,61,1,61,1,61,61,61,61,61,61,61,1,61,61,61,1,61,1,1,61,61,1,61,1,61,61,1,61,61,61,61,61,61,61,61,61,61,61,61,61,61,61,1,61,61,1,61,1,1,1,61,61,61,61,61,61,1,61,61,61,61,1,61,61,1,61
1,61,1,1,1,1,1,1,61,1,61,61,1,61,61,61,61,1,61,61,61,61,61,61,61,61,61,1,61,61,61,61,61,1,61,1,1,61,61,61,1,61,61,61,61,61,61,61,61,1,61,61,61,61,1,61,61,61,1,61,1,1,61,61,61,61,1,61,61,61,61,61,61,1,1,61,61,61,1,61,61,61,61,1,1,61,1,61,1,1,1,61,61,61,1,61,61,61,1,61,61,1,61,61,61,61,61,61,61,61,61,1,61,1,61,61,1,61,61,1,61,1,61,61,61,61
1,1,1,1,1,61,1,1,61,61,61,1,61,61,61,61,61,1,61,61,61,61,61,61,61,1,61,61,61,1,61,1,61,61,61,61,1,61,61,61,61,61,61,1,61,61,61,1,61,61,61,61,61,1,1,61,1,61,61,61,61,61,61,61,61,61,61,61,61,1,61,61,1,1,61,61,61,1,1,1,1,61,61,1,61,1,61,61,61,1,61,61,61,61,61,61,61,61,1,61,61,61,61,1,61,61,1,61,61,61,61,1,61,61,1,1,61,1,1,1,1,61,61,61,61,61
61,61,61,1,1,1,61,61,1,61,61,61,61,1,61,61,61,61,1,1,1,61,61,61,1,1,61,1,61,61,61,61,61,61,61,1,61,61,61,61,61,61,61,1,61,61,61,61,61,61,1,1,1,61,61,1,61,61,61,61,61,1,61,61,1,61,1,61,61,61,61,1,1,61,1,1,61,61,61,61,61,1,61,61,1,61,61,1,1,1,61,61,61,1,61,61,61,61,61,61,61,61,61,1,61,61,1,61,61,1,1,61,1,61,1,61,61,61,61,61,61,61,61,61,61,61
1,61,61,1,1,61,61,1,61,1,1,61,1,61,61,61,61,61,61,61,1,1,1,1,61,1,61,61,61,1,61,61,61,1,1,1,61,61,61,61,1,61,61,61,61,61,61,1,61,1,61,1,1,61,61,61,61,61,1,1,1,61,61,61,61,61,61,61,61,1,1,1,61,1,61,61,61,61,61,1,1,61,61,61,61,1,1,1,61,1,61,61,1,1,61,61,61,61,1,61,61,1,61,61,61,61,1,1,61,61,1,61,1,1,61,61,61,61,61,61,1,61,61,61,61,1
61,1,1,61,61,61,61,61,61,1,61,61,61,1,61,61,61,1,1,61,61,1,1,61,1,1,1,61,1,1,61,61,61,61,61,61,61,61,1,61,61,61,61,61,61,1,61,61,61,1,61,61,1,61,1,1,61,1,61,1,61,61,61,1,1,61,1,61,61,61,61,61,61,61,61,61,1,61,61,61,61,61,61,1,61,1,61,1,61,61,61,1,61,61,61,61,1,1,1,61,61,61,61,61,61,61,61,1,61,1,1,1,61,1,1,1,1,61,61,61,61,1,61,61,61,61
61,61,1,61,61,1,61,61,61,61,61,61,1,1,1,61,61,1,61,1,1,61,61,61,61,1,61,61,61,1,61,1,61,1,61,61,61,61,1,1,61,61,61,1,61,61,1,61,1,61,61,61,61,61,61,61,61,61,61,61,1,61,61,61,61,61,61,61,61,61,1,61,61,61,1,61,61,61,61,61,61,1,61,61,1,61,61,61,61,1,61,1,61,61,1,61,1,61,61,61,61,1,1,1,61,61,61,61,1,61,61,61,61,61,61,61,1,61,61,1,1,61,1,61,1,1
61,61,1,61,61,61,61,61,61,61,61,61,61,61,61,61,61,61,61,1,61,61,61,61,61,61,1,61,1,61,1,61,1,61,61,61,1,61,61,1,61,1,61,61,61,61,61,61,1,1,61,61,61,61,61,1,61,1,61,61,1,1,61,61,61,1,61,61,1,1,1,61,1,61,61,61,61,1,1,61,61,61,1,1,1,1,1,1,61,61,61,61,61,1,61,61,1,61,1,61,1,61,61,1,61,61,61,61,61,61,61,1,61,1,61,61,61,61,61,1,61,1,61,61,61,61
61,61,61,61,1,61,61,61,61,1,61,61,61,61,61,61,61,61,1,1,1,61,1,1,1,61,1,1,1,1,61,61,1,1,1,1,61,1,1,61,61,61,61,1,1,1,61,61,61,61,1,1,1,61,61,61,61,1,61,1,1,1,61,61,61,61,61,61,1,1,61,61,1,61,61,61,1,61,61,61,61,61,61,61,61,61,61,1,61,61,61,61,61,61,61,61,61,61,61,1,61,61,61,61,61,61,61,61,61,1,61,1,61,61,61,1,61,61,61,61,61,1,1,61,61,1
1,61,61,61,61,61,61,61,61,1,1,1,61,61,61,61,61,61,61,61,61,61,61,1,61,61,1,61,1,1,1,1,1,61,61,61,1,61,1,61,61,61,61,61,61,1,1,61,61,61,61,61,1,1,61,1,1,1,61,1,61,1,61,61,1,1,61,61,1,61,1,1,61,61,1,61,61,61,61,61,1,61,1,61,61,1,61,61,61,61,1,61,61,61,61,61,1,61,61,1,61,61,61,1,61,61,61,61,1,61,61,1,61,61,61,61,61,61,61,61,61,61,1,61,61,61
61,1,61,61,1,1,1,61,1,1,61,1,1,61,61,61,61,61,61,61,61,61,1,61,61,61,1,61,61,61,61,61,61,1,1,61,61,61,1,1,1,61,61,1,61,1,61,61,1,61,1,61,61,61,61,1,61,61,61,61,61,1,61,61,61,1,61,61,61,61,61,1,1,61,61,1,61,61,61,61,61,1,61,61,61,61,1,1,61,1,61,61,1,1,61,61,61,1,61,61,61,1,61,61,61,61,1,1,61,1,61,1,61,1,61,1,61,61,61,61,61,1,61,1,61,61
61,61,1,61,61,61,61,1,61,61,1,61,1,61,61,61,1,1,1,1,61,1,61,1,1,61,61,1,61,61,61,61,61,61,61,61,61,61,61,61,1,1,61,61,1,61,61,61,61,1,1,61,61,1,1,61,1,1,61,61,1,61,61,61,61,1,61,61,1,1,61,1,61,61,61,61,61,61,61,1,61,1,61,1,61,61,1,1,61,61,1,61,61,1,61,61,61,61,1,1,1,61,61,1,61,61,61,1,61,1,1,61,1,1,1,61,1,1,1,1,1,61,61,61,1,61
1,61,61,61,61,1,61,61,61,1,61,61,61,1,1,1,61,1,61,1,61,1,61,61,61,61,61,1,1,1,61,1,61,61,61,61,61,61,61,61,61,61,1,1,1,1,61,1,1,61,61,61,61,61,61,1,61,1,61,61,61,61,61,61,61,61,1,61,61,1,1,61,1,61,61,1,61,1,1,1,1,61,61,1,61,61,1,1,61,1,61,1,61,61,61,61,61,1,61,61,61,61,1,61,1,1,1,61,61,61,61,61,61,1,61,1,61,61,61,61,61,61,61,61,61,61
61,61,61,61,61,61,61,61,1,61,1,61,61,61,61,61,1,1,61,61,61,1,61,61,61,1,61,61,61,61,61,1,1,61,61,61,1,61,61,61,61,61,61,61,61,61,1,61,61,61,61,61,1,61,61,1,61,1,61,1,61,61,61,61,61,61,1,61,61,1,61,1,1,61,1,1,61,61,61,61,61,61,1,61,61,61,61,61,61,1,61,61,1,1,61,61,1,1,61,61,61,61,1,61,61,61,61,1,1,1,61,1,1,61,61,61,61,61,1,1,1,1,1,61,1,61
61,61,1,61,61,1,61,61,1,61,61,61,61,61,61,1,61,1,61,1,61,61,1,61,61,61,61,1,61,1,61,61,1,61,61,61,61,1,61,61,1,61,61,1,61,61,61,61,61,61,61,1,61,61,61,1,61,61,61,61,61,61,1,61,61,61,61,61,61,1,1,61,61,61,1,61,61,61,61,1,61,61,61,61,61,1,61,61,61,61,61,61,1,61,1,61,61,61,61,1,1,1,1,61,61,1,61,61,1,61,61,1,1,1,61,61,61,61,61,61,1,61,61,61,1,1
61,1,61,61,1,61,61,1,61,61,61,1,1,61,1,61,61,1,61,61,61,61,61,1,1,61,61,61,61,1,61,61,1,61,61,1,61,61,1,61,1,61,61,61,61,1,1,61,61,1,61,61,61,61,1,61,61,61,1,61,1,61,61,1,61,61,61,61,61,61,61,61,61,61,1,61,1,1,61,1,1,61,61,61,61,61,1,1,61,1,61,1,1,61,1,61,61,61,1,61,61,61,61,61,61,61,61,61,61,1,61,61,1,1,1,61,61,1,61,61,61,61,61,61,61,61
61,61,61,61,61,61,1,61,61,61,61,61,61,61,61,61,1,1,61,61,61,1,61,1,61,61,61,61,61,1,61,61,61,61,1,61,61,61,61,61,61,61,61,61,1,1,61,61,61,61,61,61,61,1,61,61,1,61,1,61,61,61,61,1,61,61,1,61,61,61,1,61,1,61,61,61,1,61,61,61,1,61,61,61,1,61,1,61,61,61,1,61,1,61,61,61,1,61,61,61,61,61,61,61,61,61,61,61,61,61,61,61,61,61,1,1,61,61,1,61,1,61,61,61,61,61
1,61,61,61,61,61,61,1,61,61,61,61,61,61,61,1,61,1,61,61,1,1,1,61,61,61,61,61,1,61,61,61,1,61,1,61,61,61,61,1,61,61,61,61,1,61,61,61,61,1,1,61,61,1,1,61,1,61,1,61,61,61,61,61,1,1,61,61,61,61,61,61,1,61,61,61,61,1,61,61,1,61,61,61,61,1,61,61,1,61,61,1,1,61,1,61,61,61,61,61,61,61,61,61,61,61,61,1,1,61,1,1,61,61,61,61,1,1,61,61,61,61,1,61,61,61
1,61,61,61,61,61,61,61,61,61,61,1,1,61,1,61,1,1,1,61,61,61,61,61,61,61,1,61,61,1,1,61,1,61,61,61,1,1,61,61,1,61,1,1,61,1,61,61,1,61,61,61,1,1,1,61,61,61,61,61,61,61,61,61,1,61,1,61,61,1,61,61,1,1,61,61,61,1,61,61,1,61,61,61,61,61,61,61,61,61,61,61,61,61,61,1,1,1,61,1,61,61,61,61,61,61,61,61,61,61,61,1,61,1,61,61,61,1,61,61,61,1,61,61,61,61
61,61,61,61,61,61,1,61,61,1,1,1,61,1,61,61,61,61,61,61,1,61,61,61,1,1,61,61,61,61,61,61,61,61,61,61,61,61,61,61,61,61,61,61,61,61,61,61,61,61,1,61,1,61,1,1,1,1,1,1,61,61,1,1,61,61,61,61,61,61,61,61,61,61,61,61,61,61,1,61,1,61,61,61,1,1,61,61,61,61,1,1,61,61,61,1,1,1,61,1,61,61,61,61,1,61,61,1,61,61,61,61,1,61,61,61,1,1,61,1,61,1,61,1,1,61
61,1,61,61,61,1,61,1,1,61,1,1,1,61,1,1,1,1,61,1,61,61,61,61,61,1,61,61,1,61,1,61,61,61,61,61,61,61,1,61,1,61,1,61,61,61,61,61,1,61,1,61,61,61,1,1,61,61,61,61,1,61,1,61,61,1,61,61,1,1,1,61,61,61,61,61,61,61,1,61,61,61,1,61,1,1,61,61,61,1,1,1,1,61,1,61,1,1,61,1,61,61,1,61,61,1,1,61,61,61,1,1,61,61,61,61,61,1,61,1,61,61,1,61,61,61
61,61,61,1,61,61,1,61,61,61,61,61,61,61,61,61,61,61,1,61,61,61,61,61,1,61,1,1,61,61,61,1,61,61,1,61,61,1,61,61,61,61,1,61,1,61,61,1,1,61,61,61,61,61,61,61,61,61,61,1,61,61,1,61,61,61,61,61,61,61,1,61,61,1,1,1,1,61,1,61,1,61,61,61,61,61,1,1,61,61,61,1,1,1,1,1,1,1,61,61,61,61,61,61,61,61,61,61,1,61,61,1,1,61,1,61,1,61,61,61,61,1,61,1,61,61
1,61,1,61,1,61,1,61,1,61,61,61,61,1,61,61,1,61,61,61,1,61,1,61,61,1,61,61,61,61,1,61,61,1,61,61,61,61,61,61,61,1,1,61,61,61,61,61,61,61,61,1,61,1,61,1,1,61,1,61,61,1,61,1,1,1,61,61,61,61,61,61,61,61,61,1,61,61,61,1,1,1,1,61,61,1,61,61,61,1,61,61,61,1,61,1,1,1,1,61,61,61,61,1,1,61,61,1,1,61,1,61,61,1,61,1,61,1,1,61,61,1,1,61,61,61
61,1,61,61,1,61,61,61,61,61,61,1,1,61,61,1,61,61,61,1,61,1,61,61,61,61,1,61,1,61,61,61,61,61,61,61,61,1,1,1,61,61,1,61,1,1,61,61,1,1,61,61,61,61,61,61,61,1,1,61,1,1,61,61,1,61,1,61,61,61,61,61,1,61,61,1,61,61,61,61,1,1,1,61,1,61,1,61,1,61,61,1,61,61,61,1,61,1,61,1,1,1,61,61,61,61,61,61,61,61,61,61,61,61,61,61,61,1,61,61,61,61,61,61,61,61
61,1,1,61,61,61,61,61,61,61,61,61,61,1,1,61,61,61,61,1,61,61,61,1,61,61,61,61,61,1,61,61,1,61,61,61,61,61,61,1,1,1,1,1,1,61,1,61,61,1,1,61,61,61,61,61,1,61,61,61,61,61,1,61,61,61,1,1,61,1,61,61,61,61,61,1,1,61,1,61,61,61,61,61,61,61,1,1,61,61,1,61,61,61,1,61,1,61,61,61,61,61,61,1,61,61,1,61,1,1,61,61,61,1,1,1,61,61,1,61,61,61,61,61,61,61
1,1,1,61,61,1,61,1,1,61,61,61,1,61,61,61,61,61,61,1,61,61,61,61,61,61,61,1,61,61,61,61,1,1,61,61,1,61,1,61,61,61,61,1,61,61,1,61,61,61,61,1,61,1,1,61,1,61,1,61,61,61,61,61,61,1,61,61,1,61,1,61,1,61,61,61,1,61,61,61,61,1,61,61,61,61,61,61,1,1,61,1,1,61,61,61,1,61,61,61,1,1,1,61,61,61,61,1,1,61,61,1,61,61,61,61,61,61,61,61,61,61,61,61,61,61
1,61,1,1,61,1,1,61,1,61,61,61,1,1,1,61,61,1,1,61,61,61,61,61,61,1,1,61,61,1,61,61,1,1,61,1,61,1,61,61,61,61,1,61,1,1,61,61,61,1,1,61,61,61,61,61,61,61,61,61,1,61,61,61,61,1,61,61,61,61,61,61,61,1,1,61,61,61,61,61,61,61,61,61,1,61,61,1,61,61,61,61,61,61,61,1,61,61,61,1,1,1,61,1,61,61,1,1,61,61,1,1,61,61,1,61,61,61,1,61,61,61,61,1,61,61
1,1,61,61,61,61,1,1,61,61,61,1,1,1,61,61,61,61,61,61,61,61,61,1,1,1,61,1,61,1,1,61,61,61,61,61,1,61,61,61,61,61,1,61,61,61,61,1,61,1,61,61,1,61,61,1,61,1,1,61,61,1,61,61,1,1,61,61,61,61,61,61,1,61,61,61,61,61,61,61,1,1,61,61,1,61,61,61,61,1,61,61,61,61,61,1,61,61,61,61,61,61,1,1,61,61,61,61,61,61,1,61,1,61,61,1,1,61,1,1,61,61,61,61,1,61
61,61,61,61,1,61,61,61,61,61,61,61,61,61,61,61,61,1,61,61,61,61,61,61,61,61,61,1,61,61,61,61,1,61,61,1,61,61,1,1,1,61,61,61,61,1,61,61,61,61,61,1,61,61,61,61,1,1,61,61,1,61,61,61,1,61,61,61,1,61,1,61,61,61,1,61,61,1,1,1,61,61,1,61,61,61,1,1,61,61,61,1,1,61,61,61,1,61,1,61,61,61,61,61,61,61,61,1,61,61,61,61,61,61,61,61,1,61,1,1,61,61,61,61,61,1
61,1,61,61,61,61,1,61,61,1,61,1,61,61,1,1,61,61,61,61,61,1,61,61,61,1,1,61,61,61,1,61,1,61,61,1,61,61,61,1,61,61,61,61,1,61,61,61,61,61,61,61,61,1,1,61,1,1,61,61,61,61,1,1,61,61,1,1,1,61,61,61,61,61,61,61,61,61,61,61,1,61,61,61,1,61,61,61,61,61,61,61,61,61,61,61,61,61,61,61,61,61,1,61,61,1,61,61,61,1,61,61,1,61,61,61,61,61,61,61,61,61,61,1,61,1
1,61,61,1,61,1,1,61,61,61,61,61,61,61,1,61,1,1,1,61,61,61,61,1,61,61,1,61,1,61,61,61,61,61,1,61,61,61,61,1,61,61,1,61,61,61,61,1,1,1,61,1,61,61,61,61,1,61,61,1,61,1,61,61,61,61,61,61,1,1,61,61,61,61,1,1,61,61,1,61,61,1,61,1,61,61,61,61,61,61,1,61,61,1,1,61,61,1,61,61,61,61,1,61,1,1,1,61,61,61,61,1,61,61,1,61,61,1,61,61,61,61,61,61,1,1
61,61,61,61,61,1,61,1,61,61,61,61,61,61,1,61,61,1,61,1,1,61,61,61,61,61,61,61,61,61,61,61,61,61,1,61,61,1,1,61,61,61,61,61,61,61,1,61,1,1,61,61,1,61,61,61,1,61,61,61,61,61,61,61,61,1,61,1,61,61,61,61,61,61,61,61,61,61,61,61,61,61,61,61,61,1,61,61,61,61,61,61,1,61,61,61,61,61,1,61,61,1,61,61,61,61,1,1,1,1,1,61,1,61,61,61,61,1,61,61,61,61,61,61,61,61
61,61,1,1,1,61,61,1,61,61,61,61,1,61,61,61,61,61,61,61,61,61,1,61,61,61,61,61,1,61,1,61,61,61,1,61,61,61,61,61,61,61,61,61,1,61,1,61,61,61,1,61,61,61,61,61,1,61,1,61,61,61,61,61,61,1,1,61,1,61,61,61,1,61,61,1,61,61,61,61,1,61,61,61,61,61,61,61,61,1,61,61,1,1,61,61,61,61,61,61,61,61,1,61,61,61,61,61,1,1,1,61,61,1,61,61,61,61,1,61,61,61,1,61,1,61
61,1,61,1,61,61,61,61,61,61,61,61,61,1,61,61,61,61,61,61,61,1,1,61,1,61,1,61,61,61,61,61,61,1,61,61,61,1,61,61,61,1,1,1,1,61,61,1,61,61,1,61,61,61,1,61,61,61,61,61,61,1,61,61,1,61,1,1,61,61,1,1,61,61,61,61,1,1,61,1,61,61,61,1,61,61,61,61,61,61,1,61,61,61,1,1,1,61,61,61,1,61,61,61,1,61,61,1,61,61,61,61,61,61,1,61,1,1,1,1,61,1,1,61,61,61
61,1,61,1,1,61,1,61,61,1,61,61,1,61,1,1,1,61,61,61,1,1,61,1,1,61,61,61,1,61,61,61,61,61,61,61,1,61,1,61,61,61,1,61,61,61,1,61,1,61,61,61,1,61,61,61,61,61,61,1,61,61,1,61,61,61,1,61,1,61,1,1,1,1,61,61,1,61,1,1,61,61,61,61,61,61,1,61,61,1,1,61,61,61,61,61,1,1,61,61,61,1,61,1,1,61,1,1,61,1,61,1,61,1,61,61,1,61,1,61,1,1,1,1,61,1
61,61,61,61,61,61,61,61,61,61,61,61,61,61,61,1,61,1,61,61,61,61,61,61,61,61,61,61,1,61,61,61,61,1,61,61,1,61,61,61,1,1,61,1,1,61,1,61,61,61,61,1,61,61,61,1,1,61,1,61,61,61,1,1,61,61,61,61,1,61,61,61,61,61,61,61,61,61,1,61,1,61,1,61,61,61,61,1,1,1,61,61,1,61,61,61,1,1,61,61,61,61,61,1,61,61,61,61,1,61,1,1,61,61,61,1,61,1,1,61,61,1,61,61,61,61
61,61,1,61,61,61,61,1,61,1,61,61,61,61,61,61,61,61,61,1,1,1,1,1,1,1,1,61,61,1,1,61,61,1,61,61,1,1,61,1,61,61,61,61,61,61,61,1,61,61,1,61,61,61,61,61,61,61,61,61,61,61,61,1,1,61,61,61,61,1,61,61,1,61,1,61,61,61,1,61,61,1,61,1,61,1,61,61,61,61,61,61,61,61,1,61,1,61,61,61,1,61,1,61,61,61,1,61,61,61,1,1,1,61,1,61,61,61,1,61,1,1,61,61,1,61
61,61,1,1,1,61,61,1,1,1,1,61,61,1,61,61,1,1,61,61,61,1,1,61,1,61,1,61,1,61,1,61,61,61,61,61,61,61,61,61,1,61,1,61,61,1,61,61,1,61,1,61,1,61,61,61,1,61,1,61,61,1,61,61,61,61,61,61,1,1,61,61,61,61,61,61,61,1,1,61,1,61,61,61,61,61,61,61,61,61,61,1,1,61,61,61,1,61,61,1,61,1,61,61,61,1,61,61,1,61,61,1,1,1,61,61,61,1,1,1,1,1,61,61,1,61
61,61,61,1,61,61,1,61,61,61,61,1,61,61,1,61,1,1,61,61,1,1,1,61,1,61,61,61,61,61,61,1,61,61,1,61,61,61,61,61,61,1,61,61,61,61,61,61,61,61,61,61,61,61,61,1,61,61,1,61,61,61,1,61,61,61,61,61,61,61,1,61,61,61,61,61,1,61,1,61,61,61,61,61,61,61,1,61,61,1,61,61,61,61,1,1,1,61,61,61,61,61,61,61,1,61,61,1,1,61,1,61,1,1,61,61,61,1,1,61,61,1,1,61,61,1
61,1,1,61,61,61,61,61,61,1,61,1,61,1,61,1,61,1,1,1,1,61,1,61,61,61,1,61,61,1,61,61,61,61,61,1,1,61,61,1,61,1,61,61,1,1,1,61,61,61,1,1,1,1,61,1,61,61,61,61,61,1,61,1,61,61,61,61,1,1,1,61,61,61,1,61,61,61,61,61,61,61,1,61,61,61,61,61,1,1,61,61,1,61,1,61,1,1,61,61,61,61,61,1,61,1,61,1,61,61,61,61,61,1,61,61,1,1,61,1,61,61,1,1,61,61
1,61,61,61,61,1,61,61,1,1,61,61,61,1,61,1,61,61,61,1,61,61,61,61,1,61,1,61,61,1,1,61,61,61,1,1,61,1,61,61,1,1,61,1,61,61,1,1,61,61,61,1,61,61,1,61,61,61,1,61,61,61,1,1,61,61,1,61,61,61,1,61,1,61,1,61,61,61,1,1,61,61,61,61,1,1,61,1,61,1,61,61,61,61,1,61,61,61,1,61,61,61,61,61,61,61,1,1,1,61,61,61,61,61,1,61,61,61,1,61,1,1,1,61,61,1
61,1,61,61,1,61,61,61,1,61,61,1,1,61,61,61,61,61,61,1,61,61,61,61,61,1,1,1,1,61,61,61,61,1,61,61,61,1,61,61,61,1,1,61,1,61,61,1,61,61,1,61,61,61,61,61,1,61,61,61,61,61,1,61,61,61,61,1,61,1,1,61,61,1,61,1,61,61,61,61,1,61,1,61,61,61,61,61,61,61,1,1,1,61,61,1,61,61,61,61,61,61,61,61,61,61,1,61,61,61,61,61,61,61,61,1,61,61,61,61,61,61,61,61,61,1
1,1,1,61,61,61,61,61,1,1,1,61,61,61,61,61,61,61,61,61,61,61,1,61,61,1,61,1,61,61,61,61,61,61,61,61,61,61,1,61,1,1,1,61,61,61,1,1,1,61,61,1,61,61,1,61,61,1,61,61,61,61,61,61,61,61,1,61,61,61,61,1,1,1,1,61,61,1,61,61,1,1,61,61,1,61,61,1,61,61,61,61,61,61,1,61,1,1,61,61,61,61,61,61,61,61,1,61,61,61,1,61,1,61,61,61,1,61,61,61,61,1,61,61,61,61
61,61,1,61,61,1,61,61,1,1,61,1,1,61,1,61,61,61,61,61,61,1,1,61,61,1,1,61,61,61,1,61,1,61,1,61,1,61,61,61,61,1,61,61,61,1,1,61,61,61,1,61,61,61,61,61,1,1,61,1,61,1,61,61,61,61,61,1,61,61,61,61,61,1,1,61,61,1,61,61,1,61,1,61,1,1,1,61,1,61,1,61,61,61,61,1,1,1,61,61,61,1,61,61,61,61,1,61,61,61,61,1,61,61,61,61,61,61,61,61,1,1,61,61,61,61
61,61,61,61,61,61,1,61,61,61,61,61,61,61,61,61,61,61,1,61,61,61,1,1,1,1,61,1,1,1,61,1,61,1,61,61,61,1,1,61,61,61,61,61,1,61,1,1,61,1,61,61,61,61,61,61,61,61,1,1,61,1,61,1,1,61,61,1,61,61,61,61,61,61,61,1,61,1,61,1,61,61,61,61,1,61,61,61,1,1,61,1,61,61,61,1,61,61,61,1,61,1,61,61,61,61,61,61,61,1,1,61,1,1,61,61,61,61,1,61,1,61,61,61,61,1
1,61,61,1,61,1,61,61,61,61,61,61,61,61,61,61,1,61,61,1,1,61,1,1,61,61,61,61,61,61,61,1,61,61,61,61,1,1,61,61,1,61,61,61,61,1,1,61,61,1,61,61,61,61,61,61,61,61,61,61,61,1,1,61,1,61,1,61,61,1,61,1,61,1,61,61,61,1,1,61,1,61,61,61,1,1,1,61,61,1,1,1,1,61,61,1,1,61,61,61,61,61,61,1,61,61,61,61,61,61,1,61,1,1,1,61,61,61,61,61,61,1,61,61,1,61
61,61,1,61,61,61,61,61,61,1,1,61,1,61,1,61,61,61,61,1,1,1,61,1,1,1,61,1,1,61,61,1,61,61,1,61,61,61,61,1,61,61,1,1,61,61,1,61,61,61,61,1,61,61,61,61,1,1,61,61,61,61,61,61,61,1,61,1,61,61,61,61,61,61,61,61,1,61,1,61,1,1,61,61,61,61,1,61,1,61,1,61,61,1,61,61,61,61,61,61,1,61,61,1,61,61,1,1,61,61,61,61,1,61,61,1,61,61,61,1,61,61,61,61,1,61
1,61,1,1,61,61,1,61,61,1,1,61,61,1,61,61,61,1,61,61,61,61,61,1,61,61,61,1,61,1,61,61,61,61,1,61,61,1,61,61,61,61,61,61,61,61,61,61,1,1,61,1,1,61,1,61,1,61,1,61,61,61,61,61,1,1,61,1,61,61,61,61,1,61,61,1,1,61,61,61,61,61,1,61,1,61,1,1,1,1,61,61,61,61,61,1,61,1,61,1,61,61,61,1,61,61,61,1,61,61,61,1,61,61,1,1,61,1,61,1,61,61,1,61,61,61
1,61,61,1,61,61,1,1,1,61,61,61,61,61,61,1,61,61,61,61,61,1,1,61,1,61,61,61,61,1,61,61,61,61,61,61,61,61,61,61,1,61,1,61,1,61,61,1,1,61,1,61,1,61,61,61,1,1,61,61,1,61,61,61,1,1,61,1,61,61,1,61,61,1,61,61,1,61,61,61,61,61,61,1,61,61,61,61,1,61,61,61,61,1,61,61,61,1,1,61,61,61,61,61,61,1,61,61,61,1,61,1,1,61,61,61,61,61,61,61,1,61,61,61,61,61
1,61,1,61,61,1,61,1,61,1,61,1,61,61,61,1,61,1,61,61,61,61,61,61,61,1,1,61,61,1,61,1,61,61,61,61,61,61,1,61,61,61,1,61,1,61,61,61,61,61,1,1,61,61,1,61,1,61,61,1,1,61,1,61,1,1,61,61,61,61,61,1,61,1,1,1,61,1,61,1,61,61,61,61,1,61,61,61,1,61,61,1,1,61,1,1,61,61,61,61,61,61,61,61,1,1,61,61,61,61,61,61,1,61,61,1,1,61,1,1,61,61,61,61,1,61
1,61,61,1,1,1,1,61,61,61,61,1,61,1,1,61,61,61,1,1,61,61,61,1,1,61,1,1,61,61,1,61,61,1,1,61,61,61,61,61,61,1,1,1,1,1,1,61,61,1,61,61,1,1,61,61,61,61,1,61,61,1,1,61,61,61,61,61,1,1,61,61,61,61,61,61,1,1,61,61,1,61,61,1,1,61,61,61,61,61,1,61,61,61,61,61,61,61,1,1,61,61,1,61,61,61,61,61,61,61,61,61,1,61,1,61,61,1,61,1,61,61,61,61,61,61
61,61,61,61,61,61,61,61,61,61,61,61,61,61,61,61,61,61,61,61,61,1,1,61,61,1,61,61,61,1,61,61,61,61,1,61,61,61,61,61,1,1,61,1,61,61,61,61,61,1,1,61,61,61,61,61,1,61,1,1,61,61,61,61,61,61,61,61,61,61,1,61,1,1,61,1,1,61,61,61,1,61,1,1,1,1,1,61,61,61,1,61,61,61,61,1,61,61,61,1,1,61,61,1,61,1,61,61,61,1,1,61,61,61,1,61,1,61,61,61,61,1,1,61,61,61
1,61,1,1,1,1,61,1,1,1,1,61,1,61,61,61,61,1,61,61,1,61,61,61,61,61,61,1,1,1,1,1,61,61,61,61,61,61,61,61,61,61,61,61,1,61,1,61,1,1,61,1,1,61,61,1,61,61,61,1,61,61,61,1,1,61,61,61,61,61,61,1,61,61,61,61,61,1,1,61,61,61,61,1,61,61,61,61,61,61,61,1,61,61,61,61,1,1,1,61,61,61,1,1,1,1,61,61,61,61,61,61,1,1,61,1,1,61,61,61,1,61,61,61,61,61
1,61,61,61,1,1,61,1,61,61,1,1,61,61,61,61,61,1,61,61,61,61,61,1,61,1,61,1,61,61,61,61,1,61,1,61,61,61,61,1,61,61,61,61,1,61,61,61,61,61,61,61,1,61,61,61,1,61,61,61,1,61,61,1,61,61,1,61,1,1,61,61,1,61,61,61,61,61,1,61,61,1,61,61,1,1,61,61,1,61,61,1,61,1,61,61,61,61,1,1,61,61,61,61,1,1,61,61,61,61,1,61,61,1,1,1,1,1,61,61,61,61,61,1,61,61
61,61,61,61,61,1,61,61,1,1,1,61,61,61,1,1,61,61,1,61,61,61,61,61,1,61,1,1,61,61,1,1,61,1,61,1,61,1,61,1,61,61,61,61,61,61,1,1,61,61,61,1,61,61,61,1,1,61,61,61,61,1,61,1,61,61,1,61,1,61,61,61,1,1,61,61,1,61,61,1,61,61,1,61,61,61,61,1,61,61,61,61,61,1,61,61,61,1,61,61,61,61,1,61,1,61,61,61,61,61,61,61,1,1,61,1,61,61,61,61,1,61,61,61,61,61
1,61,61,61,1,61,61,61,61,61,61,1,1,1,1,61,1,61,61,61,61,61,1,61,61,61,61,61,1,61,1,61,61,1,61,1,1,1,61,1,1,1,1,1,1,61,61,61,1,1,61,61,61,1,61,1,1,61,61,1,1,61,61,61,61,61,61,61,61,61,1,61,1,61,1,61,1,61,61,61,1,1,61,61,61,61,61,1,1,61,61,1,61,1,61,61,61,61,1,61,61,61,61,1,61,61,1,1,61,1,61,61,61,61,1,61,61,61,61,61,61,61,61,1,1,1
  </data>
 </layer>
 <objectgroup id="1" name="features">
  <object id="1" name="void_gate" x="900" y="1100" width="220" height="180">
   <properties>
    <property name="kind" value="gate"/>
    <property name="label" value="Void Gate"/>
   </properties>
  </object>
  <object id="2" name="memory_lane" x="240" y="520" width="260" height="420">
   <properties>
    <property name="kind" value="cliff"/>
    <property name="label" value="Memory Lane"/>
   </properties>
  </object>
  <object id="3" name="throne_of_origin" x="1490" y="360" width="300" height="520">
   <properties>
    <property name="kind" value="gate"/>
    <property name="label" value="Throne of Origin"/>
   </properties>
  </object>
  <object id="30" name="gauntlet_arch" x="1060" y="700" width="120" height="84">
   <properties>
    <property name="kind" value="gate"/>
    <property name="label" value="Gauntlet of Trials"/>
   </properties>
  </object>
 </objectgroup>
 <objectgroup id="2" name="collisions">
  <object id="4" x="0" y="0" width="2016" height="70"/>
  <object id="5" x="0" y="1370" width="2016" height="70"/>
  <object id="6" x="0" y="0" width="70" height="1440"/>
  <object id="7" x="1946" y="0" width="70" height="1440"/>
  <object id="8" x="900" y="1100" width="220" height="180"/>
  <object id="9" x="240" y="520" width="260" height="420"/>
  <object id="10" x="1490" y="360" width="300" height="520"/>
  <object id="31" x="1060" y="700" width="120" height="84"/>
 </objectgroup>
 <objectgroup id="3" name="spawn_points">
  <object id="11" name="from_rift" type="player" x="1008" y="1328">
   <properties>
    <property name="spawnId" value="from_rift"/>
   </properties>
  </object>
  <object id="28" name="from_sanctum" type="player" x="1642" y="300">
   <properties>
    <property name="spawnId" value="from_sanctum"/>
   </properties>
  </object>
  <object id="32" name="from_dungeon" type="player" x="420" y="300">
   <properties>
    <property name="spawnId" value="from_dungeon"/>
   </properties>
  </object>
  <object id="12" name="enemy_1" type="enemy" x="760" y="980"/>
  <object id="13" name="enemy_2" type="enemy" x="1160" y="780"/>
  <object id="14" name="enemy_3" type="enemy" x="1360" y="620"/>
  <object id="15" name="enemy_4" type="enemy" x="1700" y="420"/>
 </objectgroup>
 <objectgroup id="4" name="doors">
  <object id="16" name="abyssal_rift_return" x="972" y="1180" width="80" height="80">
   <properties>
    <property name="label" value="Abyssal Rift"/>
    <property name="targetZone" value="abyssal_rift"/>
    <property name="targetSpawn" value="from_sanctum"/>
   </properties>
  </object>
  <object id="27" name="clockwork_sanctum_return" x="1560" y="360" width="80" height="80">
   <properties>
    <property name="label" value="Clockwork Sanctum"/>
    <property name="targetZone" value="clockwork_sanctum"/>
    <property name="targetSpawn" value="from_rift"/>
   </properties>
  </object>
  <object id="33" name="infinite_dungeon_gate" x="420" y="320" width="80" height="80">
   <properties>
    <property name="label" value="The Beyond"/>
    <property name="targetZone" value="infinite_dungeon"/>
    <property name="targetSpawn" value="from_void"/>
    <property name="lockMessage" value="A rupture beyond the throne spirals into an endless proving ground."/>
   </properties>
  </object>
 </objectgroup>
 <objectgroup id="5" name="npcs">
  <object id="17" name="watcher" x="620" y="980">
   <properties>
    <property name="npcId" value="the_watcher"/>
    <property name="displayName" value="The Watcher"/>
   </properties>
  </object>
 </objectgroup>
 <objectgroup id="6" name="chests">
  <object id="18" name="origin_cache" x="1540" y="360">
   <properties>
    <property name="gold" value="180"/>
    <property name="potions" value="2"/>
    <property name="recruitEventId" value="striker_mk3_join"/>
    <property name="message" value="At the edge of the Throne of Origin, a sealed cache hums around a fully armed striker frame."/>
   </properties>
  </object>
 </objectgroup>
</map>
