<?xml version="1.0" encoding="UTF-8"?>
<map version="1.10" tiledversion="1.12.1" orientation="orthogonal" renderorder="right-down" width="120" height="84" tilewidth="16" tileheight="16" infinite="0" nextlayerid="8" nextobjectid="31">
 <properties>
  <property name="groundStyle" value="meadow"/>
 </properties>
 <tileset firstgid="1" source="tileset.tsx"/>
 <tileset firstgid="91" source="objects.tsx"/>
 <layer id="7" name="ground" width="120" height="84">
  <data encoding="csv">
1,61,61,51,51,61,61,61,61,61,61,1,61,51,61,61,21,61,51,61,61,61,61,1,61,61,51,61,51,61,61,21,61,61,51,21,21,1,61,21,61,1,61,61,61,61,21,61,21,61,21,51,1,61,61,61,61,61,61,61,61,1,51,61,51,21,1,1,21,61,1,1,61,61,51,1,61,61,61,61,61,1,1,51,61,61,61,61,51,61,21,21,1,1,1,61,1,61,1,61,51,21,1,61,61,61,61,21,21,61,61,61,1,1,61,61,61,61,51,61
1,21,61,21,61,61,61,61,1,61,61,61,1,61,61,21,61,61,61,61,51,61,21,1,21,61,61,51,61,51,61,61,61,61,61,61,61,61,61,61,61,51,61,61,1,51,61,61,61,61,61,61,61,61,21,61,21,1,61,1,21,51,61,61,61,61,51,61,61,61,61,1,61,51,61,61,51,61,61,61,61,21,51,61,61,61,61,61,61,1,61,61,61,21,21,61,61,61,61,61,21,61,61,61,61,61,61,61,1,21,21,61,61,61,61,61,61,61,51,61
61,61,61,51,61,21,21,51,21,51,1,61,61,61,61,61,21,61,61,51,61,61,61,61,51,21,61,1,61,61,1,61,61,61,61,1,61,61,61,51,61,61,1,61,1,61,1,61,51,21,21,61,61,61,61,21,1,1,61,61,51,61,61,61,51,61,21,61,61,1,61,61,61,1,61,61,21,51,61,51,51,21,61,1,61,61,61,61,61,61,61,1,61,21,61,61,61,61,21,61,61,61,61,21,21,61,61,61,61,61,51,1,21,51,61,61,51,21,61,51
51,1,61,21,21,21,61,61,61,61,61,51,61,51,61,61,51,61,61,1,61,61,61,61,61,61,51,1,61,61,61,61,21,61,61,21,21,61,61,61,1,61,21,61,61,1,61,61,1,61,61,1,61,21,61,61,21,61,61,51,61,61,51,61,51,1,61,61,61,61,61,1,61,1,51,61,51,51,61,61,61,61,61,61,61,1,61,51,61,61,61,21,61,61,61,61,61,1,61,51,61,61,51,61,21,61,61,61,1,61,51,61,61,61,61,61,61,21,61,61
61,61,61,21,61,61,61,61,61,61,51,61,61,61,61,61,61,61,21,61,61,61,1,61,51,61,21,61,51,21,61,51,61,61,61,61,61,61,21,21,61,61,61,61,21,61,61,61,61,21,51,21,61,61,51,21,61,61,61,61,61,61,51,21,61,61,1,61,61,61,61,61,1,61,61,61,1,21,61,61,61,61,51,61,61,21,61,1,61,61,21,61,61,61,61,61,61,61,21,61,21,21,61,21,61,51,21,1,61,61,61,61,61,61,61,61,61,61,51,61
21,61,1,51,1,21,61,21,61,61,21,61,61,51,61,61,61,21,61,61,21,61,61,61,61,61,61,61,21,61,21,61,61,61,1,61,61,51,21,21,21,1,61,61,61,61,61,1,61,61,1,61,61,51,61,51,61,51,61,61,51,21,21,61,61,61,21,61,21,61,61,61,61,1,1,61,61,51,21,61,61,61,61,61,61,61,61,1,61,1,61,21,1,61,61,21,61,61,51,61,51,61,61,61,61,1,21,21,61,61,61,61,51,61,1,61,61,51,21,21
61,1,51,61,61,51,1,61,61,51,61,51,21,51,61,21,21,61,1,61,61,61,51,61,1,61,61,21,61,61,61,61,21,21,61,21,51,51,61,1,61,61,61,61,61,61,61,1,61,21,21,21,61,21,61,1,61,1,21,61,61,61,61,21,61,61,21,1,61,21,61,1,61,1,21,61,61,61,61,61,61,1,61,61,61,61,61,1,61,61,21,61,61,61,61,61,51,61,61,1,1,61,21,61,21,61,51,61,61,61,61,61,21,61,61,61,61,61,51,61
61,51,51,61,61,21,61,61,61,61,21,61,51,51,61,61,51,21,21,61,61,61,61,61,1,21,61,61,61,61,61,1,1,51,61,61,61,21,61,61,61,61,51,61,61,61,61,61,1,1,61,61,61,1,61,61,1,61,61,61,51,61,21,21,61,21,1,61,61,21,21,21,61,61,51,61,61,61,1,1,1,61,21,21,61,61,61,61,51,61,61,61,61,61,61,61,61,61,61,61,61,51,61,61,61,61,61,1,61,61,61,61,21,1,61,61,61,61,51,61
61,61,61,61,21,21,61,61,51,61,1,61,61,21,51,61,61,21,61,61,61,61,61,1,61,61,21,21,61,61,61,61,61,61,51,1,61,61,61,61,51,1,61,51,61,51,51,51,61,61,61,21,51,61,61,61,61,61,21,61,51,51,61,61,51,61,61,61,61,21,21,51,61,61,51,21,21,61,61,61,61,51,21,1,61,1,21,61,61,61,21,51,61,61,61,61,61,61,61,61,61,61,51,61,1,61,61,61,51,61,61,61,21,51,51,21,51,61,51,51
51,61,61,61,61,51,21,61,1,61,61,61,51,61,61,61,61,61,61,61,21,1,51,61,61,61,61,1,1,21,1,51,61,61,61,61,61,1,1,51,61,61,61,21,61,61,1,61,21,1,61,61,51,61,61,61,61,1,61,61,61,51,61,21,61,51,61,51,61,61,61,61,51,61,21,61,51,61,1,61,61,61,1,61,1,61,61,61,51,61,61,61,1,51,1,61,61,61,61,61,61,61,51,21,61,61,61,61,1,61,61,61,61,61,61,61,61,61,1,1
61,61,1,51,61,61,51,51,61,1,61,61,61,61,1,61,61,61,1,21,61,51,61,61,61,61,61,1,61,21,61,61,51,1,61,61,1,61,61,51,61,61,51,61,61,61,61,51,51,21,61,1,61,21,21,61,1,1,61,51,61,61,21,61,61,61,21,61,51,61,61,61,61,21,61,61,61,61,61,61,21,61,61,1,1,51,61,51,61,61,61,51,61,21,61,61,21,61,61,21,61,21,61,61,21,61,21,61,61,61,61,61,61,61,61,21,1,61,1,1
61,61,1,21,61,21,61,1,61,51,21,1,61,21,51,1,61,61,61,61,61,1,51,61,1,1,61,61,61,51,61,61,61,21,61,61,61,1,1,21,61,61,61,61,61,61,61,61,51,61,21,61,61,61,61,51,1,61,61,61,61,61,61,21,51,21,1,21,61,61,61,61,61,1,61,61,51,21,61,61,61,1,61,61,61,61,1,51,1,61,51,21,1,61,61,61,51,1,61,61,61,61,61,61,51,1,61,51,21,61,1,61,1,51,51,61,61,21,61,61
1,61,61,51,1,61,61,51,1,61,61,1,61,51,21,61,61,51,21,51,61,1,1,61,1,21,61,51,61,21,1,61,51,61,61,61,51,1,61,21,61,21,51,1,61,61,61,61,61,61,61,51,21,21,61,61,51,51,61,1,61,21,61,61,61,21,61,61,51,51,61,61,61,51,21,61,61,21,61,21,61,61,1,1,61,61,51,1,21,61,61,61,51,1,61,51,61,61,21,61,61,1,61,61,21,61,61,61,61,61,51,1,21,1,51,61,61,51,61,61
61,61,1,61,61,61,61,61,61,61,61,61,61,1,21,21,61,61,1,21,61,21,51,61,61,1,51,51,61,61,61,51,61,61,1,51,61,1,61,61,21,61,61,51,61,61,61,21,61,61,61,61,61,61,61,61,61,21,61,61,61,61,21,61,1,61,61,61,61,61,61,61,61,1,61,51,61,61,51,21,61,61,61,1,1,61,61,51,61,61,51,61,61,61,61,61,61,21,51,61,61,61,61,61,61,61,61,21,61,51,61,1,61,21,61,21,21,61,61,61
61,21,61,61,61,61,21,61,61,61,61,61,61,51,51,61,61,51,21,51,51,61,61,61,61,21,61,61,51,61,21,1,61,61,61,61,21,61,61,21,1,61,21,61,61,61,21,61,61,61,61,61,61,61,61,1,61,61,61,61,51,51,61,61,61,61,61,61,61,61,1,61,61,1,61,51,1,61,61,61,21,61,61,61,21,61,61,61,21,61,61,61,61,61,21,21,61,61,61,51,1,1,61,61,61,61,61,51,61,51,61,61,61,61,61,61,1,51,21,1
61,1,61,51,1,51,1,61,51,51,61,61,61,21,61,61,61,61,61,61,21,61,51,61,51,61,61,61,61,1,61,61,61,1,51,61,1,61,61,61,21,61,61,61,61,61,61,21,61,61,61,61,1,61,61,61,61,61,61,1,61,61,51,61,61,51,61,61,61,51,1,61,1,61,61,61,51,51,21,51,21,51,61,61,61,1,61,61,61,61,61,61,1,61,61,1,61,1,61,61,61,61,1,61,61,51,51,61,61,61,61,61,1,21,61,61,61,61,61,61
61,61,61,1,1,61,21,21,61,61,61,51,51,61,61,61,61,1,61,61,21,61,51,21,61,61,61,61,1,61,61,61,21,51,51,21,61,61,21,61,51,61,1,61,61,61,21,61,61,61,61,51,61,21,51,61,21,1,61,61,61,61,61,61,61,61,61,61,1,61,61,1,21,61,51,21,61,61,51,61,51,61,61,61,61,61,21,61,61,21,61,21,61,61,21,61,61,61,1,61,61,61,21,51,1,21,61,61,61,1,61,61,61,61,1,61,61,61,61,61
1,61,61,51,1,61,61,61,21,61,51,61,61,61,51,61,61,61,1,61,61,61,61,61,61,1,1,61,61,61,61,61,1,61,61,61,61,61,61,61,61,51,61,21,61,21,21,61,61,21,61,61,61,61,1,21,61,61,61,1,61,61,1,61,61,61,61,61,61,61,61,51,61,21,61,21,61,21,61,61,21,21,61,61,61,61,61,61,61,61,21,61,61,1,61,61,21,61,61,51,61,61,51,1,21,51,61,61,1,21,1,1,61,1,61,1,61,21,61,1
61,61,51,61,21,1,51,21,1,1,61,61,61,1,1,61,61,51,61,61,61,1,51,61,61,1,61,51,61,61,61,1,51,61,21,61,61,61,61,61,61,61,51,51,51,61,61,1,1,61,61,51,1,1,61,61,61,21,61,61,61,61,21,61,61,61,51,61,21,51,61,61,61,61,61,1,61,21,61,61,61,61,61,61,61,61,61,21,61,61,61,1,61,51,61,61,61,1,61,51,1,61,1,61,1,21,51,1,61,61,61,21,1,61,61,61,51,61,61,61
61,61,51,61,1,21,61,21,61,51,61,61,51,21,51,61,61,61,61,61,61,61,51,61,61,61,21,61,61,61,51,61,61,1,61,61,61,51,1,61,1,61,21,61,21,1,61,1,61,61,61,61,61,61,61,61,61,61,1,51,21,61,61,61,61,61,51,61,1,61,61,1,21,21,61,1,51,1,61,61,21,61,51,61,1,61,61,61,61,61,51,21,61,61,61,61,61,61,61,61,61,61,51,51,1,61,61,61,1,51,61,61,21,61,61,61,51,21,61,61
61,61,61,61,21,51,61,1,1,1,61,61,21,61,61,61,1,61,61,61,51,61,61,61,61,61,61,61,61,61,61,61,61,61,51,51,21,61,61,1,61,61,51,61,61,61,61,61,21,61,61,61,21,51,61,61,61,21,51,61,61,61,1,1,21,61,1,61,61,51,21,1,61,61,61,61,61,61,51,51,51,51,61,61,61,61,61,61,21,61,61,61,61,61,21,61,61,21,61,51,51,61,21,61,61,61,61,61,61,61,61,61,1,61,61,61,61,1,51,1
61,61,61,21,61,61,61,61,61,61,61,61,61,21,61,61,61,61,61,61,61,21,21,61,61,61,61,61,61,1,61,61,1,61,61,61,51,61,21,61,61,1,1,51,61,21,61,61,1,61,61,51,61,1,61,1,61,61,1,61,61,51,61,1,61,51,61,61,1,51,61,51,61,61,61,61,21,21,61,21,51,21,61,51,61,61,61,61,61,61,61,61,61,61,61,61,61,61,51,61,61,61,51,51,61,51,61,61,61,51,21,61,61,21,61,1,61,61,1,61
21,61,61,1,61,61,51,61,61,61,61,61,21,61,61,21,21,1,51,61,61,61,61,61,61,61,61,51,1,61,61,51,1,61,61,61,61,61,61,61,1,21,61,21,61,61,51,61,61,61,21,61,21,51,21,61,61,61,1,51,61,21,1,1,61,1,1,61,61,1,61,21,21,61,21,61,61,61,61,61,51,51,61,61,61,61,21,61,61,61,1,61,61,51,1,61,61,51,61,1,61,61,21,1,21,61,61,21,61,61,61,51,1,61,1,61,61,1,21,21
61,1,61,61,1,61,61,21,61,61,51,21,21,21,61,61,61,1,61,61,61,61,61,61,61,61,51,61,1,61,61,21,21,61,61,51,61,61,1,61,61,61,21,61,61,21,51,61,21,61,61,51,61,21,51,61,61,51,1,1,1,51,61,61,61,61,61,61,21,61,61,61,1,61,61,1,61,61,61,61,61,51,21,1,51,61,61,61,61,61,51,61,1,61,61,61,21,61,61,61,61,21,61,61,61,61,61,61,21,61,61,61,21,51,61,61,61,61,1,61
21,1,61,61,1,61,1,61,61,61,61,61,61,61,61,51,61,61,61,61,61,61,51,21,61,61,1,61,61,51,51,61,61,61,61,61,61,21,61,21,61,61,21,61,61,61,61,61,1,51,21,61,61,61,1,61,1,61,61,61,61,21,61,21,61,61,61,61,61,61,61,61,51,61,61,61,61,1,61,61,1,61,61,51,61,1,61,61,21,61,61,1,61,51,21,1,61,51,61,61,61,51,51,61,1,21,51,61,1,61,51,61,61,61,51,1,51,21,51,61
21,61,61,51,1,61,61,61,51,61,61,61,21,61,61,51,51,51,61,61,61,21,61,1,61,21,61,61,1,61,61,61,21,51,61,61,51,61,61,61,61,21,21,21,51,61,1,61,61,61,61,61,61,61,21,61,61,61,61,1,1,1,51,61,61,61,61,61,1,61,51,61,21,51,61,61,61,61,61,51,1,1,61,61,51,61,21,61,51,61,1,61,61,61,61,61,51,51,61,61,51,1,1,61,1,61,61,61,1,61,51,61,61,61,21,61,1,61,61,61
61,51,21,1,1,61,61,61,61,61,51,21,61,61,61,1,51,61,61,61,21,61,1,61,61,61,1,61,1,61,21,61,21,61,61,1,61,61,61,1,61,51,61,61,51,61,61,61,61,61,61,61,61,61,61,61,61,61,61,51,51,51,51,61,61,51,61,51,61,61,61,61,61,61,51,1,51,61,61,1,61,61,61,1,51,61,61,51,61,51,1,61,61,61,61,61,1,1,21,61,61,51,61,21,61,61,21,61,61,1,1,1,61,61,61,1,51,61,51,61
51,61,21,61,61,61,61,21,51,21,1,61,1,61,61,21,61,21,51,51,21,61,61,61,51,1,1,51,61,21,21,61,51,61,61,21,61,61,1,21,61,51,1,61,61,61,21,1,61,61,61,61,51,61,1,1,61,61,21,61,61,61,61,61,61,61,61,51,51,21,51,61,61,61,61,21,21,61,1,61,61,21,21,61,21,61,61,61,61,61,61,21,61,1,61,61,61,61,61,61,1,61,61,61,61,61,21,1,61,61,61,21,21,61,61,61,61,61,61,61
61,61,61,1,61,61,21,21,61,1,61,1,61,61,61,61,61,61,61,61,21,61,61,61,61,51,51,61,21,61,61,61,61,61,61,61,1,61,51,61,61,61,61,61,51,1,61,61,61,61,61,1,61,21,1,51,1,61,61,21,61,61,1,1,21,61,21,51,61,61,51,61,61,21,61,61,61,61,61,61,61,61,1,61,51,61,21,1,61,61,61,61,61,1,61,61,61,51,1,61,61,21,61,61,61,1,61,1,61,61,61,61,51,61,61,61,61,51,61,61
1,61,61,61,61,61,61,51,61,21,61,61,61,61,51,1,21,61,1,61,61,61,51,1,21,61,61,1,1,61,21,61,61,61,1,51,21,61,51,61,61,61,61,61,61,21,61,51,61,61,61,61,21,61,51,61,51,61,61,61,61,61,61,61,61,61,61,51,61,61,61,61,61,61,21,61,61,61,61,61,61,21,1,61,1,61,1,61,61,61,61,61,1,61,61,51,1,61,61,61,61,61,61,61,61,51,61,21,61,1,1,61,61,51,61,61,61,61,1,61
61,61,61,61,21,61,51,51,21,21,61,61,61,61,21,61,61,61,61,51,61,51,61,61,61,61,51,61,1,61,61,61,61,61,61,61,1,61,21,21,1,61,61,61,61,61,61,61,1,61,21,51,61,61,61,21,51,61,61,21,61,61,51,61,61,21,61,61,51,61,61,61,61,1,61,61,61,61,61,61,1,21,61,61,61,61,61,61,61,61,61,51,61,61,61,61,21,61,61,61,61,1,61,61,61,61,21,61,1,61,21,61,1,51,61,21,21,21,61,61
61,61,61,61,61,61,51,1,61,61,61,51,61,61,61,61,61,61,1,61,61,61,61,21,61,61,1,61,21,1,61,61,61,61,61,1,61,61,61,21,61,51,61,61,61,51,51,61,51,1,61,61,61,1,61,61,61,61,61,1,61,61,51,61,61,21,21,21,21,61,61,61,61,61,61,61,61,61,1,61,61,51,61,61,61,61,61,61,1,61,1,21,21,1,61,61,51,61,61,61,51,61,51,61,61,61,1,61,61,61,61,61,61,61,61,21,61,51,61,61
61,61,61,21,21,21,61,1,61,61,61,1,21,61,21,61,61,21,61,61,61,61,61,61,21,21,61,61,61,1,61,61,1,61,21,61,51,61,61,21,1,61,61,1,51,51,51,61,61,51,61,1,61,61,61,61,61,61,61,61,61,61,61,61,61,1,61,61,61,61,61,51,61,51,61,61,51,61,51,61,61,51,51,61,61,1,61,61,1,61,61,1,61,51,61,61,21,51,21,21,61,21,61,61,61,21,1,61,61,1,51,51,51,1,61,61,61,21,1,1
61,51,61,1,61,61,61,61,61,61,61,21,1,61,61,61,61,61,51,61,61,21,21,1,61,61,61,1,61,1,51,61,61,61,21,51,61,61,61,61,51,21,61,61,61,61,61,1,61,1,51,61,61,61,61,1,61,61,61,21,1,61,61,1,21,61,1,61,61,21,61,51,61,51,51,61,61,1,61,61,21,61,1,61,51,21,61,61,61,61,1,61,61,1,61,61,61,61,21,61,61,61,51,61,1,61,61,61,61,61,61,61,21,1,61,61,61,61,61,61
51,61,61,61,21,61,61,61,61,61,61,61,61,1,61,1,1,61,1,61,51,61,61,61,61,1,51,61,61,61,61,61,61,61,61,61,1,1,51,61,61,61,21,61,61,61,51,61,21,1,61,61,1,61,51,61,21,51,1,61,61,61,21,61,61,61,51,1,61,1,61,61,21,61,61,61,21,61,61,51,51,61,51,51,21,61,61,61,61,61,61,61,61,61,61,61,61,61,61,21,61,61,61,51,61,21,61,61,61,61,61,61,21,61,61,61,61,1,61,21
61,1,61,21,61,1,1,61,61,61,61,61,61,61,61,61,61,61,61,61,21,21,61,61,21,1,51,61,21,1,21,61,21,61,61,61,1,61,1,61,61,61,61,61,61,61,21,61,61,1,21,51,61,61,21,61,61,21,61,61,61,1,61,61,61,61,61,51,61,61,61,61,61,61,51,61,51,61,61,51,61,61,61,61,61,61,61,51,21,61,61,61,61,21,21,1,61,51,21,21,21,61,61,21,61,61,61,1,1,61,51,1,61,61,61,21,61,61,51,61
1,21,61,61,61,21,51,21,61,51,51,21,61,1,61,61,61,1,61,61,61,61,61,61,21,61,61,61,61,1,61,51,61,61,51,61,61,61,61,61,21,61,21,61,51,61,61,61,51,51,61,21,61,1,61,61,51,61,61,1,1,61,51,1,61,61,61,51,61,1,61,61,51,61,61,61,61,21,61,61,61,61,61,51,61,61,61,21,61,61,61,1,1,61,61,61,61,61,51,61,61,61,61,51,21,61,61,61,61,51,61,61,61,61,61,61,51,1,1,61
51,51,61,61,61,51,61,51,61,61,1,61,21,61,21,61,51,61,61,61,51,51,61,21,1,51,61,61,1,61,1,61,1,61,61,21,51,1,1,21,61,61,51,61,61,61,61,51,1,61,61,61,61,21,51,61,21,61,1,21,61,61,61,21,1,1,61,61,1,61,61,61,1,61,51,21,61,21,61,61,61,61,61,61,1,61,61,51,61,61,61,1,61,61,61,61,61,61,61,61,51,61,61,61,61,21,61,51,61,61,61,51,61,21,1,61,1,61,61,61
1,61,61,51,51,1,21,21,61,61,1,61,61,61,21,61,61,61,61,21,61,21,61,21,21,61,61,61,61,61,61,1,61,61,21,61,61,61,51,61,61,1,61,1,51,61,51,61,61,61,61,61,61,61,61,61,61,21,61,61,61,61,1,61,61,61,51,61,51,61,1,51,61,21,61,1,21,61,61,21,61,21,61,61,61,61,61,21,61,61,61,51,21,21,61,1,21,61,51,61,1,61,61,61,61,61,61,61,51,61,21,21,61,1,51,21,51,61,51,1
1,51,61,61,61,61,61,61,61,61,21,61,21,61,1,21,51,61,1,21,61,61,61,1,61,21,1,61,61,61,61,61,51,61,1,51,61,61,51,61,61,61,61,61,61,21,61,1,61,61,61,1,61,61,61,61,61,61,61,61,1,21,61,61,1,21,21,51,61,61,1,21,61,61,61,61,61,61,61,1,51,61,61,61,51,61,51,1,1,61,1,21,61,21,21,21,61,61,1,51,61,51,61,61,21,61,61,61,61,61,21,51,51,61,21,61,1,61,61,61
1,61,21,61,61,61,61,51,61,51,51,51,61,61,61,21,61,61,61,61,61,21,61,21,51,61,61,61,61,61,61,1,61,61,61,61,61,61,61,61,61,61,21,61,1,1,61,61,61,51,51,61,61,21,61,61,61,21,61,21,61,61,51,1,61,61,61,1,1,21,1,51,61,61,61,61,61,1,1,61,51,51,51,61,21,61,51,61,61,51,61,61,21,1,51,61,1,51,1,21,1,61,21,1,61,1,61,21,61,61,1,61,61,61,61,61,61,51,61,61
21,1,51,51,61,51,61,51,61,1,61,61,61,61,61,1,61,1,61,61,21,21,61,61,61,21,61,61,61,21,61,61,61,21,21,61,61,61,61,61,61,51,1,61,61,61,61,61,61,61,21,61,61,61,51,21,61,61,61,61,61,61,61,61,61,51,61,61,51,61,61,61,61,61,21,1,61,61,1,61,1,61,61,21,61,1,61,1,61,61,61,61,61,61,61,61,61,61,1,21,21,51,61,61,61,61,61,61,61,61,1,61,1,21,61,51,21,61,61,61
61,61,61,61,21,61,61,61,61,21,61,61,61,61,1,61,61,61,1,61,51,51,61,1,51,61,61,61,61,61,1,61,61,21,61,61,1,61,51,61,61,21,61,51,51,51,61,51,61,1,61,61,61,61,51,61,61,61,61,51,1,1,61,61,1,21,21,61,1,61,61,61,1,61,61,61,61,61,61,21,1,61,61,1,61,61,61,61,1,61,61,61,1,1,61,51,51,61,61,21,61,61,61,21,61,61,61,61,61,1,51,1,61,61,61,61,61,61,61,61
51,61,61,1,51,61,61,61,61,61,61,61,21,21,21,61,21,61,61,61,61,1,61,1,61,61,61,21,61,61,51,61,21,51,51,61,61,61,61,61,21,21,61,61,51,1,1,21,61,61,61,61,21,21,61,21,61,1,61,1,61,21,61,21,61,61,61,61,1,51,51,61,1,1,61,21,61,1,1,61,61,1,51,1,61,51,51,21,61,1,61,61,61,61,61,61,61,21,61,61,61,61,61,61,61,61,61,61,61,21,61,61,61,51,51,61,61,61,61,61
61,61,51,61,21,1,1,61,61,1,61,1,61,61,61,51,61,61,61,61,61,61,61,61,61,51,61,1,1,61,61,21,1,21,61,51,21,61,21,51,61,21,1,61,61,61,1,61,61,61,61,51,61,51,61,61,61,61,61,1,61,21,61,21,1,21,61,61,61,61,61,61,61,61,61,61,61,21,61,21,61,61,61,61,61,61,61,61,21,61,1,61,61,1,61,61,61,61,61,61,61,51,61,61,61,1,21,61,61,61,61,61,61,51,61,61,61,61,21,21
61,61,1,61,61,61,1,61,51,61,51,1,61,61,51,21,61,21,61,61,61,61,1,1,51,61,61,1,61,51,61,61,61,21,1,61,1,61,61,61,1,51,61,61,1,61,61,61,21,61,61,1,61,61,61,21,61,61,61,21,61,61,61,51,21,61,61,21,61,61,1,1,61,61,61,61,61,61,61,61,61,51,1,51,61,51,1,21,51,61,21,61,61,61,61,61,61,61,51,61,51,61,61,61,21,61,61,61,21,51,61,61,61,61,21,21,61,51,21,1
61,61,61,1,61,61,61,21,1,61,61,61,61,21,1,61,61,61,61,51,51,61,61,51,1,61,61,61,61,21,61,21,61,61,61,61,21,61,61,21,21,51,61,61,61,61,51,1,61,61,1,61,61,61,61,1,61,51,61,61,21,61,1,21,61,61,61,61,1,61,61,61,61,1,61,61,1,61,51,21,61,61,61,61,21,21,1,1,61,51,51,61,1,61,61,1,51,21,61,61,61,61,61,1,61,51,21,61,61,61,61,51,51,51,1,21,61,61,51,61
61,51,21,61,61,61,61,61,61,1,61,21,51,61,61,51,61,1,51,61,61,61,61,51,51,61,61,1,61,61,61,51,61,61,61,61,61,61,21,61,61,21,51,51,21,61,61,51,61,1,61,61,51,61,61,51,21,61,51,61,61,61,61,51,1,21,61,61,61,21,61,21,61,61,61,61,51,1,1,1,61,61,61,61,51,61,21,61,61,21,61,61,61,21,21,61,61,51,61,61,1,61,1,61,51,61,61,1,61,61,61,61,61,61,61,1,61,61,21,61
61,21,21,61,61,61,61,1,1,61,61,61,61,61,61,21,61,61,61,1,61,61,61,61,61,61,61,51,61,61,51,61,21,61,61,61,61,61,61,1,61,61,61,61,61,21,61,61,61,61,61,61,1,61,51,21,51,61,61,51,61,61,61,51,51,61,61,1,61,61,51,51,21,61,51,61,1,61,61,61,1,61,51,21,61,61,61,61,51,21,61,61,21,61,21,61,61,61,61,61,61,61,61,61,61,1,61,61,51,61,61,61,21,61,61,61,61,1,61,51
61,1,61,1,61,61,21,61,61,61,61,21,1,1,61,1,61,21,61,51,61,61,1,61,61,61,61,1,61,61,61,61,21,61,61,61,61,61,61,51,61,21,21,61,61,61,1,21,61,51,51,21,51,51,61,61,61,61,21,61,61,61,61,21,61,21,61,51,61,1,21,61,1,21,61,61,51,61,61,61,21,61,61,61,1,61,61,61,1,61,61,1,61,1,51,61,61,61,61,61,61,1,21,1,21,61,61,61,51,61,61,51,61,61,61,61,61,61,21,61
61,61,21,61,21,51,1,51,61,61,1,61,61,61,1,61,61,61,61,61,61,61,21,61,51,51,1,61,51,61,61,51,61,61,51,61,61,21,61,61,61,21,61,61,61,1,61,61,1,61,61,61,21,61,1,61,1,61,61,61,61,61,21,51,61,21,61,61,51,1,21,61,61,61,61,61,61,61,21,61,61,21,61,21,61,61,61,61,51,61,1,61,61,61,61,61,61,51,61,21,61,61,21,51,51,61,61,51,61,61,61,61,61,61,61,61,61,61,61,51
61,61,61,61,61,61,61,1,61,61,61,21,61,61,61,51,61,61,61,51,61,61,51,21,61,51,61,61,61,1,61,61,61,61,61,1,51,51,61,51,61,61,61,51,61,1,61,61,61,61,61,51,1,51,21,51,61,51,61,61,61,61,61,1,61,61,61,61,61,51,51,61,61,61,21,1,61,21,61,61,61,21,61,51,61,21,61,61,61,61,1,61,61,61,51,51,61,21,21,21,61,61,61,21,61,61,1,21,61,61,61,61,61,61,21,61,61,61,61,61
61,1,21,61,61,61,51,1,51,51,61,61,51,61,51,1,61,61,61,61,61,1,51,61,61,1,61,61,1,21,61,61,61,21,21,51,61,1,61,61,21,51,61,61,1,61,61,51,61,51,61,1,61,61,61,61,61,61,1,61,51,21,61,61,61,61,1,51,1,61,1,61,21,21,61,61,51,61,51,61,61,51,61,61,1,1,1,61,61,61,21,51,61,61,61,51,21,61,61,61,61,61,61,61,61,61,51,51,61,61,61,61,61,61,1,61,61,61,61,61
61,51,61,1,61,21,1,21,61,61,61,51,61,61,61,61,1,51,61,61,61,61,61,61,61,61,61,1,61,61,21,61,61,61,1,61,61,1,1,51,61,21,61,61,61,61,61,61,21,61,1,61,61,1,61,61,61,61,61,61,61,21,61,61,21,1,21,61,61,51,51,61,61,1,21,61,51,61,61,61,21,51,61,61,61,61,61,21,21,21,21,61,61,61,61,61,51,61,61,1,61,1,61,61,61,61,61,61,61,1,61,61,1,21,21,61,61,21,61,61
61,61,51,61,1,61,1,61,1,61,61,61,61,61,1,61,61,61,21,61,21,21,1,21,61,61,61,61,61,61,1,21,61,61,61,21,61,21,21,51,51,61,61,61,61,61,21,61,61,1,61,51,21,61,61,61,61,61,21,61,1,61,61,61,21,51,61,61,51,61,61,21,61,61,61,61,61,61,61,61,61,51,1,61,1,1,21,61,21,1,61,61,61,61,61,61,51,61,61,61,61,1,61,61,61,61,21,61,61,21,1,61,21,61,61,51,21,61,61,61
1,61,61,61,61,61,61,61,61,61,61,61,61,51,1,51,61,61,61,21,51,1,61,61,51,61,61,61,61,61,61,61,61,61,1,61,61,61,61,61,61,61,61,21,61,61,61,61,61,61,61,51,51,61,61,51,61,61,1,61,61,61,1,1,1,61,61,61,51,61,61,61,61,61,61,21,21,61,51,61,61,61,61,1,61,61,61,51,51,61,51,1,1,61,21,51,1,51,61,61,21,61,61,61,61,1,61,21,61,61,51,61,21,61,1,61,51,61,61,61
61,1,1,1,61,61,61,61,61,61,51,61,21,1,61,61,61,61,61,61,21,61,51,61,61,1,61,61,61,51,21,61,61,21,21,51,1,61,61,1,61,21,1,61,61,61,61,61,1,1,61,61,61,61,51,21,61,61,61,61,51,51,51,61,61,61,61,61,61,61,61,61,51,61,61,51,1,61,51,61,61,61,1,21,61,51,61,61,61,61,61,21,61,51,61,61,61,61,61,21,61,61,61,61,1,61,61,61,1,51,61,61,61,61,1,61,61,61,61,61
61,61,61,61,61,61,61,51,21,1,1,61,51,61,61,1,1,61,61,61,61,21,61,51,1,61,51,51,21,1,61,61,21,61,61,61,61,1,61,61,61,61,61,21,1,1,61,61,61,61,61,61,51,51,51,1,61,61,61,1,61,61,61,61,1,21,1,51,61,61,51,61,61,61,61,61,61,61,61,61,21,61,51,61,51,61,51,1,61,1,61,61,61,61,51,1,21,21,61,61,61,61,21,61,61,61,61,1,1,51,61,61,61,61,61,61,51,61,21,21
61,61,61,61,21,61,61,61,61,51,61,61,61,61,51,61,1,61,61,61,61,61,61,61,61,61,61,1,61,51,61,61,61,1,61,61,61,61,61,61,21,61,61,61,21,21,61,61,61,51,61,1,1,61,61,1,61,61,61,51,1,61,1,61,61,61,61,61,51,21,61,61,61,51,61,1,61,61,51,61,61,61,61,51,21,61,51,61,61,61,61,21,61,61,61,61,61,21,61,61,61,61,61,61,61,61,21,61,61,61,61,61,51,61,21,21,61,61,61,51
1,61,61,51,61,61,61,1,1,61,61,61,51,61,61,21,61,21,51,61,61,51,21,61,61,1,61,21,51,61,61,61,1,61,51,1,61,51,61,21,51,61,61,61,61,51,61,61,61,61,61,61,21,61,61,61,61,61,61,61,61,61,61,61,61,61,61,61,61,61,61,61,61,61,61,61,61,61,61,61,61,61,61,1,21,1,1,51,61,21,61,61,61,51,61,61,61,61,61,61,61,61,21,61,61,61,51,61,1,61,61,21,61,61,61,61,61,61,61,61
61,61,61,61,21,21,51,61,61,51,61,61,61,1,61,61,61,61,61,21,61,61,61,1,21,61,51,51,61,1,61,1,61,61,61,61,1,61,61,61,51,21,61,61,1,61,51,1,1,61,61,61,61,21,51,61,1,51,61,61,61,61,61,61,61,61,21,61,61,61,61,61,1,61,21,61,61,21,61,61,61,61,61,61,61,21,1,61,61,1,61,1,61,61,21,1,61,61,61,21,1,51,61,61,61,61,61,61,51,61,51,51,61,61,61,51,61,61,61,61
61,1,61,61,61,61,61,61,1,61,61,61,61,61,61,61,61,51,61,61,61,61,61,61,51,61,61,21,61,61,61,1,61,51,61,61,21,61,51,21,61,61,1,61,51,61,21,61,21,61,61,21,61,51,1,61,21,1,61,1,61,1,1,61,51,51,61,61,61,1,51,61,61,21,61,61,61,1,61,1,21,61,1,1,61,61,61,61,61,51,1,1,1,51,21,51,61,61,1,61,1,61,51,1,61,1,51,61,61,61,61,61,21,61,1,61,21,61,61,1
61,61,61,61,61,51,61,51,61,1,61,61,61,61,61,21,61,61,61,61,21,61,61,61,61,51,21,61,61,51,61,61,61,61,21,51,1,61,61,1,21,61,61,1,1,61,61,61,61,21,61,21,61,61,61,51,1,1,1,61,61,61,21,61,61,21,61,61,61,61,51,21,21,61,61,21,61,61,51,1,61,21,51,61,21,21,61,61,61,61,21,21,61,61,21,61,1,61,21,61,61,61,61,61,61,61,61,61,61,61,61,61,61,61,61,61,61,21,61,61
61,61,61,61,61,61,61,61,1,51,61,61,61,61,61,61,61,61,61,61,61,61,61,61,61,51,61,61,61,61,51,61,61,61,51,21,61,51,51,61,61,1,61,51,61,61,1,61,61,61,61,21,21,61,61,61,61,1,61,21,61,21,51,61,51,61,61,61,51,21,21,61,51,61,61,61,51,61,51,51,61,21,61,61,51,61,1,61,51,61,61,61,21,61,61,61,61,61,61,61,61,51,21,51,61,51,21,61,61,61,61,61,61,61,1,21,21,61,51,61
21,21,61,21,61,61,1,61,61,21,61,21,61,61,61,61,61,61,61,1,61,61,1,1,61,1,21,21,1,51,61,51,61,61,61,1,21,51,21,51,61,51,1,61,61,61,51,61,61,61,61,61,61,61,61,61,1,1,61,21,61,61,61,61,61,1,21,1,51,51,61,61,61,21,51,61,61,1,51,61,61,61,61,61,61,61,21,61,21,61,61,61,61,61,61,51,51,21,61,61,61,51,61,51,61,51,21,61,61,61,61,1,51,61,61,61,51,61,1,1
61,61,61,61,1,61,61,1,61,61,61,61,51,61,61,61,61,51,61,61,61,61,61,61,61,61,1,61,1,1,51,61,61,61,1,21,21,61,61,51,61,1,1,51,21,51,21,61,51,61,1,61,61,61,61,51,1,1,61,61,61,61,61,61,51,1,61,61,61,1,61,61,61,61,61,1,61,1,21,51,61,61,61,61,61,51,51,51,1,51,21,61,61,61,61,61,61,1,1,21,61,61,61,61,61,1,61,61,61,61,51,21,61,61,51,61,61,61,61,21
61,61,61,51,21,61,51,51,61,1,51,21,61,1,1,61,61,61,61,61,61,61,61,51,61,21,51,1,61,21,1,1,61,61,61,21,61,21,61,21,61,61,21,61,61,61,61,61,61,21,61,51,21,61,61,61,21,61,61,61,61,1,21,61,61,61,51,21,61,61,61,61,1,61,21,1,1,61,61,61,61,61,61,61,1,61,61,1,61,51,61,61,61,1,1,61,51,61,61,21,61,51,21,61,61,21,21,61,61,21,1,21,1,21,61,51,61,61,61,61
51,61,61,61,61,61,61,61,1,61,61,61,61,61,61,61,61,1,1,61,61,21,51,61,61,61,21,61,21,61,21,1,61,61,61,61,61,61,51,1,61,61,61,21,21,61,61,61,61,1,61,51,61,21,51,61,61,61,61,51,61,21,61,61,51,21,21,61,61,61,61,51,51,1,61,61,61,61,61,61,1,61,61,51,61,61,61,1,61,61,61,61,51,51,61,61,61,61,61,61,61,21,61,61,61,61,61,61,61,61,61,61,61,61,21,21,61,61,21,61
61,21,61,21,21,1,51,21,1,61,51,61,61,61,1,61,51,61,61,61,51,61,61,1,61,61,61,1,61,21,1,61,61,61,61,61,61,51,61,61,61,51,61,51,1,61,61,61,21,1,51,61,61,61,61,61,61,61,61,61,1,51,1,1,51,61,61,61,21,21,61,61,61,51,51,61,1,1,61,61,61,21,61,61,61,61,51,61,61,61,61,21,61,61,1,61,1,61,21,61,61,61,61,61,61,1,61,61,61,61,21,51,1,61,61,61,21,61,61,1
61,61,21,61,1,61,21,61,61,61,61,51,61,61,51,61,61,61,61,61,61,61,61,61,51,21,1,61,61,61,61,61,61,61,1,61,61,51,61,61,21,61,61,61,61,1,61,1,51,61,61,61,61,61,21,61,61,61,51,51,51,21,21,51,61,61,61,61,61,61,61,51,51,61,61,61,61,61,61,61,61,1,61,61,61,1,61,61,61,1,61,21,21,61,21,51,51,51,61,61,61,51,51,61,61,61,61,61,21,61,61,61,1,61,51,61,61,21,61,61
61,21,61,61,61,61,21,61,61,21,61,61,51,61,51,21,21,61,61,61,51,61,51,1,21,61,21,61,21,61,61,61,61,61,61,61,61,61,61,61,1,61,61,21,1,61,61,61,61,61,61,51,51,61,61,1,61,61,61,61,61,61,61,51,51,21,61,61,61,61,61,61,61,61,61,21,61,61,51,61,1,51,51,61,1,61,21,21,61,1,21,61,61,61,61,1,61,61,61,61,61,21,61,61,61,61,61,1,1,1,61,61,61,51,61,61,61,61,61,61
61,51,51,21,61,61,1,51,21,51,61,61,61,61,61,61,1,1,21,51,61,61,61,51,61,61,61,61,61,21,61,51,1,61,21,61,61,61,1,61,61,61,1,61,61,61,61,61,1,61,61,61,61,61,61,61,21,61,61,61,61,21,21,61,21,61,61,61,1,61,21,61,61,51,61,61,61,61,61,61,61,51,61,61,61,51,61,1,61,21,61,61,61,1,61,61,1,61,61,21,61,61,61,1,21,21,51,61,61,61,1,61,21,61,61,61,61,61,61,61
61,61,51,1,61,61,51,61,21,61,1,61,61,21,21,61,1,61,61,51,61,61,21,51,61,61,61,61,61,61,61,61,21,21,1,61,61,61,61,51,61,61,61,61,61,61,61,61,21,61,51,61,61,61,61,61,21,61,61,61,61,21,61,61,61,61,61,51,61,61,61,61,61,21,61,61,61,51,21,61,1,21,21,61,51,61,61,51,61,1,61,21,61,61,61,61,61,61,61,61,51,61,61,61,61,61,51,1,61,61,61,61,21,61,1,61,61,61,61,61
1,61,61,21,21,61,21,51,61,61,1,51,61,61,61,61,61,1,61,1,21,1,61,61,61,61,21,61,21,1,61,61,51,61,61,21,61,61,21,1,61,51,61,61,61,61,61,1,51,61,61,1,21,61,21,51,61,61,21,1,61,61,61,51,61,61,1,61,51,1,61,61,1,61,61,1,61,61,61,21,61,1,61,61,61,21,61,61,51,61,61,61,61,61,61,61,1,61,61,21,61,61,61,61,61,61,61,1,61,1,61,61,61,21,1,61,1,61,61,61
61,61,61,51,61,61,61,61,61,61,61,61,21,61,61,21,61,61,61,1,1,61,61,1,61,61,61,61,21,51,61,61,21,51,61,51,1,1,61,61,61,61,61,61,61,61,51,21,61,61,61,61,61,61,51,61,51,61,61,51,61,61,61,1,61,61,61,21,61,21,21,51,61,51,61,61,61,61,61,61,61,1,51,61,1,61,61,61,1,61,61,21,61,61,1,21,61,21,61,61,21,51,51,61,1,61,61,61,1,61,1,61,51,61,61,51,1,61,51,51
61,61,61,61,61,61,61,51,61,61,61,1,61,61,61,61,61,51,61,61,21,61,61,61,61,61,61,61,61,1,61,61,61,61,1,21,61,61,61,51,61,1,1,61,61,61,1,61,1,61,1,1,21,1,51,61,61,61,61,61,61,1,61,61,1,61,51,51,1,61,21,61,61,21,1,21,51,51,51,21,61,21,1,1,61,61,61,61,61,51,61,61,51,61,1,61,61,21,51,51,61,61,1,61,61,61,61,51,21,61,61,51,61,21,61,51,61,1,61,61
61,1,1,51,61,61,61,61,61,21,61,61,21,61,51,61,51,61,61,61,61,61,21,61,61,61,61,61,51,1,61,61,61,61,61,61,61,61,61,1,51,61,61,61,61,61,51,61,51,61,61,61,61,51,51,61,1,61,51,51,1,21,61,61,61,61,61,1,1,61,61,21,61,1,61,1,51,61,1,61,51,1,61,61,61,61,61,61,1,61,1,61,61,61,61,51,61,61,61,21,61,1,61,61,61,61,61,51,61,61,61,61,21,61,61,61,61,1,21,61
61,21,61,61,1,61,21,21,61,61,21,61,61,61,21,61,61,61,61,61,51,21,61,61,21,61,61,61,21,61,61,61,21,61,61,61,61,61,61,61,61,61,61,21,61,61,61,51,61,61,1,61,51,61,61,61,51,61,61,1,61,61,61,61,61,61,21,21,61,51,61,61,61,61,61,61,61,61,61,61,61,61,21,61,61,61,61,61,61,1,21,61,61,61,61,61,21,61,61,61,61,61,61,61,61,1,1,61,61,51,1,1,1,61,61,21,61,61,61,61
1,1,51,61,61,21,61,61,21,51,1,61,61,61,61,61,1,1,1,61,51,61,1,21,61,61,21,51,1,1,61,61,61,61,61,61,61,61,21,51,61,61,21,61,61,61,61,61,61,51,21,61,61,51,61,61,61,51,61,61,1,61,61,1,61,1,61,1,1,21,61,61,61,61,61,61,61,61,1,61,61,1,61,61,61,61,61,61,61,61,51,61,61,61,61,61,61,1,21,51,61,61,61,61,61,61,61,61,1,1,61,51,61,61,61,61,61,61,61,21
61,61,61,61,21,61,51,61,51,61,1,61,61,61,21,61,51,61,21,61,21,1,61,61,51,21,21,61,61,61,21,61,61,61,61,51,61,51,51,61,61,61,61,61,61,61,51,61,61,61,61,61,21,51,61,1,21,61,61,61,61,61,61,61,51,61,61,61,61,61,1,61,61,1,61,1,61,61,61,61,61,61,1,61,61,61,1,61,21,61,1,1,61,61,21,61,61,61,61,21,61,61,61,51,61,61,21,1,61,61,61,61,51,51,61,61,1,61,61,61
1,51,1,61,61,1,21,61,1,51,51,61,61,61,61,21,61,51,21,61,61,61,1,61,61,61,61,61,51,61,61,61,61,51,61,61,61,61,21,61,61,61,61,1,21,51,61,61,61,61,61,21,21,61,61,51,1,61,61,61,51,61,61,61,61,61,61,61,61,61,61,61,61,61,61,61,61,61,61,61,61,1,1,1,61,1,61,61,61,61,1,61,61,21,61,21,61,61,61,61,61,51,61,61,61,51,61,1,61,1,21,61,51,1,61,61,61,21,61,21
51,61,61,61,21,61,21,61,61,61,61,61,61,61,1,1,61,61,21,61,61,61,1,61,61,61,21,61,61,61,61,61,21,1,51,1,61,61,61,61,61,61,61,61,61,21,61,21,61,61,61,21,21,21,61,61,1,61,21,61,51,61,51,61,61,51,51,61,61,21,61,61,1,61,21,61,61,61,61,61,61,61,61,61,1,61,61,61,61,61,61,1,61,61,21,61,61,61,61,21,61,51,61,61,51,51,61,61,1,21,61,61,61,1,61,61,61,61,1,51
21,61,51,1,61,61,51,61,61,61,1,61,61,61,61,61,61,21,51,1,61,61,51,61,21,61,61,61,51,61,61,61,21,21,61,61,61,51,61,61,61,61,61,61,1,61,61,61,61,61,61,51,61,61,61,61,61,61,61,61,1,21,51,61,21,61,61,61,61,61,21,61,61,61,61,61,61,61,61,61,21,61,61,61,61,61,51,61,21,1,51,61,51,51,61,51,21,61,1,61,1,21,61,1,61,61,21,61,61,61,1,61,61,61,61,61,61,61,61,61
1,51,61,61,61,1,1,1,61,61,61,21,61,61,61,61,61,61,51,61,51,61,61,61,61,61,21,61,51,21,1,61,1,61,1,51,1,61,61,51,61,61,51,61,61,21,61,61,61,51,61,61,61,51,1,61,61,61,1,1,51,51,61,51,61,61,61,21,1,51,61,61,21,51,61,61,61,21,61,51,61,1,61,1,61,61,61,61,61,1,61,61,61,61,1,61,1,61,61,61,61,61,51,61,61,51,1,61,61,61,1,21,61,61,61,51,61,51,61,61
  </data>
 </layer>
 <objectgroup id="1" name="features">
  <object id="1" name="west_wall" x="0" y="0" width="180" height="1344">
   <properties>
    <property name="kind" value="cliff"/>
   </properties>
  </object>
  <object id="2" name="north_wall" x="0" y="0" width="1920" height="140">
   <properties>
    <property name="kind" value="cliff"/>
   </properties>
  </object>
  <object id="3" name="old_oak" x="720" y="430" width="280" height="280">
   <properties>
    <property name="kind" value="tree"/>
    <property name="label" value="Hollow Oak"/>
   </properties>
  </object>
  <object id="4" name="mushroom_grotto_wall" x="1380" y="340" width="240" height="220">
   <properties>
    <property name="kind" value="grove"/>
    <property name="label" value="Mushroom Grotto"/>
   </properties>
  </object>
  <object id="19" name="glade_seal" x="1080" y="732" width="96" height="72">
   <properties>
    <property name="kind" value="brush"/>
    <property name="label" value="Moonlit Bramble"/>
    <property name="interactionType" value="scan_hidden_path"/>
    <property name="completionWorldFlag" value="frontier.forest_hidden_glade_open"/>
    <property name="interactionMessage" value="A scan trace maps the root lattice and opens a hidden glade beyond the brambles."/>
    <property name="blockedMessage" value="The roots braid together like a living maze. A scan-capable frame could trace a path through."/>
    <property name="blocksMovement" value="true"/>
   </properties>
  </object>
 </objectgroup>
 <objectgroup id="2" name="collisions">
  <object id="5" x="0" y="0" width="180" height="1344"/>
  <object id="6" x="0" y="0" width="1920" height="140"/>
  <object id="7" x="0" y="1284" width="1920" height="60"/>
  <object id="8" x="1860" y="0" width="60" height="1344"/>
  <object id="9" x="720" y="430" width="280" height="280"/>
  <object id="10" x="1380" y="340" width="240" height="220"/>
 </objectgroup>
 <objectgroup id="3" name="spawn_points">
  <object id="11" name="from_verdant" type="player" x="260" y="924">
   <properties>
    <property name="spawnId" value="from_verdant"/>
   </properties>
  </object>
  <object id="21" name="from_frozen" type="player" x="1640" y="250">
   <properties>
    <property name="spawnId" value="from_frozen"/>
   </properties>
  </object>
  <object id="12" name="enemy_1" type="enemy" x="520" y="864"/>
  <object id="13" name="enemy_2" type="enemy" x="1160" y="754"/>
  <object id="14" name="enemy_3" type="enemy" x="1380" y="540"/>
  <object id="15" name="enemy_4" type="enemy" x="1660" y="414"/>
 </objectgroup>
 <objectgroup id="4" name="doors">
  <object id="16" name="verdant_fields_exit" x="180" y="892" width="72" height="72">
   <properties>
    <property name="label" value="Verdant Fields"/>
    <property name="targetZone" value="verdant_fields"/>
    <property name="targetSpawn" value="from_forest"/>
   </properties>
  </object>
  <object id="22" name="frozen_vale_pass" x="1620" y="220" width="72" height="72">
   <properties>
    <property name="label" value="Frozen Vale"/>
    <property name="targetZone" value="frozen_vale"/>
    <property name="targetSpawn" value="from_forest"/>
    <property name="lockMessage" value="The air ahead turns sharply cold. Stronger frames will fare better on the vale pass."/>
   </properties>
  </object>
 </objectgroup>
 <objectgroup id="5" name="npcs">
  <object id="17" name="scout" x="430" y="674">
   <properties>
    <property name="npcId" value="forest_ranger"/>
    <property name="displayName" value="Ranger Pell"/>
   </properties>
  </object>
 </objectgroup>
 <objectgroup id="6" name="chests">
  <object id="18" name="grotto_cache" x="1540" y="584">
   <properties>
    <property name="gold" value="30"/>
    <property name="potions" value="1"/>
    <property name="recruitEventId" value="scout_mk2_join"/>
    <property name="message" value="The Mushroom Grotto hides a buried scout frame under the roots and spores."/>
   </properties>
  </object>
  <object id="20" name="hidden_glade_cache" x="1220" y="754">
   <properties>
    <property name="gold" value="45"/>
    <property name="potions" value="1"/>
    <property name="hiddenUntilFlag" value="frontier.forest_hidden_glade_open"/>
    <property name="message" value="The moonlit glade holds untouched survey notes and a crate of overgrown salvage."/>
   </properties>
  </object>
 </objectgroup>
</map>
