<?xml version="1.0" encoding="UTF-8"?>
<map version="1.10" tiledversion="1.10.2" orientation="orthogonal" renderorder="right-down" width="40" height="28" tilewidth="48" tileheight="48" infinite="0" nextlayerid="7" nextobjectid="35">
 <properties>
  <property name="groundStyle" value="cave"/>
 </properties>
 <objectgroup id="1" name="features">
  <object id="1" name="west_wall" x="0" y="0" width="220" height="1344">
   <properties>
    <property name="kind" value="cliff"/>
   </properties>
  </object>
  <object id="2" name="north_wall" x="0" y="0" width="1920" height="170">
   <properties>
    <property name="kind" value="cliff"/>
   </properties>
  </object>
  <object id="3" name="trial_pillar" x="760" y="468" width="240" height="260">
   <properties>
    <property name="kind" value="ruin"/>
    <property name="label" value="Trial Pillar"/>
   </properties>
  </object>
  <object id="4" name="boss_gate" x="1420" y="320" width="220" height="220">
   <properties>
    <property name="kind" value="gate"/>
    <property name="label" value="Floor 10 Gate"/>
   </properties>
  </object>
  <object id="19" name="echo_wall" x="1080" y="732" width="96" height="72">
   <properties>
    <property name="kind" value="ruin"/>
    <property name="label" value="Legend Cache Wall"/>
    <property name="interactionType" value="scan_hidden_path"/>
    <property name="completionWorldFlag" value="postgame.dungeon_cache_open"/>
    <property name="interactionMessage" value="A scan trace reveals a hidden reward chamber between the shifting dungeon walls."/>
    <property name="blockedMessage" value="The dungeon walls reconfigure themselves. A scan-capable frame could reveal the safe seam."/>
    <property name="blocksMovement" value="true"/>
   </properties>
  </object>
 </objectgroup>
 <objectgroup id="2" name="collisions">
  <object id="5" x="0" y="0" width="220" height="1344"/>
  <object id="6" x="0" y="0" width="1920" height="170"/>
  <object id="7" x="0" y="1284" width="1920" height="60"/>
  <object id="8" x="1860" y="0" width="60" height="1344"/>
  <object id="9" x="760" y="468" width="240" height="260"/>
  <object id="10" x="1420" y="320" width="220" height="220"/>
 </objectgroup>
 <objectgroup id="3" name="spawn_points">
  <object id="11" name="from_void" type="player" x="260" y="924">
   <properties>
    <property name="spawnId" value="from_void"/>
   </properties>
  </object>
  <object id="32" name="from_hub" type="player" x="420" y="280">
   <properties>
    <property name="spawnId" value="from_hub"/>
   </properties>
  </object>
  <object id="12" name="enemy_1" type="enemy" x="520" y="864"/>
  <object id="13" name="enemy_2" type="enemy" x="1160" y="754"/>
  <object id="14" name="enemy_3" type="enemy" x="1380" y="540"/>
  <object id="15" name="enemy_4" type="enemy" x="1660" y="414"/>
  <object id="30" name="from_boss_gate" type="player" x="1640" y="286">
   <properties>
    <property name="spawnId" value="from_boss_gate"/>
   </properties>
  </object>
 </objectgroup>
 <objectgroup id="4" name="doors">
  <object id="16" name="the_void_exit" x="180" y="892" width="72" height="72">
   <properties>
    <property name="label" value="The Void"/>
    <property name="targetZone" value="the_void"/>
    <property name="targetSpawn" value="from_dungeon"/>
   </properties>
  </object>
  <object id="31" name="verdant_fields_gate" x="360" y="248" width="72" height="72">
   <properties>
    <property name="label" value="Ironhaven Route"/>
    <property name="targetZone" value="verdant_fields"/>
    <property name="targetSpawn" value="from_dungeon"/>
    <property name="lockMessage" value="A return route anchors the dungeon to the frontier for repeated challenge runs."/>
   </properties>
  </object>
  <object id="33" name="boss_gate_door" x="1610" y="248" width="72" height="72">
   <properties>
    <property name="label" value="Deep Trial Gate"/>
    <property name="targetZone" value="infinite_dungeon"/>
    <property name="targetSpawn" value="from_boss_gate"/>
    <property name="lockMessage" value="The next trial gate loops deeper into the dungeon, promising stronger foes and better spoils."/>
   </properties>
  </object>
 </objectgroup>
 <objectgroup id="5" name="npcs">
  <object id="17" name="bolt_echo" x="430" y="674">
   <properties>
    <property name="npcId" value="bolt_simulation"/>
    <property name="displayName" value="Bolt Simulation"/>
   </properties>
  </object>
 </objectgroup>
 <objectgroup id="6" name="chests">
  <object id="18" name="legend_cache" x="1540" y="584">
   <properties>
    <property name="gold" value="220"/>
    <property name="potions" value="2"/>
    <property name="message" value="A legendary cache materializes between floor shifts, loaded with rare salvage and enhancement stock."/>
   </properties>
  </object>
  <object id="20" name="hidden_trial_cache" x="1220" y="754">
   <properties>
    <property name="gold" value="140"/>
    <property name="potions" value="1"/>
    <property name="hiddenUntilFlag" value="postgame.dungeon_cache_open"/>
    <property name="message" value="The hidden trial chamber yields untouched rewards from a prior challenger run."/>
   </properties>
  </object>
 </objectgroup>
</map>
