<?xml version="1.0" encoding="UTF-8"?>
<map version="1.10" tiledversion="1.12.1" orientation="orthogonal" renderorder="right-down" width="60" height="48" tilewidth="16" tileheight="16" infinite="0" nextlayerid="4" nextobjectid="1">
 <properties>
  <property name="groundStyle" value="cave"/>
  <property name="mapName" value="Ironhaven Underground"/>
  <property name="safeZone" value="false"/>
 </properties>
 <tileset firstgid="1" source="lpc_cave.tsx"/>
 <tileset firstgid="1740" source="lpc_terrain.tsx"/>
 <layer id="1" name="01_Ground" width="60" height="48">
  <data encoding="csv">
25,25,25,25,25,25,25,25,25,25,25,25,25,26,25,25,25,10,25,25,10,25,26,25,25,25,25,26,25,25,25,25,25,25,25,25,25,25,25,25,25,25,26,25,25,25,25,10,26,25,10,25,25,26,25,25,25,25,26,25,
10,25,25,25,25,25,26,10,25,25,25,26,25,10,26,25,25,25,25,25,25,25,25,26,25,25,25,10,25,25,25,10,26,26,25,25,25,10,10,25,25,25,25,25,25,25,25,25,25,25,10,25,25,25,25,25,10,26,10,26,
25,25,25,25,25,25,25,25,25,25,25,25,25,25,25,10,25,25,25,25,25,25,26,10,25,25,25,25,25,25,26,25,25,10,25,25,25,25,25,10,26,25,25,25,25,26,25,26,25,25,26,10,26,26,26,26,25,25,25,25,
25,25,25,25,10,25,10,10,10,25,25,25,25,25,25,10,26,25,25,26,25,25,10,26,26,25,25,26,25,26,10,25,25,10,26,25,25,25,10,26,25,26,10,25,25,25,25,25,10,25,25,10,25,10,26,25,25,25,25,25,
25,25,25,10,25,25,25,10,25,10,25,25,25,25,25,25,25,26,25,25,26,25,25,25,25,26,25,25,25,25,26,25,25,26,10,25,25,25,25,25,25,25,25,10,25,10,10,25,25,10,26,25,25,25,25,25,25,25,26,10,
25,26,25,25,10,10,25,10,25,25,10,26,25,25,25,25,25,25,26,25,25,25,25,25,25,25,25,10,26,10,25,25,25,26,25,25,25,10,26,25,25,10,25,26,25,25,25,25,25,10,25,26,25,26,25,26,25,25,25,10,
25,25,25,25,25,25,25,25,25,25,26,25,25,25,25,25,25,25,26,25,25,25,10,25,26,25,25,26,25,25,25,10,25,26,26,25,25,25,25,25,25,26,25,25,25,26,10,25,25,25,25,25,25,25,25,10,10,25,25,10,
25,25,25,25,25,25,25,25,25,25,25,25,25,25,25,25,25,25,26,25,26,10,25,25,10,25,26,25,25,26,10,25,26,26,25,25,25,26,26,26,25,10,25,25,25,25,25,25,25,26,25,25,25,25,25,25,26,26,25,25,
25,25,26,25,25,25,26,25,26,10,25,25,25,25,26,25,25,25,25,25,26,25,25,25,25,25,25,25,25,25,25,25,25,25,10,25,10,10,25,25,26,10,25,25,25,10,25,25,25,25,10,25,26,25,10,26,25,10,25,25,
25,25,25,25,25,25,25,26,25,26,26,25,10,26,10,25,25,25,10,25,25,25,25,25,25,26,25,10,25,25,25,25,25,10,10,26,25,10,10,25,26,25,26,25,26,25,25,25,10,25,25,25,25,26,10,25,25,25,25,25,
25,25,25,10,25,25,10,10,25,25,25,25,25,25,25,25,25,10,26,25,25,25,25,25,25,25,10,25,25,25,26,25,25,25,25,25,10,26,10,25,25,26,10,25,25,25,25,10,26,26,10,25,25,25,25,25,10,26,25,26,
25,25,25,26,25,10,25,25,25,25,25,25,25,25,25,25,25,25,25,25,25,25,10,25,10,25,25,25,10,26,25,25,25,25,25,25,25,10,25,25,25,25,25,25,26,26,25,25,10,25,26,25,25,26,25,10,25,25,25,25,
25,10,25,25,25,10,25,25,25,25,10,10,26,10,10,25,25,10,26,25,25,25,25,25,25,25,25,25,10,25,10,25,25,26,26,25,25,25,25,10,25,25,10,25,25,26,26,25,25,25,10,25,26,10,25,25,10,25,25,26,
25,25,25,26,10,25,10,25,25,25,10,10,25,25,25,25,10,25,26,26,26,26,25,25,25,25,26,25,25,26,25,25,25,25,25,10,10,10,25,25,25,25,26,25,25,25,25,25,26,26,25,25,26,25,25,25,26,25,25,25,
25,10,25,25,25,10,25,25,26,25,10,25,25,26,26,10,25,25,25,25,10,25,10,25,26,25,25,26,10,25,25,25,25,25,25,25,25,25,25,25,25,25,25,25,25,25,26,25,25,25,25,25,25,25,25,25,25,25,25,10,
25,25,25,25,26,10,25,25,26,25,25,10,25,26,25,10,25,25,25,25,25,10,25,25,25,25,25,25,25,10,25,25,26,10,25,25,10,10,25,25,10,25,10,25,26,25,26,25,25,26,26,25,25,25,25,25,25,25,26,10,
25,25,26,25,26,25,25,25,25,25,25,25,25,25,25,25,25,25,25,25,26,26,25,25,25,25,25,25,25,25,25,25,25,25,26,26,25,25,25,25,10,25,26,10,26,26,25,10,25,10,10,25,26,10,25,25,26,25,10,25,
26,25,25,10,25,25,25,25,25,25,25,10,25,10,25,26,25,25,25,25,10,25,25,10,25,10,25,25,26,25,10,25,25,26,25,25,26,25,26,25,25,10,25,25,25,25,25,25,25,25,25,10,25,25,25,25,25,25,25,25,
25,25,25,25,25,25,25,10,25,25,25,25,10,26,25,25,25,25,25,25,25,25,10,26,25,10,25,25,25,25,25,26,25,25,10,25,25,25,25,25,26,25,25,25,25,10,26,26,25,26,26,25,26,25,25,25,25,25,25,26,
25,26,26,25,25,25,26,25,25,25,10,25,10,25,25,25,26,10,26,25,10,25,25,10,25,25,25,10,25,26,25,26,25,26,25,25,25,25,25,10,25,25,25,10,25,25,25,25,25,25,25,26,25,25,25,26,26,10,25,26,
10,10,25,25,25,25,26,26,25,26,25,25,25,25,26,25,25,25,25,25,25,26,25,25,10,25,26,25,25,25,25,26,25,26,25,25,26,25,26,25,25,25,26,10,25,25,25,26,25,25,25,26,25,10,25,25,25,25,25,25,
25,26,25,26,25,25,25,25,10,25,10,25,25,25,10,25,25,10,25,25,25,26,26,25,25,25,25,26,25,26,25,25,26,25,25,25,10,25,25,25,26,26,25,25,25,25,25,25,25,25,10,26,25,10,25,25,10,26,26,25,
25,25,25,25,25,25,25,26,25,25,25,25,25,25,25,26,10,25,25,26,25,25,26,10,26,26,26,25,25,25,25,25,25,25,26,26,25,25,25,25,25,25,25,10,25,25,26,25,25,10,25,25,25,26,10,25,25,25,25,26,
25,25,26,25,25,10,25,25,25,26,25,10,25,25,25,25,25,25,25,25,25,25,25,26,10,25,25,26,25,25,25,26,26,25,25,25,25,10,25,25,26,26,25,25,25,25,26,25,26,25,25,25,25,25,25,26,25,25,25,25,
25,25,25,25,10,26,25,26,10,26,25,26,25,25,25,10,25,25,25,25,25,26,25,25,10,26,25,10,25,26,25,10,26,26,25,25,25,26,25,10,25,25,25,25,25,25,25,25,25,25,25,26,25,26,25,25,25,26,25,25,
10,25,25,25,25,25,25,10,25,10,25,25,10,25,26,25,25,26,25,25,25,26,25,25,25,25,26,25,26,25,25,25,25,10,25,26,25,25,25,25,25,26,25,26,10,25,25,25,25,25,10,25,25,26,10,25,25,25,25,25,
25,25,25,25,26,25,25,25,26,10,25,25,26,26,25,25,25,25,25,25,25,10,25,25,25,25,26,25,10,25,25,25,25,10,10,25,25,25,25,25,25,25,25,25,25,10,25,26,25,25,26,25,26,25,25,26,26,26,26,25,
25,26,25,10,25,10,26,25,25,25,26,25,25,26,25,26,25,25,25,25,25,25,25,26,25,25,25,25,25,26,10,26,25,25,25,10,26,26,25,25,10,26,25,25,25,10,25,25,25,10,26,25,25,25,25,25,26,10,25,26,
26,26,25,25,26,26,25,10,25,25,25,26,25,26,10,25,25,25,25,25,25,26,26,25,25,26,26,25,25,10,10,25,25,25,25,25,25,26,25,25,25,25,25,25,10,25,25,25,26,25,25,25,25,25,25,10,26,25,25,25,
26,25,10,26,26,10,25,25,25,25,25,25,25,10,25,10,10,25,25,25,25,10,25,25,25,10,25,25,25,25,10,10,25,25,25,25,10,10,26,25,26,26,25,10,25,25,26,10,25,25,25,26,25,25,25,25,25,25,25,25,
25,25,26,25,25,10,25,10,26,10,25,25,25,10,26,25,25,25,26,25,25,25,25,25,26,25,25,10,25,25,25,25,26,25,25,25,25,10,25,10,25,10,25,25,25,25,25,25,25,10,10,10,25,25,10,25,26,25,10,25,
26,25,25,25,26,25,25,25,10,25,25,25,25,26,26,25,25,25,25,25,25,25,25,26,26,25,25,25,26,25,26,25,26,25,26,26,25,25,10,25,10,25,25,26,25,25,25,25,25,25,25,25,25,26,26,26,25,26,25,26,
25,10,10,25,25,25,25,25,10,25,25,25,25,26,25,25,25,25,25,25,25,25,26,25,26,26,25,25,25,25,25,25,25,25,25,26,25,25,26,25,26,10,25,25,26,25,25,10,26,25,25,25,25,10,26,10,26,26,25,25,
10,10,25,25,25,25,25,25,25,25,25,25,10,26,10,25,26,10,10,25,25,25,25,25,25,10,25,25,25,25,10,25,25,25,25,25,10,25,25,25,25,25,25,25,25,25,25,25,25,25,26,25,25,25,25,26,25,25,25,25,
25,25,25,25,25,25,25,25,26,25,25,25,25,10,25,26,25,25,10,25,25,25,25,26,25,25,10,26,25,25,25,25,25,26,26,25,26,26,26,25,26,26,10,25,10,25,26,25,25,10,25,25,26,10,25,25,25,25,26,25,
25,25,25,25,26,26,25,25,25,25,25,25,25,25,10,25,26,26,10,25,25,10,25,25,25,25,10,26,25,10,25,25,25,25,25,25,25,10,25,25,25,25,25,25,25,10,10,25,25,25,10,25,25,26,25,25,10,26,25,25,
10,25,26,10,10,25,25,25,25,25,25,25,25,25,25,10,25,25,25,26,25,25,25,25,26,25,25,25,25,25,25,25,25,10,25,25,25,25,26,25,25,25,25,26,25,26,25,25,26,25,26,25,25,25,25,10,25,25,25,25,
25,10,25,10,25,25,25,25,10,26,25,10,26,25,25,10,25,10,25,25,26,25,25,10,25,26,25,25,25,25,10,25,25,25,25,25,25,25,25,26,25,25,25,25,25,25,25,25,25,26,25,25,26,25,25,26,26,25,25,26,
25,10,25,10,25,25,25,25,26,25,10,25,25,25,25,25,10,25,25,25,25,26,25,25,25,25,25,25,25,26,25,25,25,25,25,25,25,25,25,25,25,26,25,25,10,26,10,26,25,25,25,25,25,25,25,25,25,25,26,25,
25,25,25,10,26,26,25,25,25,25,25,25,25,25,25,25,26,25,26,25,25,25,25,25,26,26,25,25,26,25,25,25,25,26,25,10,26,25,25,25,26,26,25,25,10,25,10,25,26,26,25,25,25,25,25,25,10,25,26,25,
26,26,25,25,10,25,25,25,25,25,25,25,25,25,26,25,25,25,25,25,10,25,25,10,25,25,25,26,25,26,25,25,25,25,26,26,25,25,25,25,25,25,25,26,25,25,25,25,25,25,25,25,10,26,25,26,10,25,25,25,
25,25,25,25,10,25,25,10,25,25,25,25,25,26,26,25,25,25,26,10,25,26,26,26,25,25,26,25,25,25,25,26,25,25,25,25,26,26,10,10,25,25,25,25,25,25,25,25,25,10,25,25,25,25,26,25,26,26,26,25,
25,25,25,25,25,25,25,26,10,25,25,25,25,25,25,25,25,25,10,10,26,10,10,25,26,25,25,25,25,25,10,25,25,25,25,10,25,25,25,25,25,25,25,25,25,25,25,25,25,25,10,25,25,26,25,25,25,25,25,25,
25,25,25,25,25,25,25,25,25,26,25,26,26,25,10,26,25,26,25,25,10,25,26,25,26,25,25,25,25,25,25,25,26,25,10,25,10,25,10,10,25,26,25,26,25,26,25,25,26,10,26,25,25,25,25,26,25,10,25,25,
25,25,26,25,25,25,25,26,25,25,25,25,25,25,10,25,25,26,10,25,25,25,25,10,26,25,25,26,25,25,25,25,26,25,10,25,25,25,25,10,25,25,25,25,25,25,25,25,25,25,25,25,25,10,25,25,25,25,25,25,
25,25,25,10,10,25,25,26,10,26,25,25,25,25,26,10,10,25,25,26,26,25,25,25,25,25,25,25,25,10,25,25,25,25,25,25,25,10,25,25,25,25,25,25,25,25,26,25,10,25,10,25,25,25,25,10,25,26,25,26,
25,25,10,25,25,25,25,25,26,25,25,25,25,26,25,25,26,10,25,25,26,10,25,25,25,25,10,25,10,25,25,26,25,25,25,25,25,25,25,25,25,25,25,25,25,25,10,25,10,25,25,26,25,25,25,25,26,25,26,25,
25,25,25,25,25,25,26,25,26,26,26,25,26,10,25,25,25,10,25,25,25,25,26,25,10,25,26,25,25,25,25,25,25,25,10,25,25,25,26,10,25,25,26,25,10,25,25,25,26,25,25,10,25,26,25,25,25,26,25,25
  </data>
 </layer>
 <layer id="2" name="02_Walls" width="60" height="48">
  <data encoding="csv">
100,100,100,100,100,100,100,100,100,100,100,100,100,100,100,100,100,100,100,100,100,100,100,100,100,100,100,100,100,100,100,100,100,100,100,100,100,100,100,100,100,100,100,100,100,100,100,100,100,100,100,100,100,100,100,100,100,100,100,100,
100,100,100,100,100,100,100,100,100,100,100,100,100,100,100,100,100,100,100,100,100,100,100,100,100,100,100,100,100,100,100,100,100,100,100,100,100,100,100,100,100,100,100,100,100,100,100,100,100,100,100,100,100,100,100,100,100,100,100,100,
100,100,0,0,0,0,0,0,0,0,0,0,0,0,0,0,0,0,0,0,0,0,0,0,0,0,0,0,0,0,0,0,0,0,0,0,0,0,0,0,0,0,0,0,0,0,0,0,0,0,0,0,0,0,0,0,0,0,100,100,
100,100,0,0,0,0,0,0,0,0,0,0,0,0,0,0,0,0,0,0,0,0,0,0,0,0,0,0,0,0,0,0,0,0,0,0,0,0,0,0,0,0,0,0,0,0,0,0,0,0,0,0,0,0,0,0,0,0,100,100,
100,100,0,0,0,0,0,0,0,0,0,0,0,0,0,0,0,0,0,0,0,0,0,0,0,0,0,0,0,0,0,0,0,0,0,0,0,0,0,0,0,0,0,0,0,0,0,0,0,0,0,0,0,0,0,0,0,0,100,100,
100,100,0,0,0,0,0,0,0,0,0,0,0,0,0,0,0,0,0,0,0,0,0,0,0,0,0,0,0,0,0,0,0,0,0,0,0,0,0,0,0,0,0,0,0,0,0,0,0,0,0,0,0,0,0,0,0,0,100,100,
100,100,0,0,0,0,0,0,0,0,0,0,0,0,0,0,0,0,0,0,0,0,0,0,0,0,0,0,0,0,0,0,0,0,0,0,0,0,0,0,0,0,0,0,0,0,0,0,0,0,0,0,0,0,0,0,0,0,100,100,
100,100,0,0,0,0,0,0,0,0,0,0,0,0,0,0,0,0,0,0,0,0,0,0,0,0,0,0,0,0,0,0,0,0,0,0,0,0,0,0,0,0,0,0,0,0,0,0,0,0,0,0,0,0,0,0,0,0,100,100,
100,100,0,0,0,0,0,0,148,148,148,148,148,148,148,0,0,0,0,0,0,0,0,0,0,0,0,0,0,0,0,0,0,0,0,0,0,0,0,0,0,0,0,0,148,148,148,148,148,148,148,0,0,0,0,0,0,0,100,100,
100,100,0,0,0,0,0,0,148,0,0,0,0,0,148,0,0,0,0,0,0,0,0,0,0,0,0,0,0,0,0,0,0,0,0,0,0,0,0,0,0,0,0,0,148,0,0,0,0,0,148,0,0,0,0,0,0,0,100,100,
100,100,0,0,0,0,0,0,148,0,0,0,0,0,148,0,0,0,0,0,0,0,148,148,148,148,148,0,0,0,0,0,0,0,0,0,0,0,0,0,0,0,0,0,148,0,0,0,0,0,148,0,0,0,0,0,0,0,100,100,
100,100,0,0,0,0,0,0,148,0,0,0,0,0,148,0,0,0,0,0,0,0,148,0,0,0,148,0,0,0,0,0,0,0,0,0,0,0,0,0,0,0,0,0,148,0,0,0,0,0,148,0,0,0,0,0,0,0,100,100,
100,100,0,0,0,0,0,0,148,0,0,0,0,0,148,0,0,0,0,0,0,0,148,0,0,0,148,0,0,0,0,0,0,0,0,0,0,0,0,0,0,0,0,0,148,0,0,0,0,0,148,0,0,0,0,0,0,0,100,100,
100,100,0,0,0,0,0,0,148,0,0,0,0,0,148,0,0,0,0,0,0,0,148,0,0,0,148,0,0,0,0,0,0,0,0,0,0,0,0,0,0,0,0,0,148,0,0,0,0,0,148,0,0,0,0,0,0,0,100,100,
100,100,0,0,0,0,0,0,148,148,148,148,148,148,148,0,0,0,0,0,0,0,148,148,148,148,148,0,0,0,0,0,0,0,0,0,0,0,0,0,0,0,0,0,148,148,148,148,148,148,148,0,0,0,0,0,0,0,100,100,
100,100,0,0,0,0,0,0,0,0,0,0,0,0,0,0,0,0,0,0,0,0,0,0,0,0,0,0,0,0,0,148,148,148,148,148,148,0,0,0,0,0,0,0,0,0,0,0,0,0,0,0,0,0,0,0,0,0,100,100,
100,100,0,0,0,0,0,0,0,0,0,0,0,0,0,0,0,0,0,0,0,0,0,0,0,0,0,0,0,0,0,0,0,0,0,0,148,0,0,0,0,0,0,0,0,0,0,0,0,0,0,0,0,0,0,0,0,0,100,100,
100,100,0,0,0,0,0,0,0,0,0,0,0,0,0,0,0,0,0,0,0,0,0,0,0,0,0,0,0,0,0,0,0,0,0,0,148,0,0,0,0,0,0,0,0,0,0,0,0,0,0,0,0,0,0,0,0,0,100,100,
100,100,0,0,0,0,0,0,0,0,0,0,0,0,0,0,0,0,0,0,0,0,0,0,0,0,0,0,0,0,0,0,0,0,0,0,148,0,0,0,0,0,0,0,0,0,0,0,0,0,0,0,0,0,0,0,0,0,100,100,
100,100,0,0,0,0,0,0,0,0,0,0,0,0,0,0,0,0,0,0,0,0,0,0,0,0,0,0,0,0,0,0,0,0,0,0,148,0,0,0,0,0,0,0,0,0,0,0,0,0,0,0,0,0,0,0,0,0,100,100,
100,100,0,0,0,0,0,0,148,148,148,148,148,148,148,0,0,0,0,0,0,0,0,0,0,0,0,0,0,0,0,148,148,148,148,148,148,0,0,0,0,0,0,0,148,148,148,148,148,148,148,0,0,0,0,0,0,0,100,100,
100,100,0,0,0,0,0,0,148,0,0,0,0,0,148,0,0,0,0,0,0,0,0,0,0,0,0,0,0,0,0,0,0,0,0,0,0,0,0,0,0,0,0,0,148,0,0,0,0,0,148,0,0,0,0,0,0,0,100,100,
100,100,0,0,0,0,0,0,148,0,0,0,0,0,148,0,0,0,0,0,0,0,0,0,0,0,0,0,0,0,0,0,0,0,0,0,0,0,0,0,0,0,0,0,148,0,0,0,0,0,148,0,0,0,0,0,0,0,100,100,
100,100,0,0,0,0,0,0,0,0,0,0,0,0,0,0,0,0,0,0,0,0,0,0,0,0,0,0,0,0,0,0,0,0,0,0,0,0,0,0,0,0,0,0,0,0,0,0,0,0,0,0,0,0,0,0,0,0,100,100,
100,100,0,0,0,0,0,0,0,0,0,0,0,0,0,0,0,0,0,0,0,0,0,0,0,0,0,0,0,0,0,0,0,0,0,0,0,0,0,0,0,0,0,0,0,0,0,0,0,0,0,0,0,0,0,0,0,0,100,100,
100,100,0,0,0,0,0,0,148,0,0,0,0,0,148,0,0,0,0,0,0,0,0,0,0,0,0,0,0,0,0,0,0,0,0,0,0,0,0,0,0,0,0,0,148,0,0,0,0,0,148,0,0,0,0,0,0,0,100,100,
100,100,0,0,0,0,0,0,148,148,148,148,148,148,148,0,0,0,0,0,0,0,0,0,0,0,0,0,0,0,0,0,0,0,0,0,0,0,0,0,0,0,0,0,148,148,148,148,148,148,148,0,0,0,0,0,0,0,100,100,
100,100,0,0,0,0,0,0,0,0,0,0,0,0,0,0,0,0,0,0,0,0,0,0,0,0,0,0,0,0,0,0,0,0,0,0,0,0,0,0,0,0,0,0,0,0,0,0,0,0,0,0,0,0,0,0,0,0,100,100,
100,100,0,0,0,0,0,0,0,0,0,0,0,0,0,0,0,0,0,0,0,0,0,0,0,0,0,0,0,0,0,0,0,0,0,0,0,0,0,0,0,0,0,0,0,0,0,0,0,0,0,0,0,0,0,0,0,0,100,100,
100,100,0,0,0,0,0,0,0,0,0,0,0,0,0,0,0,0,0,0,0,0,0,0,0,0,0,0,0,0,0,0,0,0,0,0,0,0,0,0,0,0,0,0,0,0,0,0,0,0,0,0,0,0,0,0,0,0,100,100,
100,100,0,0,0,0,0,0,0,0,0,0,0,0,0,0,0,0,0,0,0,0,148,148,148,148,148,0,0,0,0,0,0,0,0,0,0,0,0,0,0,0,0,0,0,0,0,0,0,0,0,0,0,0,0,0,0,0,100,100,
100,100,0,0,0,0,0,0,0,0,0,0,0,0,0,0,0,0,0,0,0,0,148,0,0,0,148,0,0,0,0,0,0,0,0,0,0,0,0,0,0,0,0,0,0,0,0,0,0,0,0,0,0,0,0,0,0,0,100,100,
100,100,0,0,0,0,0,0,0,0,0,0,0,0,0,0,0,0,0,0,0,0,148,0,0,0,148,0,0,0,0,0,0,0,0,0,0,0,0,0,0,0,0,0,0,0,0,0,0,0,0,0,0,0,0,0,0,0,100,100,
100,100,0,0,0,0,0,0,0,0,0,0,0,0,0,0,0,0,0,0,0,0,148,0,0,0,148,0,0,0,0,0,0,0,0,0,0,0,0,0,0,0,0,0,0,0,0,0,0,0,0,0,0,0,0,0,0,0,100,100,
100,100,0,0,0,0,0,0,0,0,0,0,0,0,0,0,0,0,0,0,0,0,148,0,0,0,148,0,0,0,0,0,0,0,0,0,0,0,0,0,0,0,0,0,0,0,0,0,0,0,0,0,0,0,0,0,0,0,100,100,
100,100,0,0,0,0,0,0,0,0,0,0,0,0,0,0,0,0,0,0,0,0,148,148,148,148,148,0,0,0,0,0,0,0,0,0,0,0,0,0,0,0,0,0,0,0,0,0,0,0,0,0,0,0,0,0,0,0,100,100,
100,100,0,0,0,0,0,0,0,0,0,0,0,0,0,0,0,0,0,0,0,0,0,0,0,0,0,0,0,0,0,0,0,0,0,0,0,0,0,0,0,0,0,0,0,0,0,0,0,0,0,0,0,0,0,0,0,0,100,100,
100,100,0,0,0,0,0,0,0,0,0,0,0,0,0,0,0,0,0,0,0,0,0,0,0,0,0,0,0,0,0,0,0,0,0,0,0,0,0,0,0,0,0,0,0,0,0,0,0,0,0,0,0,0,0,0,0,0,100,100,
100,100,0,0,0,0,0,0,0,0,0,0,0,0,0,0,0,0,0,0,0,0,0,0,0,0,0,0,0,0,0,0,0,0,0,0,0,0,0,0,0,0,0,0,0,0,0,0,0,0,0,0,0,0,0,0,0,0,100,100,
100,100,0,0,0,0,0,0,0,0,0,0,0,0,0,0,0,0,0,0,0,0,0,0,0,0,0,0,0,0,0,0,0,0,0,0,0,0,0,0,0,0,0,0,0,0,0,0,0,0,0,0,0,0,0,0,0,0,100,100,
100,100,0,0,0,0,0,0,0,0,0,0,0,0,0,0,0,0,0,0,0,0,0,0,0,0,0,0,0,0,0,0,0,0,0,0,0,0,0,0,0,0,0,0,0,0,0,0,0,0,0,0,0,0,0,0,0,0,100,100,
100,100,0,0,0,0,0,0,0,0,0,0,0,0,0,0,0,0,0,0,0,0,0,0,0,0,0,0,0,0,0,0,0,0,0,0,0,0,0,0,0,0,0,0,0,0,0,0,0,0,0,0,0,0,0,0,0,0,100,100,
100,100,0,0,0,0,0,0,0,0,0,0,0,0,0,0,0,0,0,0,0,0,0,0,0,0,0,0,0,0,0,0,0,0,0,0,0,0,0,0,0,0,0,0,0,0,0,0,0,0,0,0,0,0,0,0,0,0,100,100,
100,100,0,0,0,0,0,0,0,0,0,0,0,0,0,0,0,0,0,0,0,0,0,0,0,0,0,0,0,0,0,0,0,0,0,0,0,0,0,0,0,0,0,0,0,0,0,0,0,0,0,0,0,0,0,0,0,0,100,100,
100,100,0,0,0,0,0,0,0,0,0,0,0,0,0,0,0,0,0,0,0,0,0,0,0,0,0,0,0,0,0,0,0,0,0,0,0,0,0,0,0,0,0,0,0,0,0,0,0,0,0,0,0,0,0,0,0,0,100,100,
100,100,0,0,0,0,0,0,0,0,0,0,0,0,0,0,0,0,0,0,0,0,0,0,0,0,0,0,0,0,0,0,0,0,0,0,0,0,0,0,0,0,0,0,0,0,0,0,0,0,0,0,0,0,0,0,0,0,100,100,
100,100,100,100,100,100,100,100,100,100,100,100,100,100,100,100,100,100,100,100,100,100,100,100,100,100,100,100,100,100,100,100,100,100,100,100,100,100,100,100,100,100,100,100,100,100,100,100,100,100,100,100,100,100,100,100,100,100,100,100,
100,100,100,100,100,100,100,100,100,100,100,100,100,100,100,100,100,100,100,100,100,100,100,100,100,100,100,100,100,100,100,100,100,100,100,100,100,100,100,100,100,100,100,100,100,100,100,100,100,100,100,100,100,100,100,100,100,100,100,100
  </data>
 </layer>
 <layer id="3" name="03_Props" width="60" height="48">
  <data encoding="csv">
0,0,0,0,0,0,0,0,0,0,0,0,0,0,0,0,0,0,0,0,0,0,0,0,0,0,0,0,0,0,0,0,0,0,0,0,0,0,0,0,0,0,0,0,0,0,0,0,0,0,0,0,0,0,0,0,0,0,0,0,
0,0,0,0,0,0,0,0,0,0,0,0,0,0,0,0,0,0,0,0,0,0,0,0,0,0,0,0,0,0,0,0,0,0,0,0,0,0,0,0,0,0,0,0,0,0,0,0,0,0,0,0,0,0,0,0,0,0,0,0,
0,0,0,0,0,0,0,0,0,0,0,0,0,0,0,0,0,0,0,0,0,0,0,0,0,0,0,0,0,0,0,0,0,0,0,0,0,0,0,0,0,0,0,0,0,0,0,0,0,0,0,0,0,0,0,0,0,0,0,0,
0,0,0,0,0,0,0,0,0,0,0,0,0,0,0,0,0,0,0,0,0,0,0,0,0,0,0,0,0,0,0,0,0,0,0,0,0,0,0,0,0,0,0,0,0,0,0,0,0,0,0,0,0,0,0,0,0,0,0,0,
0,0,0,0,0,0,0,0,0,0,0,0,0,0,0,0,0,0,0,0,0,0,0,0,0,0,0,0,0,0,0,0,0,0,0,0,0,0,0,0,0,0,0,0,0,0,0,0,0,0,0,0,0,0,0,0,0,0,0,0,
0,0,0,0,0,0,0,0,0,0,0,0,0,0,0,0,0,0,0,0,0,0,0,0,0,0,0,0,0,0,0,0,0,0,0,0,0,0,0,0,0,0,0,0,0,0,0,0,0,0,0,0,0,0,0,0,0,0,0,0,
0,0,0,0,0,0,0,0,0,0,0,0,0,0,0,0,0,0,0,0,0,0,0,0,0,0,0,0,0,0,0,0,0,0,0,0,0,0,0,0,0,0,0,0,0,0,0,0,0,0,0,0,0,0,0,0,0,0,0,0,
0,0,0,0,0,0,0,0,0,0,0,0,0,0,0,0,0,0,0,0,0,0,0,0,0,0,0,0,0,0,0,0,0,0,0,0,0,0,0,0,0,0,0,0,0,0,0,0,0,0,0,0,0,0,0,0,0,0,0,0,
0,0,0,0,0,0,0,0,0,0,0,0,0,0,0,0,0,0,0,0,0,0,0,0,0,0,0,0,0,0,0,0,0,0,0,0,0,0,0,0,0,0,0,0,0,0,0,0,0,0,0,0,0,0,0,0,0,0,0,0,
0,0,0,0,0,0,0,0,0,0,0,0,0,0,0,0,0,0,0,0,0,0,0,0,0,0,0,0,0,0,0,0,0,0,0,0,0,0,0,0,0,0,0,0,0,0,0,0,0,0,0,0,0,0,0,0,0,0,0,0,
0,0,0,0,0,0,0,0,0,0,0,0,0,0,0,0,0,0,0,0,0,0,0,0,0,0,0,0,0,0,0,0,0,0,0,0,0,0,0,0,0,0,0,0,0,0,0,0,0,0,0,0,0,0,0,0,0,0,0,0,
0,0,0,0,0,0,0,0,0,0,0,0,0,0,0,0,0,0,0,0,0,0,0,0,0,0,0,0,0,0,0,0,0,0,0,0,0,0,0,0,0,0,0,0,0,0,0,0,0,0,0,0,0,0,0,0,0,0,0,0,
0,0,0,0,0,0,0,0,0,0,0,0,0,0,0,0,0,0,0,0,0,0,0,0,0,0,0,0,0,0,0,0,0,0,0,0,0,0,0,0,0,0,0,0,0,0,0,0,0,0,0,0,0,0,0,0,0,0,0,0,
0,0,0,0,0,0,0,0,0,0,0,0,0,0,0,0,0,0,0,0,0,0,0,0,0,0,0,0,0,0,0,0,0,0,0,0,0,0,0,0,0,0,0,0,0,0,0,0,0,0,0,0,0,0,0,0,0,0,0,0,
0,0,0,0,0,0,0,0,0,0,0,0,0,0,0,0,0,0,0,0,0,0,0,0,0,0,0,0,0,0,0,0,0,0,0,0,0,0,0,0,0,0,0,0,0,0,0,0,0,0,0,0,0,0,0,0,0,0,0,0,
0,0,0,0,0,0,0,0,0,0,0,0,0,0,0,0,0,0,0,0,0,0,0,0,0,0,0,0,0,0,0,0,0,0,0,0,0,0,0,0,0,0,0,0,0,0,0,0,0,0,0,0,0,0,0,0,0,0,0,0,
0,0,0,0,0,0,0,0,0,0,0,0,0,0,0,0,0,0,0,0,0,0,0,0,0,0,0,0,0,0,0,0,0,0,0,0,0,0,0,0,0,0,0,0,0,0,0,0,0,0,0,0,0,0,0,0,0,0,0,0,
0,0,0,0,0,0,0,0,0,0,0,0,0,0,0,0,0,0,0,0,0,0,0,0,0,0,0,0,0,0,0,0,0,0,0,0,0,0,0,0,0,0,0,0,0,0,0,0,0,0,0,0,0,0,0,0,0,0,0,0,
0,0,0,0,0,0,0,0,0,0,0,0,0,0,0,0,0,0,0,0,0,0,0,0,0,0,0,0,0,0,0,0,0,0,0,0,0,0,0,0,0,0,0,0,0,0,0,0,0,0,0,0,0,0,0,0,0,0,0,0,
0,0,0,0,0,0,0,0,0,0,0,0,0,0,0,0,0,0,0,0,0,0,0,0,0,0,0,0,0,0,0,0,0,0,0,0,0,0,0,0,0,0,0,0,0,0,0,0,0,0,0,0,0,0,0,0,0,0,0,0,
0,0,0,0,0,0,0,0,0,0,0,0,0,0,0,0,0,0,0,0,0,0,0,0,0,0,0,0,0,0,0,0,0,0,0,0,0,0,0,0,0,0,0,0,0,0,0,0,0,0,0,0,0,0,0,0,0,0,0,0,
0,0,0,0,0,0,0,0,0,0,0,0,0,0,0,0,0,0,0,0,0,0,0,0,0,0,0,0,0,0,0,0,0,0,0,0,0,0,0,0,0,0,0,0,0,0,0,0,0,0,0,0,0,0,0,0,0,0,0,0,
0,0,0,0,0,0,0,0,0,0,0,0,0,0,0,0,0,0,0,0,0,0,0,0,0,0,0,0,0,0,0,0,0,0,0,0,0,0,0,0,0,0,0,0,0,0,0,0,0,0,0,0,0,0,0,0,0,0,0,0,
0,0,0,0,0,0,0,0,0,0,0,0,0,0,0,0,0,0,0,0,0,0,0,0,0,0,0,0,0,0,0,0,0,0,0,0,0,0,0,0,0,0,0,0,0,0,0,0,0,0,0,0,0,0,0,0,0,0,0,0,
0,0,0,0,0,0,0,0,0,0,0,0,0,0,0,0,0,0,0,0,0,0,0,0,0,0,0,0,0,0,0,0,0,0,0,0,0,0,0,0,0,0,0,0,0,0,0,0,0,0,0,0,0,0,0,0,0,0,0,0,
0,0,0,0,0,0,0,0,0,0,0,0,0,0,0,0,0,0,0,0,0,0,0,0,0,0,0,0,0,0,0,0,0,0,0,0,0,0,0,0,0,0,0,0,0,0,0,0,0,0,0,0,0,0,0,0,0,0,0,0,
0,0,0,0,0,0,0,0,0,0,0,0,0,0,0,0,0,0,0,0,0,0,0,0,0,0,0,0,0,0,0,0,0,0,0,0,0,0,0,0,0,0,0,0,0,0,0,0,0,0,0,0,0,0,0,0,0,0,0,0,
0,0,0,0,0,0,0,0,0,0,0,0,0,0,0,0,0,0,0,0,0,0,0,0,0,0,0,0,0,0,0,0,0,0,0,0,0,0,0,0,0,0,0,0,0,0,0,0,0,0,0,0,0,0,0,0,0,0,0,0,
0,0,0,0,0,0,0,0,0,0,0,0,0,0,0,0,0,0,0,0,0,0,0,0,0,0,0,0,0,0,0,0,0,0,0,0,0,0,0,0,0,0,0,0,0,0,0,0,0,0,0,0,0,0,0,0,0,0,0,0,
0,0,0,0,0,0,0,0,0,0,0,0,0,0,0,0,0,0,0,0,0,0,0,0,0,0,0,0,0,0,0,0,0,0,0,0,0,0,0,0,0,0,0,0,0,0,0,0,0,0,0,0,0,0,0,0,0,0,0,0,
0,0,0,0,0,0,0,0,0,0,0,0,0,0,0,0,0,0,0,0,0,0,0,0,0,0,0,0,0,0,0,0,0,0,0,0,0,0,0,0,0,0,0,0,0,0,0,0,0,0,0,0,0,0,0,0,0,0,0,0,
0,0,0,0,0,0,0,0,0,0,0,0,0,0,0,0,0,0,0,0,0,0,0,0,0,0,0,0,0,0,0,0,0,0,0,0,0,0,0,0,0,0,0,0,0,0,0,0,0,0,0,0,0,0,0,0,0,0,0,0,
0,0,0,0,0,0,0,0,0,0,0,0,0,0,0,0,0,0,0,0,0,0,0,0,0,0,0,0,0,0,0,0,0,0,0,0,0,0,0,0,0,0,0,0,0,0,0,0,0,0,0,0,0,0,0,0,0,0,0,0,
0,0,0,0,0,0,0,0,0,0,0,0,0,0,0,0,0,0,0,0,0,0,0,0,0,0,0,0,0,0,0,0,0,0,0,0,0,0,0,0,0,0,0,0,0,0,0,0,0,0,0,0,0,0,0,0,0,0,0,0,
0,0,0,0,0,0,0,0,0,0,0,0,0,0,0,0,0,0,0,0,0,0,0,0,0,0,0,0,0,0,0,0,0,0,0,0,0,0,0,0,0,0,0,0,0,0,0,0,0,0,0,0,0,0,0,0,0,0,0,0,
0,0,0,0,0,0,0,0,0,0,0,0,0,0,0,0,0,0,0,0,0,0,0,0,0,0,0,0,0,0,0,0,0,0,0,0,0,0,0,0,0,0,0,0,0,0,0,0,0,0,0,0,0,0,0,0,0,0,0,0,
0,0,0,0,0,0,0,0,0,0,0,0,0,0,0,0,0,0,0,0,0,0,0,0,0,0,0,0,0,0,0,0,0,0,0,0,0,0,0,0,0,0,0,0,0,0,0,0,0,0,0,0,0,0,0,0,0,0,0,0,
0,0,0,0,0,0,0,0,0,0,0,0,0,0,0,0,0,0,0,0,0,0,0,0,0,0,0,0,0,0,0,0,0,0,0,0,0,0,0,0,0,0,0,0,0,0,0,0,0,0,0,0,0,0,0,0,0,0,0,0,
0,0,0,0,0,0,0,0,0,0,0,0,0,0,0,0,0,0,0,0,0,0,0,0,0,0,0,0,0,0,0,0,0,0,0,0,0,0,0,0,0,0,0,0,0,0,0,0,0,0,0,0,0,0,0,0,0,0,0,0,
0,0,0,0,0,0,0,0,0,0,0,0,0,0,0,0,0,0,0,0,0,0,0,0,0,0,0,0,0,0,0,0,0,0,0,0,0,0,0,0,0,0,0,0,0,0,0,0,0,0,0,0,0,0,0,0,0,0,0,0,
0,0,0,0,0,0,0,0,0,0,0,0,0,0,0,0,0,0,0,0,0,0,0,0,0,0,0,0,0,0,0,0,0,0,0,0,0,0,0,0,0,0,0,0,0,0,0,0,0,0,0,0,0,0,0,0,0,0,0,0,
0,0,0,0,0,0,0,0,0,0,0,0,0,0,0,0,0,0,0,0,0,0,0,0,0,0,0,0,0,0,0,0,0,0,0,0,0,0,0,0,0,0,0,0,0,0,0,0,0,0,0,0,0,0,0,0,0,0,0,0,
0,0,0,0,0,0,0,0,0,0,0,0,0,0,0,0,0,0,0,0,0,0,0,0,0,0,0,0,0,0,0,0,0,0,0,0,0,0,0,0,0,0,0,0,0,0,0,0,0,0,0,0,0,0,0,0,0,0,0,0,
0,0,0,0,0,0,0,0,0,0,0,0,0,0,0,0,0,0,0,0,0,0,0,0,0,0,0,0,0,0,0,0,0,0,0,0,0,0,0,0,0,0,0,0,0,0,0,0,0,0,0,0,0,0,0,0,0,0,0,0,
0,0,0,0,0,0,0,0,0,0,0,0,0,0,0,0,0,0,0,0,0,0,0,0,0,0,0,0,0,0,0,0,0,0,0,0,0,0,0,0,0,0,0,0,0,0,0,0,0,0,0,0,0,0,0,0,0,0,0,0,
0,0,0,0,0,0,0,0,0,0,0,0,0,0,0,0,0,0,0,0,0,0,0,0,0,0,0,0,0,0,0,0,0,0,0,0,0,0,0,0,0,0,0,0,0,0,0,0,0,0,0,0,0,0,0,0,0,0,0,0,
0,0,0,0,0,0,0,0,0,0,0,0,0,0,0,0,0,0,0,0,0,0,0,0,0,0,0,0,0,0,0,0,0,0,0,0,0,0,0,0,0,0,0,0,0,0,0,0,0,0,0,0,0,0,0,0,0,0,0,0,
0,0,0,0,0,0,0,0,0,0,0,0,0,0,0,0,0,0,0,0,0,0,0,0,0,0,0,0,0,0,0,0,0,0,0,0,0,0,0,0,0,0,0,0,0,0,0,0,0,0,0,0,0,0,0,0,0,0,0,0
  </data>
 </layer>
</map>