<?xml version="1.0" encoding="UTF-8"?>
<map version="1.10" tiledversion="1.10.2" orientation="orthogonal" renderorder="right-down" width="40" height="28" tilewidth="48" tileheight="48" infinite="0" nextlayerid="7" nextobjectid="28">
 <properties>
  <property name="groundStyle" value="cave"/>
 </properties>
 <objectgroup id="1" name="features">
  <object id="1" name="west_wall" x="0" y="0" width="220" height="1344">
   <properties>
    <property name="kind" value="cliff"/>
   </properties>
  </object>
  <object id="2" name="north_wall" x="0" y="0" width="1920" height="170">
   <properties>
    <property name="kind" value="cliff"/>
   </properties>
  </object>
  <object id="3" name="central_pillar" x="760" y="468" width="240" height="260">
   <properties>
    <property name="kind" value="ruin"/>
   </properties>
  </object>
  <object id="4" name="east_pillar" x="1420" y="320" width="220" height="220">
   <properties>
    <property name="kind" value="ruin"/>
   </properties>
  </object>
 </objectgroup>
 <objectgroup id="2" name="collisions">
  <object id="5" x="0" y="0" width="220" height="1344"/>
  <object id="6" x="0" y="0" width="1920" height="170"/>
  <object id="7" x="0" y="1284" width="1920" height="60"/>
  <object id="8" x="1860" y="0" width="60" height="1344"/>
  <object id="9" x="760" y="468" width="240" height="260"/>
  <object id="10" x="1420" y="320" width="220" height="220"/>
 </objectgroup>
 <objectgroup id="3" name="spawn_points">
  <object id="11" name="cave_entry" type="player" x="260" y="924">
   <properties>
    <property name="spawnId" value="cave_entry"/>
   </properties>
  </object>
  <object id="12" name="enemy_1" type="enemy" x="520" y="864"/>
  <object id="13" name="enemy_2" type="enemy" x="1160" y="754"/>
  <object id="14" name="enemy_3" type="enemy" x="1380" y="540"/>
  <object id="15" name="enemy_4" type="enemy" x="1660" y="414"/>
 </objectgroup>
 <objectgroup id="4" name="doors">
  <object id="16" name="verdant_fields_exit" x="180" y="892" width="72" height="72">
   <properties>
    <property name="label" value="Verdant Fields"/>
    <property name="targetZone" value="verdant_fields"/>
    <property name="targetSpawn" value="from_caves"/>
   </properties>
  </object>
 </objectgroup>
 <objectgroup id="5" name="npcs">
  <object id="17" name="scout" x="430" y="674">
   <properties>
    <property name="npcId" value="cave_scout"/>
    <property name="displayName" value="Rhea"/>
   </properties>
  </object>
 </objectgroup>
 <objectgroup id="6" name="chests">
  <object id="18" name="luminous_shard_cache" x="1540" y="584">
   <properties>
    <property name="gold" value="45"/>
    <property name="potions" value="1"/>
    <property name="keyItemReward" value="luminous_shard"/>
    <property name="questFlag" value="quest_shard_found"/>
    <property name="message" value="Inside the cache, the Luminous Shard pulses with workshop energy."/>
   </properties>
  </object>
 </objectgroup>
</map>
